/* XPM */
static char *b92fc22a6a614cc2890abd9c8f3d335cGNoryKMglzgvY9Ht[] = {
/* columns rows colors chars-per-pixel */
"219 169 253 2 ",
"   c black",
".  c #07090B",
"X  c gray4",
"o  c #0F1215",
"O  c #1E221E",
"+  c #1B2328",
"@  c #1B2938",
"#  c #282828",
"$  c #283139",
"%  c #5B5B27",
"&  c #404031",
"*  c #524E34",
"=  c #6F6F32",
"-  c #1B3049",
";  c #2A3847",
":  c #333D48",
">  c #2E3C50",
",  c #38434C",
"<  c #334756",
"1  c #384755",
"2  c #3C4C5B",
"3  c #1C4B77",
"4  c #394D63",
"5  c #3D5267",
"6  c #2E4E74",
"7  c #44494B",
"8  c #50564B",
"9  c #434C54",
"0  c #444D59",
"q  c #4A5556",
"w  c #44525C",
"e  c #4B545C",
"r  c #545A59",
"t  c #645C52",
"y  c #5A644C",
"u  c #5A6459",
"i  c #666959",
"p  c #717053",
"a  c #475266",
"s  c #495766",
"d  c #535C64",
"f  c #555D68",
"g  c #465B73",
"h  c #5B6566",
"j  c #54626C",
"k  c #5B646C",
"l  c #506475",
"z  c #596775",
"x  c #5C6A74",
"c  c #656969",
"v  c #746C6D",
"b  c #6A7468",
"n  c #767768",
"m  c #636C74",
"M  c #656D78",
"N  c #6B7576",
"B  c #65727C",
"V  c #6B747C",
"C  c #757878",
"Z  c #737A7D",
"A  c #827C56",
"S  c #837C71",
"D  c #7C8236",
"F  c #7B824F",
"G  c #75826F",
"H  c #79847A",
"J  c #868637",
"K  c #928D5E",
"L  c #8A8976",
"P  c #174F87",
"I  c #1B4D87",
"U  c #1D4E89",
"Y  c #1F508B",
"T  c #1F5490",
"R  c #22528D",
"E  c #2E5588",
"W  c #2A568D",
"Q  c #235692",
"!  c #295A97",
"~  c #335E98",
"^  c #30619A",
"/  c #36629B",
"(  c #3B649D",
")  c #2F5FA1",
"_  c #3766A7",
"`  c #3064AB",
"'  c #4C6C95",
"]  c #5D779F",
"[  c #6A7783",
"{  c #6D7A84",
"}  c #68768C",
"|  c #737C84",
" . c #767E87",
".. c #436CA3",
"X. c #456DA6",
"o. c #4B73A8",
"O. c #567AAA",
"+. c #547CB2",
"@. c #857E83",
"#. c #7C8285",
"$. c #7A8687",
"%. c #75828C",
"&. c #7B848C",
"*. c #748791",
"=. c #7B8691",
"-. c #798896",
";. c #7D8994",
":. c #5D81AC",
">. c #5C83B3",
",. c #6484AD",
"<. c #6589B5",
"1. c #6A8CB4",
"2. c #6F91B6",
"3. c #7796BB",
"4. c #799BB8",
"5. c #6C93C3",
"6. c #7A9BC4",
"7. c #7DA1CB",
"8. c #878987",
"9. c #81868B",
"0. c #848A8D",
"q. c #948B89",
"w. c #899489",
"e. c #95958C",
"r. c #868B96",
"t. c #838C94",
"y. c #8A8E93",
"u. c #838E99",
"i. c #8C9295",
"p. c #85919B",
"a. c #8A9598",
"s. c #8C939C",
"d. c #969694",
"f. c #92969C",
"g. c #949A9D",
"h. c #9B9C9C",
"j. c #A39B96",
"k. c #9AA29A",
"l. c #A5A39C",
"z. c #8C96A1",
"x. c #8C99A3",
"c. c #949BA4",
"v. c #959CA7",
"b. c #9A9EA4",
"n. c #839DBB",
"m. c #A29EA4",
"M. c #9CA2A5",
"N. c #97A3AA",
"B. c #9CA3AB",
"V. c #87A2BC",
"C. c #9DA7B2",
"Z. c #A2A4A5",
"A. c #A9A8A5",
"S. c #A2A5AB",
"D. c #A5AAAD",
"F. c #AAACAD",
"G. c #B0AFAC",
"H. c #B4B3AD",
"J. c #A4ABB3",
"K. c #A4AAB5",
"L. c #AAADB2",
"P. c #ADB2B4",
"I. c #ACB3BA",
"U. c #A9B4B9",
"Y. c #B2B4B5",
"T. c #B8B9B5",
"R. c #B2B6BA",
"E. c #B5BABC",
"W. c #BABCBC",
"Q. c #C2BCB8",
"!. c #BFC0AE",
"~. c #BCC1BE",
"^. c #C3C2BD",
"/. c #D1C5BE",
"(. c #829EC3",
"). c #89A6C8",
"_. c #92ADCB",
"`. c #98B2CE",
"'. c #89AAD4",
"]. c #91AFD3",
"[. c #9AB7D5",
"{. c #ABB7C3",
"}. c #B4BCC2",
"|. c #B4BAC5",
" X c #BABEC2",
".X c #A3BCD5",
"XX c #A3BEDA",
"oX c #9DBAE4",
"OX c #C2BEC6",
"+X c #9FC1DE",
"@X c #BDC2C4",
"#X c #B9C4C7",
"$X c #BDC4CA",
"%X c #A8C3DA",
"&X c #ABC4DB",
"*X c #B4CADD",
"=X c #BCD0DD",
"-X c #AAC6E3",
";X c #B4CCE2",
":X c #BACEE2",
">X c #B5CAE8",
",X c #BCD2E4",
"<X c #BBD3E8",
"1X c #B7CEF3",
"2X c #C2C5C4",
"3X c #C5C9C6",
"4X c #CACAC5",
"5X c #C2C6C9",
"6X c #C5CACB",
"7X c #CACDCC",
"8X c #D2CDCB",
"9X c #C7D0CC",
"0X c #CCD1CD",
"qX c #D2D3CE",
"wX c #C5CCD2",
"eX c #CACED1",
"rX c #CDD2D3",
"tX c #CBD5DA",
"yX c #D2D5D4",
"uX c #D5D9D5",
"iX c #D5D8D8",
"pX c #DADDDB",
"aX c #D7E1DD",
"sX c #DDE1DD",
"dX c #E2E3DE",
"fX c #C3D5E4",
"gX c #CBDBE6",
"hX c #C4D9E8",
"jX c #CBDDEB",
"kX c #D5DEE4",
"lX c #CBD8F1",
"zX c #E5DAE6",
"xX c #CEE1EC",
"cX c #DCE3E3",
"vX c #D3E3EC",
"bX c #DAE6EB",
"nX c #D4E5F1",
"mX c #D9E8F3",
"MX c #DCEBF3",
"NX c #E2E5E3",
"BX c #E7EAE7",
"VX c #E3EBEC",
"CX c #EDF1ED",
"ZX c #E1EEF4",
"AX c #E4ECF7",
"SX c #E3F1F5",
"DX c #EAF3F4",
"FX c #EBF9F7",
"GX c #E5F3F9",
"HX c #EAF6FB",
"JX c #EDF9FC",
"KX c #F5F9F7",
"LX c #F2FBFC",
/* pixels */
"# X n.2.3.).).3.(.[.&X=XfXfXfXfXfXjXjXvXmXMXGXGXGXGXGXGXGXHXHXJXJXJXJXHXHXZXmXmXMXxXfX,XhXhXxXjXvXmXMXMXMXmXvXjX:X-X%X[.[.].].'.).6.6.6.6.3.6.3.6.6.3.2.1.,.O.,.,.,.,.:.,.1.2.1.3.V.).).).).)._.).).n.(.3.(.).3.] ] O.,.,.,.,.,.,.,.:.O.] ' ..( ~ ~ ~ ( X.~ W R R Q R R R R R R R R R R R R R R Y R R R R Y R U U U U U U U U U U U U I U U I I I I I I I I I I I I I I I I I I I I I I I U 6 @ + . . . . . . o . . . . . . . . . . . . . o . . . . . ",
"# X ).).).)._.[.`.).[.*X,X,X;X;X;X,XhXvXnXmXMXGXGXGXGXGXGXGXGXHXJXJXJXJXHXMXvXmXmXvXxXjXgXvXvXbXMXZXSXSXGXZXnXjX,X*X%X[.[.[.[.].'.).).).).).).).).).).6.3.1.1.,.2.2.2.2.3.3.n.n.V._._._._._._._._.).).).).).).3.O.O.O.<.,.,.,.1.1.,.,.:.] o.....( ( / / ..( ! W W Q W R R R R R R R R R R R R R R R R R Y R Y U U U Y Y Y U U U U U U U U U I I I I I I I I I I I I I I I I I I I I I I I I I 3 + $ o O . . . . . . o o . . . . . . . . . . o . . o . ",
"# X )._._._._.[.%X[.[.*X,X,X;X&X&X;X,XjXnXnXmXMXGXGXGXSXSXGXGXHXHXHXJXJXHXSXmXmXmXvXvXvXjXvXvXMXMXSXGXGXGXGXmXjX,X;X%XXX.XXXXX[.]._._._._._._._._.).).).n.3.2.1.3.3.3.3.(.n.).).).`.`.`.`.`.[.`.`._.).).)._.'.6.,.O.O.<.,.:.,.1.1.1.<.,.O.O.' ' ......( ( ~ ~ ! ! W Q Q Q W Q W R R R R R R R R R R R R R R R Y Y Y Y Y R R R Y Y Y U U U U U U U I I I I I I I I I I I I I I I I I U U U I I I 6 + q . o . . . . . . . . . . . . . o . . . o . . . . ",
"# X ).).).).).[.&X-X%X&X:X<X;X*X*X;X;X*X,XfXxXmXMXZXMXMXMXZXZXGXGXGXHXHXHXHXZXMXmXmXvXvXvXvXMXZXGXHXHXGXGXZXMXjXhX;X*X&X%X%X%XXX[.`.[.[.[.`.[.[.[.[.[.`._.).(.3.n.n.).).).)._._._.[.[..X.XXXXX[.`.`._._._.`._.(.,.O.:.1.,.,.,.2.2.2.1.1.,.,.O.O.O.O...' ( ( ~ W W ! ! ! W W W ! Q W W R R R R R R R R R R R R Y R U R Y R Y U R R R U U U U U U U U U U U I I I I I I I I I I I I I U U U U U U P I > . . o . . . . . . . . . o . . . . . . . . . . . ",
"# X 2.6.).).[.XX&X;X;X&X&X*X:X;X,X:X;X[.[.%X,XhXjXxXvXnXnXbXmXmXMXMXGXGXHXGXMXMXmXmXvXvXvXmXMXSXGXHXHXHXGXZXMXxXhX:X;X;X*X;X;X&X.X.XXXXX[..X.XXXXX.X.X.X`.`.).).V.).)._._._.`.`.`..X.X.X.X%XXX[._._._.)._.`.).3.,.,.:.,.,.1.2.2.3.3.2.2.1.,.,.,.,.O.O.o.....( ~ / ~ ~ ~ ~ ~ ~ W ! W Q Q W W R R R R R R R R R R Y R R U Y Y Y R Y Y I U U I U U U U U U U I I I I I I I I I I I U U U U U U U Y I I U 3 $ . + o . . . . . . . . . . . . . . . . . . . ",
"# X :.1.7.)._.XX*X;X;X*X%X`.%X&X,X,XfX,X%X.X[.&X<XfXjXjXjXjXnXnXgXxXnXMXAXmXjXxXnXmXnXnXvXmXMXGXHXHXJXHXGXGXmXvXhX,X,X:X,X=X;X*X*X*X&X&X&X%X%X&X&X&X&X&X.X[.`._._._._.`..X.X.X.X.X.X%X&X&X&X%X[._._._._._.).(.3.1.,.,.,.1.1.2.3.3.3.3.3.2.2.1.1.<.,.O.O.O.....( ( ( ( ( ( ( ( ~ ~ ~ W W W Q Q W W Q R R R R R R R Y Y Y Y Y R Y Y Y R Y U Y U I U U U U U U U U U U U I U U U U U U U U U U U U U U R W ! E @ + + o o . . . . . . . . . o . . . . o . ",
"# X 1.1.3.6.'.[.&X:X<X<X&X[.[.[.*X,XfXhX<X;X.X[.*X,X,XfX,X,X,XhXjXvXnXmXmXvXjXgXvXnXnXvXvXMXZXGXHXHXJXJXHXSXMXvXjXfXfXfXfXfXfXfXhXhX:X;X;X:X;X;X*X*X;X;X*X%XXX`.`.`.`..X%X%X&X&X&X*X*X*X*X*X&X.X`._.`.[.[.[.).).3.2.2.2.3.3.3.3.3.3.3.3.3.3.3.3.1.1.<.,.:.O.o.................( ( ~ ~ W W W W Q Q Q W R R R R R R R R R Y U Y Y Y Y Y U U U U U U U U U U U U U I U U U U I U U U U U U U U U U Y Y W ~ ~ ! ~ E - o + + . . . o o . o o O o O o o . . ",
"# X 2.1.3.6.6.).[.;X:X<X%X`.[.[.%X*X,X,XhX,X;X&X.X*X;X;X,X;X*X*XfXvXmXmXMXMXvXxXbXMXmXmXmXMXSXGXHXJXJXJXGXSXMXmXjXjXjXhXhXhXjXjXjXjXfXfXfXfXfX,X,X,XfXfX=X*X&X.X.X.X.X.X&X&X*X*X*X*X*X*X=X*X&X[.`.`..XXX.X.X.X`.).3.3.3.3.3.3.3.3.3.3.3.3.3.3.3.2.1.1.1.,.O.O.o.o.' ..X.........( ( ( ~ ~ W ! ! ! Q Q W R R R R R R R R U Y Y Y Y Y Y U U U U U U U U U U U U U U U U U U U U U U U U U U U U U Y R ! ~ ~ / / ~ ~ ~ + $ o o . o o o o o o o $ + + . . ",
"# X 3.2.6.6.6.)._.%X;X;X%X`.].].[.%X*X:X,X,X;X*X&X&X&X*X:X:X*X&XfXvXmXmXMXZXmXmXmXMXSXMXMXGXSXHXJXJXJXJXHXSXMXmXvXjXjXjXjXjXjXxXxXvXjXjXjXjXjXgXhXgXgXhXfXtX*X*X&X.X.X&X*X*X*X*X*X=X=X=X;X*X*X[.`.[..X%X&X*X%X[.`.).n.n.V.n.3.n.6.n.3.n.6.(.6.6.3.3.3.1.1.<.:.O.O.O.O.o.o.' ......( ( / ~ ~ ~ ~ ! ! W Q Q R R R R R R Y Y Y Y Y Y Y Y Y Y Y Y Y Y U U U U U U U U U U U U U U U U U U U Y U U Y R W ! ~ ( ..( ( ~ ~ ! 6 - o o o . . o o o . $ $ o o . ",
"# X ).3.2.6.(.).].[.*X;X&X[.[.`.`.[.&X*X;X;X;X;X&X%X&X&X&X&X&X*X,XxXmXmXmXMXMXmXMXSXSXZXZXSXSXHXJXJXJXJXHXSXMXmXvXvXxXjXjXvXbXmXMXMXMXMXnXnXvXvXvXxXjXjXgXgXfX=X*X&X&X*X=X=X=X=X=X,X:X:X:X=X:X.X`.[.%X&X;X=X*X%X.X`._.).).n.n.n.).V.n.3.6.3.).(.(.3.3.3.2.2.<.,.,.:.O.O.O.o.o.......( ( / ~ ~ ~ ! ! W ! W W R R R R R R R Y Y R Y Y Y Y Y Y Y Y Y U U U U U U U U U U U U U U U U U U U Y U U U R R ! / _ ..( ( ~ ~ W W W W 6 @ o . . o o . o o o . . ",
"# X [.).6.3.3.).'.[.-X&X-X%X%X[.`.[.%X&X&X&X*X*X*X&X&X&X%X%X&X*X,XjXmXMXMXMXMXMXMXSXSXSXSXSXSXJXJXLXJXJXHXGXSXmXnXnXnXvXvXbXmXMXSXGXGXGXSXZXMXMXbXbXvXvXvXxXgXgXfX=X=XwXfXfXfXtXfXtX:X=X:X=X:X%X.X.X&X*X:X=X=X*X&X.X`._.V.V.).).).).).).n.(.(.).(.n.3.3.3.3.2.1.1.1.,.,.O.O.o.........( ( ~ ~ ~ ~ ! ! ! ! Q Q R R R R R R R R R R R Y Y Y Y Y Y Y Y Y Y Y Y Y Y Y Y Y Y Y Y Y Y Y Y Y Y U R R R R Q ! / ....( / ~ ! ! ! ~ W ! W W 4 o o . + 4 E E + o ",
"# X ;XXX].).).).).].%X%X[.%X%X%X[.`.[.[.%X%X&X&X&X&X&X&X&X&X&X*X,XgXmXMXMXMXMXMXMXSXSXSXSXSXGXJXJXLXLXJXHXHXSXMXvXvXvXvXmXMXZXGXGXHXHXGXGXGXGXSXZXMXMXmXbXvXxXjXgXtXtXgXgXgXgXfXfXfXfXfX,XfX,X&X.X.X&X:X,X=X:X*X*X.X`._.).).V.)._._._.).).).).).V.).(.3.3.3.3.3.2.1.1.,.,.O.O.o.o.....( ( ( ~ ~ ~ ~ W W ! ! W W Q R R R R R R R R Y Y Y R R Y Y Y Y Y Y Y Y Y Y Y Y Y Y Y Y Y Y Y Y Y R R R Q Q W Q ! / ....( ~ ~ ! ! ! ! ~ ~ ~ ( ~ ( ( ..( ( / ~ ( g ",
"# X ,X;XXX[.].'.'._.].].[.[.+X%X+X[.[.[.[.[..X%X%X%X&X*X&X&X&X*X,XhXjXxXvXmXMXSXSXSXSXSXSXGXGXJXJXLXLXLXHXHXSXZXmXvXmXvXMXGXGXHXJXJXJXJXJXJXHXHXGXGXSXMXMXbXvXvXxXjXgXjXjXjXjXjXgXfXhXfXfXfX,X*X%X.X&X=X=X=X,X=X:X&X.X`._.).)._._.`.`._._._._._.).).).).).3.3.3.3.3.2.1.,.:.O.O.o.o.....( ( ( / ~ ~ ~ ! ! ! Q Q W R R W R W R R R Y R Y Y R Y Y Y Y Y Y Y Y Y Y Y Y Y Y Y Y Y Y R R R R W ! W W Q W ! ( ....( ~ ~ ~ ! ~ ~ ~ ( ( ( ( ....X..._ ( ( o.2.",
"# X jX,X;X-XXX[._.].].].).)._.[.[.[.[.[.[.[.[.[.%XXX%X&X&X&X&X&X*X,XhXjXgXxXMXGXGXSXSXSXSXSXSXHXJXJXLXLXJXJXHXSXMXmXmXmXMXGXHXJXJXLXJXJXJXJXJXJXHXHXGXGXZXZXbXbXbXvXvXvXvXvXjXjXgXgXfXfXfXfXfX=X&X.X&X:X=X=X:X=X:X*X%X.X_._._._.`.`.`.`.`.`.`.`._._._.).).).).6.3.3.3.2.1.,.:.O.o.o.......( ( / ~ ~ ~ ~ ~ ! ! W Q R R R R R R R Y R R Y R Y Y Y Y Y Y Y Y R R R Y Y Y Y Y Y R R W R R W / ( ! Q W ! ~ ( ....( / ~ ~ ~ ~ / _ _ ( _ _ ..X.X...( ( ( o.(.",
"# X jXjXhX,X;X&X[.[.[.[.].).).'.].[.%X-X-X%X[.%X%X%X%XXX%X%X&X*X:XhXhXhXfXjXmXSXGXGXSXSXSXSXSXHXJXLXJXJXJXLXJXGXZXMXMXMXGXGXHXJXJXLXJXLXJXJXJXJXHXHXHXFXSXAXZXbXbXbXbXbXbXbXvXvXjXgXgXgXhXhXfX,X*X&X=X,X=X,XfX=X,X*X&X.X.X`._._.`.[.`.`.[..X.X.X`.`.`._.).).).n.n.3.3.3.2.1.,.O.O.o.o.......( / / ~ ~ ~ ~ ! ! ! Q W R R R R R R R Y R Y Y Y Y Y Y Y Y Y R R Y Y R R R R R R R W / ! W W _ X.! W W W W ( _ ..( / ~ ~ ~ / ( ...._ _ ..X.X.X...( _ _ >.(.",
"# X jXxXjXxXhX,X;X-XXX[.[.].).'._.].[.>X;X*X*X*X&X%X[.[.[.%X%X&X;X<X<XhXfXjXMXZXGXGXGXGXSXDXGXHXHXJXLXLXLXLXLXHXGXSXZXSXGXGXFXJXLXLXLXLXLXLXLXLXLXJXJXFXSXSXZXZXZXbXbXbXbXbXbXbXxXjXjXgXgXgXhX,X*X=X,XfXfXfXfX,X,X=X*X*X%X.X`.`.`..X.X.X.X.X.X.X.X.X`.`._._.).).).(.3.3.3.2.,.,.O.O.o.......( ( / / / / ~ ~ ! ! W Q R Q R R Q R R R R R T T T T T Y R R R R R R R R Y R R R ! ( ( ( ~ ( >._ ~ W ! ! ~ ( ....../ / / ( _ ....X.......X.............6.'.",
"# X xXjXjXxXjXjXhX,X;X-X[.].).).'.'.].%X;X:X;X;X;X%X`.`.[.[.`.`.XX;X:X,XhXvXMXZXGXHXHXHXHXFXHXHXHXHXJXLXJXLXLXJXHXGXGXGXGXHXHXJXLXJXLXLXLXLXLXLXLXLXJXJXFXDXSXSXVXVXVXVXVXVXbXMXbXvXjXjXjXgXhXfXfXfXfXfXfXfXfXfXfX=X=X*X*X&X.X`.[..X.X%X%X&X&X.X.X.X.X[.`._.).).).).(.(.3.3.1.,.:.O.O.o.o.....( ( ( / / / ~ ~ ~ ! Q Q Q Q R R R R R R R R Y Y T R Q R R R R R R R R Q R Q W / o.o...( O.O.O.:.o.~ ~ ( ..X...../ / ( _ ....o.o.o...........o.o.O.1.<.>.",
"# X xXjXjXjXjXnXvXxXhX:X-X[._.'.'.).).[.;X:X:X<X,X;X&X[.[.[.[.[.%X;X:X,XxXMXMXZXGXGXHXHXJXJXJXJXJXJXLXLXJXLXLXJXJXJXHXGXJXJXJXLXJXJXLXLXLXLXLXLXLXLXLXJXJXHXDXDXSXSXAXVXAXAXAXZXMXbXvXvXjXgXfXfXgXgXhXfXfXfXfXfXfX=X=X=X=X*X&X.X.X%X%X&X&X&X*X&X&X&X.X.X[.`._._._.).).).(.3.2.1.,.+.O.o.o.......( ( ( / / ~ ~ ~ ! ! ! Q Q R R R R R Q R R Y Y Y R R R Q R R R Q R R R Q ! ! ~ O.+.O.o.1.5.).].3.( ( X...X.o.X.( ( _ ..X.o.+.O.O.o.....( ..+.1.1.6.o.o.",
"# X jXxXxXjXjXnXnXvXvXjX,X&X[.[.].).(.`.;X:X;X<X<X<X<X;X&X&X&X&X*X,X,XjXnXMXZXSXSXGXHXHXJXLXJXFXJXLXLXLXLXLXLXLXLXJXHXHXJXLXLXLXLXLXLXLXLXLXLXLXLXLXLXJXJXHXFXSXDXSXVXZXVXSXAXZXVXMXvXvXjXjXhXfXfXgXfXfXfXgXfXtXfX=X=X:X*X*X&X.X.X&X&X&X&X&X&X&X&X&X&X.X[.`.`._._.).).).).6.3.2.<.:.O.O.o.o.......( ( ( / / ~ ~ ~ ! ! Q R R R R Q R Q R R Q R R R R R R R R Y T Y R R W W ~ ( O.2.6.6.'.-X>X-X(.O.......o.O.O...( ..o.<.6.6.6.>.o._ ( / o.1.7.'.2.o...",
"# X jXxXjXjXvXnXmXmXMXnXjXhX;X-X[.[.'.'.-X;X;X;X:X,X,X:X;X;X&X;X,XhXjXxXmXMXSXGXGXHXHXJXLXLXLXLXLXLXLXLXLXLXLXLXLXJXJXJXJXJXLXLXLXLXLXLXLXLXLXLXLXLXLXLXLXLXJXFXDXSXSXSXSXSXSXAXZXMXmXvXvXjXgXgXgXgXgXfXfXfXgXfXfXfX=X=X*X*X*X&X&X&X*X&X&X&X*X*X*X*X&X.X.X`.`._._._.).).).(.3.3.1.<.:.O.O.o.o.X.....( _ ( ( / / ~ ~ ! ! ! Q Q Q Q Q R Q Q Q Q Q R Q Q Q Q R Q R Q W Q Q ! ~ ..:.).XX-XhXhX<X-X_.<.O.,.o.O.:.:.o.o.>.6.[.%X[.].>.X.( ( ( O.).7.<.>.O.O.",
"# X hXxXjXjXjXnXmXMXMXMXnXxXhX:X-X[.[..X*X;X;X;X:X,X,X:X;X;X;X<XhXjXvXmXZXSXGXGXHXHXHXLXLXLXLXLXLXLXLXLXLXLXLXLXLXJXJXJXJXLXLXLXLXLXLXLXLXLXLXLXLXLXLXLXLXHXJXHXDXSXSXSXSXSXSXSXSXZXZXvXvXvXjXjXgXfXgXfXfXfXfXgXfXfX=X=X=X*X*X&X&X*X*X*X*X*X*X*X*X*X*X&X.X[.`.`._._._._.).).(.3.2.1.,.O.O.o.o.X.......( _ _ / / / ~ ~ ~ ! ! Q Q Q Q Q Q R Q Q Q Q R R R Q Q Q Q Q Q Q Q ! ~ o.2.).XX,XhXlX,X;X].3.2.6.<.2.<.:.>.>.2.].-X;X&X[.>.X._ ( ( +.5.O.>.>.>.<.",
"# X hXjXjXjXvXnXmXMXMXMXMXmXnXjX<X-X-X;X<XhXhXhXhXhXhXhX<X,X,XfXjXvXmXmXGXHXHXJXHXHXJXLXLXLXLXLXLXLXLXLXLXLXLXLXJXJXJXJXJXLXLXLXLXLXLXLXLXLXLXLXLXLXLXLXLXLXLXHXDXSXSXSXSXSXSXDXDXSXZXbXvXvXxXjXjXgXgXgXfXfXfXfXfXgX=X*X=X*X*X*X*X*X*X*X*X*X*X*X*X*X*X&X%X.X[.`.`._._._.).).).6.3.2.<.:.:.O.O.o.o...X._ ( ( / / / / / ~ ~ ! ! Q Q Q Q Q Q Q Q Q Q Q Q Q Q Q Q Q Q Q Q ! ~ ( +.).].%X<XhXhXfX;X_.[.oX6.3.3.2.3.3.).[.&X:X;X;X>X<.o.X...X.O.o.o.<.5.5.).",
"# X hXjXxXvXnXnXmXMXMXMXMXMXMXnXxXhX,XfXhXjXjXxXjXjXjXjXjXjXjXjXvXnXMXSXGXHXHXJXHXJXJXLXLXLXLXLXLXLXLXLXLXLXLXJXLXJXJXJXLXLXLXLXLXLXLXLXLXLXLXLXLXLXLXLXLXLXJXHXDXSXSXSXSXDXDXHXFXSXZXMXvXvXvXxXxXjXgXgXfXfXfXfXfXgX,X=X=X=X=X=X&X*X*X*X*X*X*X*X*X*X*X*X&X.XXX[.[.`.`._._._.).).6.3.2.<.,.+.O.o.o.X...X...( _ _ ( ( / / / ~ ! Q Q Q Q Q Q Q Q Q Q Q Q Q Q Q Q T Q ! ! ~ ( ..+.7.'.[.;XhXjXjX:X%X;X;X[.).).).)._.XX;X,XfXhX<X>X'.<.O.O.+.O.<.2.(.'.].+X",
"# X hXjXvXvXnXmXmXMXMXMXMXMXMXMXMXnXxXxXxXxXnXnXnXnXnXnXnXvXvXvXnXMXZXGXHXHXHXHXHXJXJXLXLXLXLXLXLXLXLXLXLXLXLXLXLXLXLXJXLXLXJXLXLXLXLXLXLXLXLXLXLXLXLXLXLXJXJXHXDXSXSXSXSXSXDXFXHXSXZXMXbXvXvXjXxXjXgXgXfXfXfXfXfXfXfX=X:X:X:X=X*X*X*X=X=X=X=X=X*X*X*X*X&X.XXX.X[.[.`.`._._._.).).6.3.2.1.,.>.O.o.o.o.X.....( ( ( ( / / / / ~ ! ! Q ! ! ! Q Q Q Q Q Q Q Q Q Q Q Q ! _ X.o.O.,.).(.).%X,XxXxXfX,XxXnX;X[.'.).].XX,XhXjXjXjX,X%X%X).1.2.2.2.6.].[.%X-XfX",
"# X jXvXvXnXbXmXmXmXMXZXZXGXGXSXZXZXMXMXMXMXMXMXMXMXMXMXMXmXmXmXMXMXZXGXGXHXJXJXJXJXLXLXLXLXLXLXLXLXLXLXLXLXLXLXLXLXJXLXJXLXJXLXLXLXJXJXJXJXLXLXLXLXLXLXLXJXJXHXDXSXDXDXDXFXFXHXHXDXZXMXvXvXvXvXvXjXjXjXgXfXfXfXfXfXfX:XfXfXfX:X*X*X*X*X*X=X*X*X*X*X*X*X&X.X.X[.[.[.[.`.`.`._._.).).6.3.2.1.,.>.O.o.o.X....._ _ ( ( ( ( / ( _ ~ ! ! Q Q Q ! Q ! ! Q ! ! ! ! ! Q Q / o.1.2.2.6.).).).%X:XxXvXnXmXmXnX,X%X_.[.%XfXnXMXMXmXvXhX;X,X-X_.).].[.[.*X<X<XhXvX",
"# X vXvXmXMXMXmXMXMXMXZXSXGXGXGXSXGXZXMXMXAXMXAXMXMXAXAXMXMXMXMXMXZXZXGXHXHXJXJXLXJXLXLXLXLXLXLXLXLXLXLXLXLXLXLXLXLXLXJXLXLXJXLXLXLXLXLXLXLXLXLXLXLXLXJXJXHXJXJXFXSXSXDXDXDXFXHXHXDXZXMXvXvXvXvXvXvXjXjXgXfXgXgXgXgXfXfXfXfXfX,X:X=X=X=X*X=X*X*X*X*X*X*X&X%X%X.X.X.X[.`.`.`.`._._.).).6.3.2.1.,.:.O.o.o.X.X._ _ _ _ _ _ ( _ _ ! ! ! ! ! ! ! ! ! ! ! ! ! ! ! ! Q / X.O.2.(.).(.).)._.%X:XvXMXAXZXvXnXhX;X[.%X:XjXGXHXJXGXMXxXxXjXlX-X%X%X-X>X,XhXxXnXmX",
"# X vXbXMXMXMXMXMXMXZXZXGXGXGXGXGXGXGXMXSXGXGXGXGXGXGXGXSXZXMXMXMXZXGXHXHXJXJXJXJXLXLXLXLXLXLXLXLXLXLXLXLXLXLXLXLXLXLXLXLXLXLXLXLXLXLXLXLXLXJXJXJXJXJXJXHXHXHXFXFXDXDXFXFXFXHXHXHXFXZXbXvXxXxXvXvXvXxXjXgXgXgXgXgXgXfXfXfXfXfX:X=X*X*X*X*X=X*X*X*X*X&X&X&X%X%X.XXX.X.X`.`.`.`.`._._.).(.6.6.3.1.,.:.O.o.o.X._ ( _ _ _ ..X.X._ ! ! ! ! ! ! ! ! ! ! ! ! ! ! ! ! ~ o.+.1.3.).`.].[.[.XX&X,XvXSXGXMXvXnXhX&XXX,XxXZXHXHXJXJXHXGXGXMXmXhX:X;X,XhXjXvXvXmXmX",
"# X vXbXMXZXMXMXAXMXZXZXGXGXGXHXHXGXGXGXGXSXGXGXGXGXGXGXGXGXSXMXSXGXHXHXHXJXJXJXLXLXLXLXLXLXLXLXLXLXLXJXHXHXHXHXJXLXLXLXLXJXLXLXLXLXJXLXLXLXJXJXLXJXJXHXFXHXFXDXDXSXDXDXDXFXFXDXFXSXZXbXvXxXxXvXvXvXjXjXgXgXjXjXjXgXgXfXfXfXfXfX:X=X=X=X=X:X*X*X*X*X&X&X&X%X%XXX.XXX.X[.[.[.[.[.`.`._.).).).6.3.1.>.+.+.o.X.X..._ _ ( _ X._ ^ ! ! ! ! ! ! ! ! ! ! ! ! ! ! ! W o.,.<.2.).[.&X-X-X;X;X,XjXMXSXGXHXmXfX*X;X;XhXnXSXLXLXLXJXLXJXJXJXSXmXxXxXvXvXvXbXbXMXMX",
"# X vXmXMXMXZXSXSXSXSXSXSXSXGXGXGXGXGXGXAXGXGXGXGXGXGXGXGXGXSXMXSXGXGXHXHXJXJXJXJXLXLXLXLXLXLXLXLXLXJXJXJXHXHXHXHXJXJXJXLXJXLXLXJXLXLXLXJXJXJXJXHXHXHXGXGXDXDXDXDXDXDXDXFXDXSXSXAXZXbXvXxXxXvXvXxXxXjXgXgXgXjXjXjXgXgXgXfXfXfXfX:X:X=X=X=X:X*X*X*X*X&X*X&X&X%X%X%X.XXX.X[.XX[.[.[.`.`._._.).).6.2.<.>.+.O.o.X..._ .._ _ _ _ / ! ! ! ! ! ! ! ! ! ! ! ! ! ! ~ X.,.1.1.(.].[.-X;X,XhXjXxXxXGXGXHXJXvXfX,XhXhXjXmXSXLXLXLXLXLXLXLXJXHXGXGXZXMXmXmXMXZXGXSX",
"# X bXMXMXZXSXSXZXSXSXSXGXGXHXHXGXGXGXGXGXAXGXGXGXGXGXGXGXGXSXMXMXSXGXGXGXHXJXJXJXJXJXLXLXLXLXLXLXLXLXJXHXHXHXFXHXHXJXHXJXHXJXJXJXJXJXJXHXJXHXHXHXGXGXGXSXSXSXSXSXSXSXSXSXAXZXAXMXbXvXvXvXvXvXvXjXjXjXgXjXjXjXjXjXjXgXgXhXfXfXfXfX:X:X,X:X:X:X:X*X*X*X*X*X&X&X&X&X%X.X.XXXXXXX.X[.[.[.`.]._.'.(.6.2.<.>.O.o.o.X.X.X..._ / / ~ ! ! ! ! ! ! ! ! ! ! ! ! ~ _ ( +.<.1.2.(._.;X;X;X;XhXxXnXMXMXZXHXJXMXvXjXvXjXjXmXGXHXLXLXLXLXLXLXLXLXJXHXGXMXmXMXSXHXHXGX",
"# X bXZXZXZXSXGXGXGXZXZXGXAXGXGXGXGXGXGXGXGXGXGXGXGXGXGXGXGXSXZXMXMXMXSXGXHXJXJXHXJXLXLXLXLXLXLXLXLXLXJXHXFXHXFXHXHXHXHXHXHXHXHXHXHXJXHXGXHXGXGXSXZXZXZXZXZXZXZXZXZXZXAXVXZXbXbXbXvXvXjXvXjXjXjXjXjXgXfXgXjXjXjXjXjXgXgXfXhXfXfXfXfXfXfX,X:X:X:X*X*X*X*X*X*X&X&X&X&XXX.X.X.X.XXX[.[.[.[.`._.'.).6.3.2.,.+.O.o.o.o.X..._ ( / ^ ! ! ! Q ! ! ! ! ! ! ! ) X.o.O.<.1.2.2.6.).XX;X;X;XhXhXhXnXmXMXHXGXGXMXmXvXvXvXMXGXGXLXLXLXLXLXLXLXLXLXJXHXmXvXvXZXHXHXHX",
"# X vXmXZXSXZXAXGXGXZXZXGXGXGXGXGXGXGXGXGXGXGXGXGXGXGXGXGXGXSXMXMXMXMXMXSXGXHXJXHXJXJXJXJXLXLXLXLXLXJXLXJXHXHXHXHXHXHXHXGXHXHXHXJXJXHXGXGXGXSXMXMXMXMXMXMXMXMXbXMXVXZXMXMXbXbXbXxXvXvXjXjXjXjXjXhXhXhXhXhXjXjXjXgXgXgXgXfXgXfXfXfXfXfXfXfXfX=X:X*X*X*X;X*X*X*X&X&X&X%X%X%XXX%XXXXXXX[.[.`.`._.).).6.2.<.+.O.o.O.+.o..._ ( / ) ) ! ! ! ! ! ! ! ! ! ! ( O.O.>.,.1.1.2.6.6.%X%X;X;X:X&X&XxXvXMXGXSXSXGXmXmXbXMXMXSXGXJXLXLXLXLXLXLXLXLXLXHXMXbXmXSXSXSXFX",
"# X xXmXZXZXSXGXGXAXGXGXGXGXGXGXGXGXGXGXGXGXGXGXGXZXZXGXGXGXMXMXmXmXmXmXMXSXGXHXJXHXHXHXHXJXJXLXLXLXLXJXJXJXJXJXJXHXHXHXJXHXJXJXJXHXGXGXZXMXMXbXmXvXvXvXvXvXvXvXvXbXbXbXvXvXvXxXxXjXjXjXgXjXgXgXhXfXfXfXhXjXjXjXjXgXgXgXgXgXgXhXfXfXfXfXfXfX,X,X=X=X*X;X*X*X*X*X&X&X%X%X%X%X%XXXXXXXXX[.`.`.]._.).6.3.2.<.>.+.>.>.O.o.X._ / ) ) ! ! ! ! ! ! ! ! ! ` O.O.,.,.<.1.1.2.2.2.`.%X-X-X%X[.%XhXjXMXHXGXHXGXZXMXZXMXGXGXGXJXLXLXLXLXLXLXLXJXJXHXMXmXMXMXMXSXFX",
"# X jXmXMXZXSXGXGXGXGXGXGXGXGXGXGXGXGXGXSXZXSXZXGXGXGXGXGXGXGXMXMXnXmXmXmXmXMXSXGXGXGXGXGXJXJXJXLXLXJXLXJXJXHXHXHXHXHXHXHXJXJXJXLXJXGXSXMXmXbXvXbXMXMXbXvXvXvXvXvXxXvXvXvXxXxXxXjXjXjXjXgXgXhXhXfXfXfXfXfXgXvXjXgXgXhXgXhXgXhXfXfXjXgXfXfXfXtXbXtXtXtX*X*XfX$X&X*X#X%X%X&X.X%X.X.X.X.X.X[.`.]._.).(.6.3.2.<.<.<.<.:.o.X._ _ ` ! ! ! ! ! ! ! ~ ) / X.O.>.,.<.<.<.1.1.1.2.3.)._._.)._.[.*X,XvXSXGXHXHXGXZXMXSXGXGXJXJXLXLXJXLXJXHXGXZXZXMXnXvXxXmXMXSXHX",
"# X kXvXmXMXMXGXGXGXGXZXGXGXGXGXGXGXGXSXZXMXZXMXSXSXSXSXSXSXMXMXmXnXvXnXmXmXMXMXMXMXZXZXGXGXHXHXJXLXLXLXJXJXJXHXHXGXGXGXGXHXJXHXJXJXHXGXmXvXvXjXjXvXbXbXZXZXVXbXbXxXvXjXxXjXgXjXjXjXjXgXhXfXfXfXfXfXfXfXfXjXjXgXhXhXfXfXhXhXhXhXtXKXsXNXaXNXNXsXsXdXuXyXrXsXyX9X6X5XrX~.5XE.@X9XrX}.5X5X#XtX{._.).(.n.3.6.6.3.2.<.:.+.o.X._ _ ~ ! ) ~ ) ! ~ ` / _ X.O.,.<.1.1.1.1.1.1.1.2.3.3.6.).'.[.%X,XvXZXGXGXGXGXMXMXMXGXHXJXJXJXJXJXGXSXMXMXnXnXnXhXhXjXmXSXLXLX",
"# X AXmXmXMXZXZXGXGXGXGXGXGXGXGXGXGXGXZXZXZXZXZXSXSXSXSXZXSXAXMXnXnXvXvXvXnXbXmXmXmXmXMXMXGXGXHXJXLXLXJXHXJXHXHXGXGXGXSXSXSXGXGXSXGXHXSXMXmXgXfXgXjXbXbXbXbXZXZXVXMXMXbXjXjXjXjXjXgXgXfXfXfX,X,X,XfXfXfXfXgXgXfXfXfXfXfXhXhXhXhXcXKXNXpXaXsXsXdXsXuXsX9XyXaX0XcX~.~.@XE.T.T.0X~.0X0X0XrXA.@XR.E.C.#X@X@XN.).).6.<.>.+.O.X.X.( ^ ~ ~ ~ ) ~ ~ / _ _ X.>.<.1.1.1.1.1.1.<.2.3.3.3.3.6.).`.XX,XjXmXmXMXMXMXAXMXSXGXHXJXJXGXHXSXZXMXmXnXnXnXhX,X,XjXZXJXLXLX",
"# X mXAXZXvXMXMXGXGXSXGXSXSXGXGXGXSXZXSXZXMXZXZXSXSXGXGXSXSXMXMXmXnXnXnXnXnXmXmXvXvXvXvXMXZXSXHXJXJXHXHXHXHXGXGXGXGXSXSXSXSXSXSXSXZXZXMXbXvXvXvXvXvXvXvXbXbXbXVXZXZXbXZXbXjXjXjXgXjXhXfX,X,X,X,X:XfXfXfXfXhXhX,X,X,XfXfXfXgXhXgXbXBXsXsXNXdXuXuXaXuXNXrXcXaX0XrX~.6X9X@X~.5XyXcX~.~.6X~.6XR.R.U.U.wX#XI.c.{.`.3.2.>.+.o.X.X._ _ / / / / ~ ~ ( _ X.+.<.<.1.1.1.<.1.<.<.1.1.3.3.3.6.'.`.[.;XgXxXvXMXMXMXMXMXMXHXHXHXJXHXGXGXGXSXmXMXmXvXhX-X:XxXGXLXLXLX",
"# X <XmXAXGXmXZXZXSXSXGXGXSXGXGXSXZXMXMXMXMXMXMXSXSXGXGXGXSXMXMXMXnXnXnXnXnXvXvXvXxXjXvXvXMXGXHXJXLXJXHXFXGXGXSXGXGXGXZXMXMXMXMXMXMXMXmXvXxXvXvXvXvXxXxXvXbXbXVXZXZXVXVXMXxXgXgXgXgXfX=X,X,X,X:X:X:X,XfXfXfXfX,X,X,X,XfXfXfXfXgXCXNXsXNXNX0XuXuXsXuXqXyXyX9X0X9X~.5XrX~.T.2X7X5XE.~.6XB.5XE.U.R.#X}.{.{.N.|.U.3.2.>.+.o.X.X._ _ _ _ / / ) / ..o.+.<.<.<.1.1.1.<.1.<.<.<.1.2.3.6.6.).].[.&XfXjXjXnXnXmXMXMXGXHXHXHXHXHXHXHXHXHXMXMXMXvX,X-X,XnXGXLXLXLX",
"# X -X<XmXAXGXmXMXMXSXSXGXGXGXZXMXMXMXMXMXMXMXZXGXGXGXGXGXGXGXMXmXnXnXnXnXnXmXvXvXxXjXjXbXMXGXJXJXJXJXHXHXGXGXMXMXZXZXMXMXmXmXvXvXvXvXxXgXhXjXjXgXjXgXgXgXxXxXbXbXVXVXVXVXxXgXgXjXjXfX,X:X:X:X:X:X:X,X,X,X,X,X,X:X:X:X,XfXfXfXvXVXBXsXNXsXqXsXuXsXNXqXrXrXrX9X5X~.~.T.T.~.4XT.Y.7XP.A.A.6XR.R.R.R.E.E.I.N.J.I.*.2.>.+.o.o.X.X.X._ _ _ / ~ ( o.>.<.<.<.1.1.1.1.1.1.<.<.<.1.2.6.6.).'.].[.&X;X<XhXhXhXvXvXnXZXHXHXHXHXHXHXHXHXHXZXmXMXvX,X*XhXMXHXFXLXLX",
"# X -X;X<XxXAXGXMXMXGXGXGXSXZXMXMXMXMXMXMXMXMXSXGXGXGXGXGXGXGXSXMXmXMXmXMXmXmXvXnXvXvXvXmXMXGXHXJXJXJXJXJXHXZXMXMXZXZXMXMXmXvXvXjXjXhXfX*X*X*X*X=XtXfXgXgXgXgXvXbXVXVXZXbXbXxXxXxXxXfX=X:X:X:X*X;X;X:X:X,X,X,X=X:X:X:XfX,X,XfXVXBXNXsXNXdXpXdXpXNXBXuXyXuXrXrXrX~.3X4XuX0X~.pX2XP.P.7XM.5XrXE.}.}.#X@X#XR.U.}.I.V.>.+.o.o.o.X.X._ _ ( / _ ..,.2.1.<.<.<.1.<.1.1.<.,.<.<.1.6.6.(.).'.[.[.-X-X*X%X;XjXnXjXgXnXGXGXHXGXGXHXHXHXGXGXMXMXMXMXMXZXHXLXLXLXLX",
"# X >X;X;X<XnXMXGXMXMXMXZXMXMXMXmXmXnXmXMXMXMXSXGXGXGXGXGXGXSXSXMXMXMXMXMXMXmXmXmXvXvXvXmXMXSXGXJXHXJXJXJXJXGXMXMXMXZXMXMXnXnXjXhXhX<X;X&X%X%XXX%X&X*X*X=XfXgXxXvXbXbXmXbXbXvXbXvXxXfX:X;X:X:X;X;X:X;X:X,X:X:X:X;X;X:X,X,XfXtXCXBXdXsXaXuXdXsXpXuXiX0X0XyX9X9X0X~.0X0X0X3X~.~.9X~.E.P.P.@X5XR.#X6X6XI.#X}.U.#XU.2.<.>.+.o.o.X.X.( _ _ _ o.:.1.1.<.,.<.,.+.,.>.,.,.,.<.<.1.3.6.).)._.[.[.-X-XXX`.:XnXnXjX;X<XnXMXZXSXGXGXGXGXGXMXMXmXSXGXGXJXJXLXLXLXLX",
"# X &X>X;X:X<XxXnXGXZXMXmXMXMXMXmXnXnXnXnXZXSXGXGXGXHXGXGXGXGXGXSXMXMXMXMXMXMXMXMXmXmXmXMXZXSXSXGXHXHXJXHXJXSXSXSXMXMXMXmXvXjXjXfX,X*X%X[.[.[.[.[.[.XX&X*X;X,XgXxXvXvXvXvXvXvXvXvXgXtX,X;X:X:X:X;X;X:X:X,X;X;X:X:X:X:X:X=XfXgXCXCXBXBXuXaXsXuXuXuXqXpX0X0X7XyX3X0X0X0X0X~.qX4XyX~.@X5X@XE.F.P.@X6XE.5XR.#XR.#XI.-.<.>.+.o.o.X.X._ X.o.o.>.1.1.:.O.o.O.O.O.O.O.>.>.,.<.<.1.2.3.6.).[.[.].].).3.3.<XxXvXhX-X-XhXMXMXMXMXMXZXMXmXmXmXZXGXJXJXJXJXLXLXLXLX",
"# X +X;X>X>X,XhXxXnXGXMXnXnXnXnXnXnXnXnXmXMXSXGXGXHXHXHXGXHXGXGXGXSXMXSXMXZXMXSXMXMXMXMXMXSXSXSXGXGXGXHXHXGXSXSXSXSXMXmXvXjXjXhXhX,X&XXX[.[.].].].[.XXXXXX%X-X:XfXjXhXfXfXfXvXvXvXjXfX:X;X:X:X:X;X;X:X:X,X;X;X;X:X:X:X,X=XfXvXCXdXsXdXpXpXBXaXpXuXuXuX6XuX2X0X0XyX0X0X0X0XyX0X0XR.#XE.F.@X@X6X6X9X6XrX@XE.D.#Xp.z.<.>.+.+.o.o.X.X...O.>.<.<.+.o.X.X.o.X.X.X.o.O.>.,.<.<.1.1.3.6.7.).'.7.2.>.+.>.[.hXlX<X-X-X,XnXnXmXmXmXmXvXjXnXmXZXGXJXJXHXLXLXLXLXLX",
"# X HX>X>X>X<X<XhXxXnXGXMXnXnXxXxXnXnXnXMXGXGXHXHXHXHXHXHXGXHXGXGXSXSXSXSXSXSXSXSXZXZXZXZXZXSXGXSXGXGXGXGXSXSXSXSXZXZXmXvXjXhXhX,X;X&X-X[.[.].].].[.[.XXXXXX%X;X:X,X,X=X=X=XfXgXjXjXfX,X;X;X;X;X:X:X:X:X:X;X;X;X:X:X:X,X=X,XmXBXBXaXqXpXsXpXpXpXuXuXuX0XuX2X0XrX0X9X6X7X3X0XaX5X@X$X@X$X@X5X@X9XiXiXyX7X~.}.{.x.*.<.>.>.>.o.o.X.X.X.+.<.<.<.o.X.X.X.X.X._ _ X.o.>.>.,.,.:.<.2.6.6.5.1.,.+.X.X.o.].lXlX<X&X-X;XhXxXxXxXxXxXfXfXhXfXmXMXSXSXFXJXLXLXLXLX",
"# X 7XCXlX>X>X<XhXhXxXnXMXmXnXnXxXnXnXmXMXGXHXHXJXJXJXHXHXHXGXHXGXGXGXGXGXGXGXGXGXGXGXGXGXGXGXZXZXMXGXZXSXGXSXSXSXSXMXmXvXjXhX,X;X-X%XXX[.[.[.].XX-X-X-X-X&X%X-X,X,X,X;X:X;X:X:X,X,X,X:X;X;X;X;X;X:X:X:X:X:X;X;X:X:X:X:X,XfXbXBXdXCXuXpXNXpXpXpXuXuXpX0X3X3X9X0XuX0XyX0XrX0X9X3X@X#X@XI.@XcX6XiXyXW.7XrX~. XU.x.-.<.>.>.>.+.+.o.o.X.o.>.>.O.o.X._ _ _ _ ` _ _ o.+.>.>.>.O.:.<.<.1.<.O.o.X._ _ +.7.-X:X;X_.].XX;X,X<X,X,X1X>X%X,XhXhXxXnXnXGXJXLXLXLXLX",
"# X zX8XAXGX;X;XhXjXlXnXnXmXMXnXnXnXmXMXSXGXHXJXJXJXJXHXHXHXHXHXGXGXGXGXGXGXGXGXGXGXGXGXHXGXGXZXMXMXmXMXmXMXMXMXMXMXMXmXmXxXjX,X;X-X%X[.XX%X-X;X;X;X-X-X-X&X*X=XfXhXhX:X;X;X*X;X;X;X;X;X;X:X;X;X:X:X,X:X,X,X:X;X:X:X:X,X,X=XDXNXKXpXuXiXpXpXrX2XuX0X3X2X3X7X0X0X5X0X0XpX7XW.6X~.@X$X@XE.rXrXsXqXW.@XrXE.P.U.B.a.-.2.<.>.>.+.+.+.o.O.o.o.O.O.+.o._ _ _ ` ` _ _ ..+.+.+.O.o.o.O.+.>.O._ X._ _ _ _ >.'.-X[.5.5.).oX-X%XXX[.].).].>X>X1X;X<XxXGXJXLXLXJXHX",
"# X '.>XzXpXHXfXhXhXhXxXxXnXmXMXmXmXmXSXGXHXHXJXJXJXJXJXHXHXHXGXGXGXGXGXGXGXGXGXGXGXGXHXHXGXGXGXMXMXmXmXnXmXMXMXmXmXmXmXvXnXhX<X,X;X-X-X&X;X<XhX<X,X&X&X-X&X;XhXjXjXhX:X;X;X;X;X*X*XtXrX*X:X;X;X:X:X,X:X,X:X,X:X:X:X:X;X:XgXDXuXNX0XpXuXpXsX0X0X0X3X0X3X~.6X0X9X9X0X0XsXuXrX5X#X@X@XE.Y.5XyXpX@X@XE.9XE.E.U.}.N.-.2.<.<.<.,.n.{.U.J.K.v.C._.C.3.( _ ` ` ` ` _ X...o.o.X.X._ ..X._ X._ _ ` ` ` _ +.6.].'.<.>.2.].oX].'.).6.5.6.5.7.[.-X>XvXGXJXJXJXHXHX",
"# X oXoX&XzXiXDXnXhXlXjXxXxXnXnXMXMXMXGXGXHXHXJXJXJXJXJXHXHXHXHXGXGXGXGXGXGXGXGXGXGXGXHXHXHXGXGXMXMXmXnXnXnXnXnXnXjXxXxXnXnXxXhXhX,X;X;X;X,XjXxXhX<X&X-X;X*X;XjXjXjXhX:X*XtXtXyXpXpXcX3X@X*X*X*XtX=X,X=X,X,X:X:X:X:X*X;X:XbXCXNXsXyXyXsXpX6X0X7X0X7X0X0X0X0XyXuXyX0XqXrXuXrX9X6X5X6X5X~.sXE.6X@XR.E.@XP.P.}.}.c.4.2.2.2.}.R.P.P.L.S.b.K.M.b.g.S.} ( ` _ ` _ _ X.X.o.X._ _ _ _ _ _ _ _ _ _ ` ` _ X.-.V.-.6.>.<.6.).6.7.2.>.>.5._ >._.I.C.{.tXU.U.L.HXJX",
"# X 5.'.-X-XzXzXAXAXhXjXjXxXnXnXMXGXGXGXHXJXJXJXJXJXJXJXHXHXHXGXGXGXGXGXGXGXGXGXHXHXHXHXHXGXGXAXMXMXnXjXjXjXjXnXxXhXhXhXjXhXxXhXhXhX<X,XfXjXnXmXjXfX;X*X;X;X:X<X<X<X<X:XkXaXpXcXpXsXBX~.@X#XtXsX5X=XcXsXtX=X,XfXpXdX$X*X=XVXBXpXaXqX0XsXuXsX3X0X0X0X9X7X0X0X0X0X0XrXpX9XrXrX6X6X5X9X9XiXcX@XE.E.L.S.E.P.rX$XD.x.3.5.%.7XCX@XW.P.I.L.B.b.B.b.f.M.N.p.( X.X._ _ _ _ _ _ _ _ ` ` ` ` ` ` _ _ ` ` ' tXJ.m j p.V.;.%.u.C.C.K.S.V.} n.|. Xb.S.J.K.B.J.J.JXLX",
"# X 5.6.oX1X1XzXkXZXZXxXxXxXnXnXMXMXGXGXHXHXJXJXJXJXJXJXHXHXHXHXGXGXGXGXGXGXGXGXHXHXHXGXGXGXGXZXMXmXvXjXhXhXhXxXlXhX<X<X<X<XhXhXlXhX<X,XhXjXMXMXxXhX<X;X:X<X:X*X;X;X;X:XcXcXcXsXNXNXBX@X~.~.iXsX~.sXNXNX~.=X:X6XdXsX9X*X=XBXBXuXsX0X0XuXyXaX0X7X7X3X7X2X3XqX0XuXrX6X9X9XuXiX5X9X6X6X5X~.uXP.L.6X}.}.E.rX5X@XJ.s.2.1.4X4XKX#XE.R.I.L.L.b.M.M.b.S.S.B.%.X._ _ _ _ _ _ _ ` ` ` ` ` ` ` ` ` _ n..X$XF.rXE.0 p.%.&.u.f.b.L.#X XK.C.v.B.A.0.b.v.c.N.N.K.GXLX",
"# X 5.6.'.[.1XlXlXzXbXHXnXjXnXnXMXMXGXHXHXHXJXJXJXJXJXHXHXGXGXGXGXGXGXGXGXGXGXHXHXHXHXGXGXGXGXZXMXmXnXhXhX<X<X<X<X;X;X;X;X:X,X<X<X<X,X,XjXnXMXMXnXxXjXjXjXhXhX;X;X;X*X:XsXDXBXdXBXBX3X5X~.~.uXuXsXNXcXsX~.*X=XsXaXqX~.*X=XVXBXsXsX3XuXyX0X9XrX3X0X3X9X7X0X0XyX0X0XrX6X9XiXNX5X9X9XrXrXW.Y.S.M.I.B.L.Y.iX6X$XB.z.{ #.^.4XNXE.R.S.L.S.b.c.i.9.f.S.b.B.v._ _ _ _ _ _ ` ` ` ` ` ` ` ` ` ` _ {.A.U.}.M.Y.5Xj { =.#.J.y.#.y.s.E.K.i.U.{ s.g.B.s.s.N.c.N.U.GX",
"# X 6.6.).].oX1X<XlXAXzXHXmXmXmXMXSXGXHXHXJXHXJXJXHXJXHXHXGXGXGXGXGXGXGXGXGXHXHXHXHXHXGXGXGXGXZXMXmXnXhXhX:X;X;X-X-X-X%X%X&X:X,X<XlXjXxXnXMXmXnXxXxXnXxXjXjXhX,X<X<X*XMXVXsXBXNXNXBXBXuX~.yXaXuXCXsXsXyXpX$X;XVXpX0XE.#XtXBXuXyXpX0XrX0X0X0XyX0X5X7X3X2X0X0X4X0XuX6X5X6XiXiX6X@XiX6X@X@XW.M.M.F.F.P.5XNX5XR.c.=.m #.Q.4XKXR.P.L.| &.b.b.c.s.b.b.S.M.k / _ _ _ ` ` ` ` ` ` ` ` ` ` ` ` 2.I.E.I.P.P.5X4XB.z t.0.B.b.0.i.L.b.c.I.J.N.;.K.p.s.v.c.c.v.B.MX",
"# X 6.6.'.].oX-X>XlXlXnXVXmXGXMXZXGXGXHXHXJXJXJXJXHXHXHXGXGXGXGXGXGXGXGXGXGXGXGXGXGXGXGXGXGXGXMXMXmXnXjXhX<X-XXXXX[.oX[.[.+X>X<X<XlXnXvXmXmXMXvXxXjXxXxXxXjXhXhX<X;X&XcXiXsXpXBXBXBXNXsXrX0XsXNXsXsXpXpX~.iX=XiXqXyX~.E.fXBXyXuXqX6X7X7X9X7XyX7X3X7X2X2X2X4X0XyXyX6XrXuXuXNX@XuX@XrX@XE.I.F.Y.R.R.@X7X2XE.S.t.%.k H H.^.iXp.N h h B.c.c.y.c.b.b.b.g.x./ ` ` ` ` ` ` ` ` ` ` ` ` ` ` _ 0.W.b.0.#.A.7XA.$Xa  .p.g.i.g.i.P.P.J.S.C.C.u.| c.c.s.v.b.v.c.C.",
"# X 6.6.'.].oX-X-X-X1XlXlXVXZXHXGXGXHXHXHXHXHXJXHXHXGXGXGXGXGXGXSXGXGXGXGXGXGXGXGXGXGXGXGXAXSXZXMXMXnXjXhX<X-XoX[.].].].+X;X<XhXhXjXSXvXvXnXnXjXfXjXjXgXgXjXhX<X;XXX{.iXcXsXpXVXcXNXpXBXuX0XNXsXsXNX~.uX0XcX@XrXuXsX~.E.cXaXuXsX9X7X5X6X0XrX6X3X3X3X3X3X3XuX7XuX9X@X6XrXyXsXuX@XcX@XR.R.U.g.P.6X@X5XrX@XE.i.&.{ s.0./.Q.2XB.c.V t.L.f.f.s.M.M.M.S.c.C.E _ ` ` ` ` ` ` ` ` ` ` ` ` _ _ A.T.b.J.5X@XY.W.D.| j =.i.M.i.E.P.T.E.{.{.B x.z.x.v.v.u.c.c.z.K.",
"# X 7.6.'.].[.-X-X-X-X>XlXlXAXbXGXGXGXHXHXHXHXHXHXGXGXGXMXMXMXMXSXMXAXAXSXZXSXSXGXGXGXGXGXAXSXZXMXMXnXxXhX<X-X+X[.].].[.>XhXhXhXjXvXDXvXkXvXcXbXcXVXcXVXbXvXhX<X-XXXCXcXrXiXcXiXrXiXsXsXaXuXBXsXsX0X0XpXNX3X~.sXaXBX~.E.sXsX0X0X2X7X9X5XrX5X3X~.2X6X6X9X6X0X0X0X0XE.~.~.E.A.Z.Y.6XrXR.R.E.g.0X@X#XS.@XP.i.| | x $.i.T.Q.qXB.K.J.9.i.c.c.f.b.b.S.B.y.v.6 _ ` ` ` _ ` ` _ ` _ _ _ ` ` _ L.T.L.S.U.M.b.P.T.}.-.[ p.| g.M.D.D.L.B.=.s *.N.&.s.c.t.z.c.v.S.",
"# X 7.7.).'.[.oXoXoXoXoX-XlXlXmXmXZXGXAXGXGXGXGXGXGXAXMXMXMXZXAXMXAXAXMXMXMXZXMXSXGXGXGXGXGXZXZXMXMXMXnXnXhX<X-X+XoX[.-X<XhXxXxXxXvXDXR.gXtXkXiXpXcXVXiXcXbXgX,X-X.XpXcXsXpXuXuXuXpXpXuXcXpXdXBXdX7XyXyXsX3XpXsXaXNXE.T.NX0X7X~.3X0XuX6X6X5X9XT.2X3X9X6XY.5X3XrX0X~.@XyX7X6X7X9XE.L.U.R.P.5X0X7XI.S.M.i.p.{ B x a.8.H.^.8Xg.S.s.s.b.c.s.c.S.c.c.c.&., > ` ` ` ` ` ` ` _ ` _ ` ` ` ` _ L.T.W.D.b.B.P.yXW.5X*.x x c.t.| L.b.b.B.N.z -.v.t.s.u.C.N.J.J.v.",
"# X '.'.'.'.].].'.'.'.'.].oX1XlXkXmXmXMXMXMXMXGXZXGXAXZXMXMXMXMXMXMXMXMXMXMXMXMXMXSXSXGXGXGXGXGXSXAXMXMXnXjXhX,X>X-XXX;XhXjXnXxXxXMXyX$Xs.c.wXtXpXVXNXcXcXcXbXtX#XMXrXpXsXpXpXsXuXNXpX7XsXdX^.dXdXyX7X6XpXuXuXdXdXpXW.~.NX2X~.3X3X3X3X@X@X7X7XY.@XuX5X6X5XrX3X0X2X~.5XuXqXsXyXrXrXrX$XrX7X6X3XS.i.N.t.t.$.B j z N.i.H.Q.^.g.r v.}.b.s.b.b.B.b.c.b.N.p.6 _ _ _ ` ` _ ` _ _ _ ( o.' _ _ P.h.Z. XR.M.S.eX2X5X-.z z #.#.g.s.s.M.c.z.l { v.t.#.J.-.t.s.N.B.",
"# X ].'.].].'.'.7.6.6.6.'.'.].>XlXlXnXbXMXmXmXMXMXMXZXMXZXMXMXMXMXMXMXMXMXMXMXMXMXGXGXGXGXGXGXGXZXMXMXMXnXnXxXhX,X,X:XfXxXbXVXvXvXkXcX Xp. .wX7XuXpXcXcXiXkXkXtXrXiXpXyXdXpXpXdX7XBXBX3XsXpX4XNXrXuX3XiXyXsXsXdXNXNXT.0XBX2XyXE.3XuXqX~.4X^.Q.G.W.2X@XP.2X4X3X2X~.2XuXyXyX~.tXyXrXE.B.rX6X@X@X#XI.~.E.v.R.x.{ [ P.A.G.Q.uXM.0 y.J.c.K.t.d S.s.P.N.s.s.x _ _ _ ` _ ` _ .._.{.Y.L.[ v._ D.l.F.L.L.Z. XL.W.rXa g 1 k f.c.s.N.N.&.u.[ %.c.}.K.I.j #.t.t.L.",
"# X ].'.'.'.7.6.5.5.5.6.7.'.].].oX1X<XlXjXnXnXnXvXmXZXZXZXZXZXMXMXMXmXmXmXMXmXMXMXMXMXMXGXAXAXZXMXMXmXmXmXmXvXbXZXvXgXgXbXaXbXtXhXE.5Xg.Z M S.uX0XpXS.M.I.6XwXS.iXyXiXrXpXpXsX7XrXVXNXsXpXsXyXpX0X6X2XuXrXqXdXsXdX0XT.uXCX6X9XT.2XpX0X~.^./.G.A.A.~.3XY.7X~.qXqXW.uX7XR.E.$X}.iX0XC.$XwXeX@X#X#X$XB.L.t.@XR.a.z &.N G.T.7Xh t.f.#.m J.r.b.v.b.t.s.| u.a _ _ ` _ _ n.K.M.T.I.E.I.| p./ S.F.E.L.F.R.E.J.R.P.x.s s M.b.;.&.B.j w z p.x i.B.F.}.&.s.I.S.b.",
"# X ].'.'.7.7.5.<.>.<.5.5.7.7.'.].].-X1XfXhXxXnXvXMXFXSXSXDXJXZXVXMXMXbXmXmXmXMXMXMXMXMXMXmXmXmXnXvXvXZXVXAXSXVXVXVX$XU.U.t.$X$X*X#XW.i.#.rXP.h.P.cXE.2X@X$X5XM.cX7XqX0XdXpXsX5XrXsXuXpXBXpXpX7XyXyX3X0XyX0XsXpXpXE.P.sXuX~.0XT.~.uX~.W.F.F.k.h.Y.6X0XP.^.^.qXqXW.2X2X5XP.cXD.BXC.N.@X@X$X#X#X#Xs.U.b.@X6XF.t.| m A.G.Q.h.y.m c. .#.wXc.v.| r.S.t.{ x.: ` ` ` ' F.L. XP.}.E.S.L.J.-.' F.G.m.D. XL.S.J.i. Xv.j B.S.B.C.-.B U.v.&.t.v.z.#XE.I.B.s.B.{.I.",
"# X oX].'.7.6.5.<.>.>.>.>.5.5.6.'.'.].oX>X>X:XgXvXbXFXAXSXFXLXLXVXbXbXbXbXmXmXnXnXnXnXvXvXvXMXjXgXjXbXbXVXVXDXcXVXcXkXz.x.%.[ U.#XrX0.2X5X7XyXNXiX6XW.@XW.R.$X@XrXpXNXiXyXpXpXE.iXiXpXpXsXpXpX4XyX7XpX7XiXrXyXpX3XW.F.sXsX0X3X@XP.uXG.Z.W.h.i.i.P.P.P.2XT.^.4X^.2X~.Y.uXg.5XL.pXx.x.}.}.}.#XE.$X=.J.R.7X@XD.&.B e 8.A.T.L.S.i.t.y.s.B.{ N.g.J.f.t.=.&.; ` _ C.A.W.L.Y.P.I.L.P.L.L.%.' d.h.W.F.L.U.z.v.#.rXs.=.{ e V &. .x.J.I.I.N.s. .s.M.b.K.L.U.I.U.",
"# X [.].'.'.6.5.<.>.>.>.>.<.3.3..X*X.XC..X*X*XwXjXbXDXAXDXDXFXLXZXbXbXbXbXbXmXnXnXnXxXxXjXmXZXwXbXVXbXbXVXbXvXcXbXkX=Xx.a.[ k 6XD.5XM.yX4XBX7XNX7X9XR.@XE.R.U.7XrXrXrXuXuXuXpXR.cXiXyXdXuXiXpXqXyXyX7XpXyXuX9XuXuXF.Y.KXsX3X2XZ.A.G.A.G.~.F.8.0.M.P.T.T.^.T.4X4XW.2X#XP.D.R.rX@XB.x.I.R.E.E.#X$Xp.Z.rXyX7XZ. .V 9 C G.Q.L.S.B.s.I.s.c.N.c.c.S.&.t.s.%.; _ -.A.2XNXL.Y.W.L.L.J.E.B.N.} B  .W.D.B.c.c.f.C 7XiXK.t.u.b.I.z.t.N.s.J.C.U.z J.s.S.L.J.J.B.N.",
"# X +X[.].'.7.6.5.5.1.nX#XeXFX-.wXI.tXrXwX X@X$XtXkXiXVXDXDXDXFXZXZXVXVXbXbXbXvXvXnXvXvXZXVXbX$XbXVXVXAXVXtXeXcXbXbX{.u.;.[ k rX@XyXKXpXBXBXBXBXyX@XE.@XW. Xf yX X@XuX2XiXuXyXrXrX9XrX7XuX7X7X7X0XyX2X6X2X0X0XuX7XA.2XBX3XP.G.T.G.d.7XM.F.w.8.0.0.Z.A.h.Y.^.4XuXY.E.F.R.k.E.@XrXp.s.K.U.I.6XE.#X$. X@X2XW.R.V B 1 c H.Q.D.D.b.c.t.c.c.U.B.y.S.#.&.$.| V | f.H.T.^.E.Y.E.L.R.R.P.P.J.*.a h T.2Xc.z.C.f. .Z.5X}.I.I.J.K.I.U.N.I.C.c.J.} z.v.S.J.S.S.J.N.",
"# X -X[.oX].'.7.5.5.*X5X@XuXiXJ.kXiX#X5XtX#XeXs.kXtXFXcXbXSXDXSXVXVXbXZXbXbXbXvXvXnXvXSXDXVXbX$XiXcXVXbXVX$X$XiXbXtXJ.-.B x h G.~.W.NXCX0XqX^.NXiX7XE.@XE.P.d h.VXuXyX6X0XuX5X5XrX2XY.@XyX2X5X@X7X2X2X7X7XyX0XuXyXd.A.G.i.yXZ.Z.h.4X7Xk.g.C y.0.$.0.a.M.M.A.8XG.~.R.I.P.Y. XE.I.Z v.}.U.K.I.L.}.C S.@X2XW.c $.s.1 c G.T.F.J.s.B.s.M.B.c.B.s.J.t.r.&.r.t.e.~.H.^.dXD.W.Y.R.L.P.E.L.K.[ a d W.y.N c.S.J.f.A.~.I.I.I.I.J.J.B.U.c.{.J.C.N.c.v.v.J.S.J.S.C.",
"# X -X-XoXoX].'.7.3.9XwX5XiXM.E.NXNXDXcXcXR.%.=.$XwXDXiXcXVXSXAXMXbXZXZXbXbXbXbXmXmXSXFXAXVXVXrXcXcXAXbXbXR.#XbXbX#Xz.{ x l h ~.~.BXCXCX7XNXNXNXyXY.W. XW.U.e c.M.5XrX3X3XyX7XF.7X2X3XW.3XE.E. X2X5X X2X7X7XY.0XE.$.@X@X~.aX7Xw.g.A.Z.k.8.H i.i.8.$.$.$.#.Z.T.A.A.B.b.R.R.U.#XU.B N.J.s.s.M. XE.Z ;.L.W.A.T.F.i.2 d l.G.pXB.s.t.t.v.t.S.b.J.t.t.{ c.9.i.4XpXH.A.H.E.@XP.P.R.D.R.d M 2 g 0 c C P.t.y.r.b.7Xl.K.J.}.J.B. XJ.K.J.U.K.N.J.z.C.z.z.C.K.I.K.",
"# X >X-X-X-XoX].].lXtXwXiXcXtXrXpXiXVXVXiXM.#X%.tXiXVXcXiXVXDXbXbXMXZXbXbXbXbXbXZXHXVXZXDXDXDXbXiXVXcXVXvXK.#XcXiX$X-.[ x j 0.~.2XBXNXKXBXpX8XyXW.E.E.E.R.M.e d E.rXT.@XE.3X7X2X2X7X7X7X7XE.E.E. XE.W.W.W.W.L.W.Z Z 6XE.yXrXM.cX@XE.R.B.#.H $.w.k.g.0.V N 8.q.C H.F.B.E.L.U.I.g.x v.N.g.9.S.D.R. .=.P.W.k.Y.Z.0.s 9 j.H.F.J.b.&.t.t.f.t.c.b.#.&.t.t.M 9.Z.H.G.H.T.A.Y.P.E.Y.R.R.B.s.B 2 : d y.F.R.b.r.Z.F.W.R.I.K.B.I.K.J.U.U.K.N.I.=.x %.1 M N.K.v.B.",
"# X -X-X-X-X-XoX[.vXtX6XiXtXtXiXcXBXBXpXNXwX%.C.kXcXcXcXDXDXDXcXbXbXbXbXbXbXbXDXHXFXDXDXDXDXDXiXiXbXbXcXtXB.rXiXaX#X*.[ x j eX4XdXBXCXBXdXCXBX3XBXF.E.E.R.c w t.b.5X2X7X3X2X5XrXR.5X2X2X2X@X@X@X@X@XR.7XL.g.i.P.r I.L.g.5XR.F.E.E.6XM.Z M.N V G.i.k.a.Z m 8.l.A.^.W.L.R.F.D.U.=.{ s.N.v.t.M.D.D.L.$.D.P.Y.Z.h.h s w 8.G.h.s.b.N 9.y.t.J.B.v.s.t.#.t. .0.c L A.G.4X8XW.Y.P.L.L.i.L.J.[ < 1 0 0.0.6XL.b.g.W.E.P.J.J.K.K.K.K.J.K.{.{.v.%.[ a < 1 t.U.N.L.",
"# X -X-X-X-X-X-XxXiX6XcXtXVXVXNXpXNXpXcXkXa.Z rXpXrXcXVXKXLXVXcXbXvXbXbXbXbXDXHXFXVXFXDXDXDXDXtXbXNXbXcXI.$XkXcX#XB.{ z x z iXT.dX0X7XuXBXpXcXNXZ b yXE. X, , ~.7XW.7X2X3X2X7XrX2XL.g.@XrXE.B.B.S.L.f. Xb.N E.b.: #XM.g.}.iXU.R.g.i.&.m d h k F.G.A.#.V r j.4XT.~.H.W.P.L.S.B.K.c.C.C.B.b.K.U.L.U.m b.2XD.W.Y.| %.: v l.W.t.B.y.y.J.t.t.J.t.v.m #.&.$.0.g.b.c G.uX4XA.S.P.9.S.d S.I.{ a 2 2 #.b rXE.Z.R.Z. XU.U.K.K.I.J.J.{ =.[ s 1 w x %.1 0 #.t.&.S.",
"# X oX-X-X-X-X%XVXkXcXiXiXcXCXcXVXsXcXNXBX#.@XiXiXiXcXcXCXDXVXAXbXxXcXkXcXFXFXHXHXSXDXDXSXDXVXcXbXbXcXvXJ.eX$XtXE.-.x { x d 2XpXBXpXuXNXrX7XC 2X4XW.yXW.i.1 9 iX7X2XuXyX2XW.5XeXZ.5XB.J.c 9.g.t.i.Z Z.Z.5XS.N., %.b.b.i.&.R.B.| v.U.0.U. .$.c i.Z.#.a.C v l.CX^.8Xk.L.i.g.B.| #.&.s.p.u.z.c.t.B.t.#.N.P.F.d.W.i.s.0 Z h.Z.c.f.t.f.c.s.V c.%.t. .#. .i.M.C Z b.b.T.^.F.J.B.F.S.J.D.0 j f 1 2 Z A.9.7XZ.~.P. XI.I.U.C.N.x -.;.f j B { [ x.v. .&.#.b.s.v.",
"# X oX[.oXXX+X:XBXkXwXtXiXVXcXcXcXcXVXNXiXiXuXpXiXcXsXNXDXDXNXVXcXiXkXcXkXDXFXHXHXDXVXDXDXVXDXrXbXVXcXvXU.wXiXiX#XB x j f R.6X2X2XW.3XE.0.0XiXqXuX7X7X@Xf , N yXyX2XA.0.@XZ.L.D.@X@Xc S.P.I.J.t.g.@XY.F.yXM.U., J.eXb.b.=.M.B.&.J.S.J.I.J.b.s.y.N B.x N r L L L e.g.Z Z Z y.&.i.t.c.s.p.%.z.z.B.K.b.y.s.I.Z.cXL.s.w t.l.Z.t.t.t.c.9.s.f.t.t.#.| &.y.0.A.d.D.c | A.A.7Xg.U.L.0.B.L.z [ %.1 4 x Y.A.9.Y.Y.@XS.J.K.U.U.[ *.z.%.p.x.z.N.N.z.x.t.t.B.b.N.p.",
"# X '.).).].%XDXVX}.tXrXiXNXcXaXcXcXVXpXNXiXcXpXNXpXsXcXBXCXcXAXcXiXiXkXcXDXFXFXFXFXFXDXDXDXcXbXcXrXcX$X$XtXtXtXJ.p.{ z e Y.NXyXuX4X7XyXyXyXyX2XY.~.^. X, 1 5XM.2XY.E.9.cX2X0.eXR. Xh.6X5XM. Xh S.L.P.7XA.h.: : @X#Xc.e f @X0.R.f.f.K.K.U.b.N.=. .0 w N G.j.^.^.2X8.Y.M.g.B.c.b.t.s.N.z.t.x.b.v.S.B.B.d f.W.R.Z.y.w | l.Z.x.t.t.r.b.s.B.t.&.&.#.s. .Z d.8X@Xh V g.sXyX0.&.s.t.&.s.s =.x.2 a %.^.T.W.Y.E.g.}.C.m B { u.x.u.N.x.%.t.;.;.;.z.;.S.D.J.N.N.",
"# X ).7.7.).ZXcXcXiX XiXiXVXpXcXCXVXVX0XuXpXiXVXNX0XsXNXNXVXaXDXbXiXkXkXAXDXFXVXDXDXVXSXAXcXVXAXrXaXcXrXrXiXrX5Xz.gXs j }.0XCX4XCXdXuXuXBXCXrX@X0XF.pXrX1 , D.@X7X@XR.#.@XP.rX@X@XZ.Y.W.Y.yXP.#.P.f.Z.eXb.h.0 w E.6Xt.V j M.#.g.b.U.c.s.M.rXs.x a d 1 7 q.q.A.M.Z.f.R.#.tXB.N }.K.v.B.s.v.s.t.v.B.L.a.f L.@X7XS.S.2 h A.f.t.t.s.N.B.b.c.{ N t.f.N M Z e.m.E.N m b.^.W.i.i.S.f.I.J.%.x.x s s b.BXT.uXd.5Xc t.k p.s.C.C.U.{.C.C.z.C.z. .v.%.| J.b.N.c.N.",
"# X ).).).n.NXyXrXtXB.rXiXVXBXVXNXCXiXuXiXpXsXiXcXNXBXKXDXVXiXDXiXtXgXkXDXDXDXDXDXDXDXSXCXVXCXkXiXcXbXL.cXrX9.tX{  Xx f I.T.uX3X^.KXKXBXNXqXY.5XF.L.@XS.w L.i.P.2X5X@X9.R.M.6XeXP.F.2X6XF.5XR.y.D.F.P.eXZ.F.d j 6XD.B.a.m M.i.M. XS.c.m g.B.{ f d s 1 , i C Q.M.@XF.F.g.U.Z %.c.K.N.s.u.s.y. .{ U.b.;.V 9XE.A.b.b.1 h G.h.s.y.t. .V f d  .#. .t.s.&. .m.l. .N h M.T.b.i.9.D.I.D.S.B t.s 1 a i.2XqXQ.T.h.R.;. .N.U.I.N.J.B.K.B.v.z.s.x.t.B.p.J.t.r.c.b.",
"# X rXAXI.CXpXkXNX X XpXsXNXVXBXNXsXiXyXcXcX7XpXCXuXsXsXcXNXcXcXwXtXtXtXDXDXDXDXDXDXVXVXcXVXCXS.tXcXkX X5XeX X#X[ R.x d kXh.2X4X4XdXCXqX4XpXT.P.R.5XE.S.2 P.@XrX5XP.5XP. X$XR.E.N g.2X5XW.@X5XD.9.rX5XS.i.W.d %.kXS.b. .=.h f.g.0.c.S.f 2XN.B j d 1 : $ : q h.M.h.i.y.Z B.c.s.s.c.J.J.v.t.t.t.=.9.C.&.| F.@XS.S.t.w e G.F.t.f.Z B B.t.L.| | s.i.i.M. .e.G.L.t.b.5XW.k }.f.y.y.M.m 1 s.s 2 2 %.W.Z.4XW.F.M.k C.;. .$Xr.b.s.t.v.s.t.U.$X%.a x =.f N.c.c.",
"# X tXpXy.yXBXBXpXy.yXiXNXcXFXVXcXiXtX5X9X7X5X7XsXNXBXKXBXCXDXcXwXwXeXrXDXDXFXCXVXVXDXVXBXBXDXM.tXcXtXeXiXtX@XiXs M [ m 0.W.W.W.dXdXCXdXCXpX0XBX}.iXP., 2  XF.7X2X3X5XL.5X5X XrX| M.R.@XE.Y.E.7XW.i.sXM.M.G.9 J.P.f. X0.i.N V D.rXd m =.K.h M a w 2 > $ @ $ Z i.$.#.E.W.B x.v.M.g.v.v.t.v.#.s.&.L.t.;.B 0.b.D.Z e s M l.BXt.i.p.V x c.J. .| s.t.c.9.Z H Z.L.0.F.| 7XB.g.S.s.s.D.e | J.z a a m Y.H.^.^.2XE.v.B.c.J.p.S.J.S.J.C.C.v.C.u.J.v.=.p. .z.N.c.",
"# X @XiX7XCXuXpXyXS.h.7XNXVXpXVXpXeXrXrXsXBXBXBXNXBXdXBXsXNXcXiX$X$X$X6XDXVXVXBXVXVXVXVXBXcXcX6XrXiXtXrX6Xi.0X4XG.0.[ $.BXNXCXCXdXNXpXCXuXqXBXKXBX~.P.9 1 yXA.yX4X2XR.E.rXE.@XR.&.@XA.5X@XP.P.@XE.A.Y.E.E.Y.0 6XE.R.g.t.t.9.S.2XY.R.j %.x 9 j 1 1 ; ; @ $ $ N $.$.S.M.2XB.J.i.N t.v.s.t.U.s.s.#.L.t.=.m S.f.E.M.s.j N A.m.c.t.| | t. .y.b.y.0.t.Z Z Z d.w.d.i.W.C e , 9 9 t.q k e g.z.g a 2 Z T.W.G.4XF.Z.K.B.B.C.N.s.c.b.c.c.C.c.N.z.U.K.C.C.z.=.&.J.",
"# X @X0XpX4XpXiXyXyXNXpXBXBXyXyXpX@X$X6XsXNXsXsXNXNXBXCXDXkXyXiX}. X XiXVXVXVXVXNXNXcXNXBXNX@X}.tXrXtXtXrXb.Q.G.G.d.B S.rX5XBXBXBXpXpX4XCXdXCXKXdX7XP.d 1 W.M.P.A.5X5XA.P.b.J.N b.6XP.W.2X6XE.M.P.L.W.9.~.W.s  XL.R.@XB.t.r y.C L.E.0 x %.=. .1 : $ @ @ @ + c y.b.i.i.g.U.L.S.V M B.c.y.B.b.0.s.c.t.p.=.M.L.E.g.a.d N A.h.t.{ k  . .{ &.b.y.9.9.Z m | m.h.D.Y.M.| d e , , e 0 h h #.V s a a P.4X^.W.A.W.9.s.N.s.|.N.s.L.z.B. .I.N.B.J.K.J.u.z. .[ s.z.",
"# X NXBXpXdXsXpXC BXiXBXyXyXNX7XpX7XrXwXpXNX2X9XNXBXBXCXCXiXtX}.R.U.R.cXcXBXNXBXNXBXuXNXBXpXtX0.#X@XiXcXtXf.G.8.: : 9 K.P.pX7XyX7X0XyXpX4XCXKXdXNX2Xf , ~.W.2X7XyX7Xc.tXS.tXe f. XZ.Y.P.$XP.D.Z.9.E.9.L.2XY.i.@Xt.i.R.@XA.I.g.D.L.g.s K.z.{ %.; , ; @ @ @ $ A.d.F.9.M.M.B.i.f.b.J.E.B.| t.S.g.B.s.| &.B.I.L.M.E.u.w m A.0. .f.t.t. .Y.D.S.h.b.0.#.f.N 8.d.Y.F.9 : m | 2 , : 7 0. .D.9.b.2 a @XH.G.A.~.G.Y.I.N.J.z.z.c.C.J.v.K.S.J.B.J.C.S.J.K.-.l | &.",
"# X 6X0.VXpXBXyXY.VXCXM.d.yXNXNXsXyX$X5XrXY.~.sXBXBXNXKXNXrXR.I.R.U.J.NXcXcXcXsXNXNX7XNXcXkXtXN #XE.pXiX6XZ e | ; : : &.s.g.eXyXA.E.7X4XpXW.CXdXdX7Xe m 4XuXqX7XyXW.r.M.@XeXd }.5X7Xg.@X}.D.eXE.R.y.P.Y.W.Y.E.i.rXD.$XD.A.V y.c.I.N j { w s { 0 < ; @ @ @ $ A.h.A.g.M.i.M.f.M.L.f.k.s.s.;.R.g.y.v.t.s.c.B.M.t.c.{ , : A.d.%.b.B.&.Z 2Xy.g.y.P.#.t.c $.C d.e.N | h { =.0 Z i.h.d.h.yXc i.a w g.^.T.2XY.2Xg.S.L.N. .{ [ t.;.p.B.S.B.J.B.v.s.B.;.%.l =.t.",
"# X c.d 0 k A.7XyX0.M.g.6XyXyXpXpXiX6XiXrX7XiXNXCXpXNXNXNXE.I.U.U.U.D.iXpXsXsXpXcXcXuXpXyX3X5Xt.D.P.tXiXN L.$Xf.a ; $ w =. .P.T.h.i.0.~.P.P.pXuXNX7Xw NX0XuXuX7XyX5Xg.@XM.U.f.L.5XyXF.b. Xb.@XE.i. .M.E.Z.R.@X5Xy.tX#XB.a.r.&.s. .$Xw j s , > 1 ; ; @ @ @ d d.g.M.i.Z A.E. .rXS.r.h.i.M.%.@XN.t.v.x.s.s.I.wXs.c.p.1 , h.d.t.f.E.b.b.9.i.y.9.y.Z #.#.#.v C w.R.B.f m M f  .C 8.Z.8.v N Z w 2 M.pXNX4X2XT.A.c.r.-.l B { %. .%.p.c.J.c.B.c.B.v.t.=.[ ;.g.",
"# X w e &.sXBXBXNX5XiX6X7XyXiXuXdXNX5X7XeX5XiXiXuXpXNXiXiX}.U.U.I.J.B.cXcXpXpXpXpXyXyXiX0X7X2Xc h $XrXy.B.eX#.y.e 1 d m @X%.s.Z.~.E.F.W.D.A.pXdXNX7Xh iXuXuXuXT.2XE. XcXb.t.@XpXNXyXh.R.6XR.Z m tXd 7Xi.P.L.@X#Xc.S.L.b.s.$XU.B.N.z.0 a x > ; < , , @ @ @ 8.A.d V t.y.0.g.y.0.M.y.w.t.W.t.b.s. .;.u.s.i. X X{ v.;.2 : v v N y.g.9.9.B.J.g.0. .$.| Z C 9.H q.P. .c N c Z S.k.L y.T.i.8.0.f 2 Z qX^.h.H.F.@X&.S.B.l x M &.t.p.c.B.v.c.J.c.v.z.N.K.v.%.c.",
"# X a a bXrXyX~.2X~.@X5XsX4XuXpXyX0X2XyX5XyXiX7XsXBXyXyXcXU.U.I.I.B.yXcXpXiXiXpXuXuX7XyXpX2Xk x $XR. X9. X7Xe %.w 9 h.G.0XB N E.@XW.P.Y.7XT.uXdXdX2Xh 7XqXiX7Xd.@XiX XcX#.9.7X0XW.7XY.7X5X5X7 J.6XZ.F.T.b M.E.@X0.i.S.N.J.6XI.I.b.B w 2 w ; @ @ , : @ @ @ C Z.0.i.c.#.i.g.i.M.F.M.6XB.I.U.k s.=.c.p.x.u.pXh.B.h &.0 9 v h r  .9.s.N.Z i.y.Z #.f.m 0.Z N e.8.b.Y.D.P.L.P.W.E.W.^.F.F.D.d.t.%.M F.qXQ.Q.F.G.D.S.N.l *.{ c.;.s.N.B.B.s.N.c.N.U.z.z.N.;.c.",
"# X w j k $. XsXdX@XY.yX7XyXuXyXpX7X2XyXrX6Xi.R.7X7XyXcXiXN.C.C.C.v.cXcXpXpXiXrXiXrX9X0XuX@Xd U.}. X6XP.R. X9 w 1 0.4X/.dX0 i.S.h.2XiXM.Y.5XiX7XyXR.S.7X3XyXh.5X5X@XR.5XR.&.pXW.4X2XiXW. X5XD.M 5XW.A.F.c I.5XwXb.L.$XB.c.$XI.J.&.-.; 2 a ; $ ; , > @ @ @ S 8Xc i.g.0.y.R.N M.D.g.c.b.i.wXt.p.v.v.B.=.%.5X XL.V  .2 : S c r &.&.V b.r i.y.N #.N c Z C C G.G.R.W.E.Y.F.R.R.R.A.L.W.L.S.| B.a.' a.A.A.T.L.g.B.B.}.z.{ &.&.%.p.#.s.B.S.J.c.B.N.K.-.[ x.c.",
"# X , 1 V AXpXyXuXW.rXpXyXuXyXiXyXyX7XyXrX5Xc R.@X5XrXiXAXs.u.x.t.g.kXiXiXyX7XrXeXrXuX9X2XR.d R.S. X5X XK.$X9 =.a CXQ.8XBXr B.L.b.k.M.7XyXW.7XpXA.A.P.h.Y.5XS.6XeXL.S.y.L.6XeXA.7X7X8XW.5X X6Xd W.W.W.Y.r.U.2XiXi.g.c.s. .E.&.f k j ; ; a ; ; @ ; ; @ @ @ S 4XZ g.i.#.b.i.#.t.cXb. XP.S.K.| u.t.s.s.t.#.@XcX5XS.#.: c v h f |  .| M.h M.0.#.#.C c c C G.G.5XW.P.Y.Y.L.A.E. Xh.9.M.S.L.b.s.t.} j Q.G.qX9.9.m c.S.I.m ;.i.t.t.c.r.t.J.t.c.t.t.u.z. .C.J.",
"# X : 0 U.CXyXyX2XY.@XyX9XpXiXyXiXuXiX7X@XeXB.eX5X@X@XR.bX%.%.=.V i.cXiXyXyXrXrXrX7XyX6XcXi.k 6XE.7XyXiXL.{.0 %.0 uX8XdXuX5X .R.R.w.T.NXyX5XA.t.M.E.yXyXeXf. X XF.f.i.D.}.L.E.5XA.5X5XW.2XF.C f.rX3XF.L.9 U.M e 1 < > ; ; $ , ; @ @ @ < > ; ; ; > ; @ @ @ S A.d.Y.A.0.Z v.p.| iXs. X9.f.| | | s.p.t.| Z W.G.@Xs.t.d v q : : | N N #.i.M.Z Z N 8.qX~.T.^.G.4XY.W.F.L.R.A.I., c S.$.N.{ 7 g.L.} d F.h.F.Z b.J.C.s.J.c.{ $.c.&.0.&.b.b.v.s.s.t.z.u.=.C.V ",
"# X : s wXyX7XiXNXC VXrXyX0XpXiXiXNXyXW.cXtX}.R.L.@XE.@X%.B B j d eX7X7XyXyXrXyXeX5XyXrX7XeXB @XtXW.yXA.B.[ 1 { s NX8XdXuX@X0 $XeXC iXCXNXyXM.L.M.pX4X7X5X7X7X7XF.P.L.tX}.M.@X XW.@X@XW. X5XF.7X@XW.7X7XV N.1 , , : c.b.U.$XE.2XD.s.; ; ; ; ; ; > ; @ @ @ j.A.8.C #.S.c 0.{ =.R.b.eXi.0.y.;.p.%.x.t.V f.h.T.R.$.s.9 $ ; z x #.i.| 0.#.| c Z 9.C 2XqX4XH.4X2XY.W.F.D.L.S.2 j k #.I.#.C.c.eXS.} l f t.S.I.a.&.Z x.B.p.a.x.z.| 0.F.g.B.c.| &.v.&.z.z.v.u.",
"# X w %.tXiXW.yXBXkXkXpXyXuXiXyXyXyXyXpXrXiXM.E.tXE. XyXM z z f w 7X5XY.M.5XwX7XeXyX2XeXrX7X0 R.@X2X2X7X}.2 1 s f dXuXBXsX@X0 Z N iXpXyXT.7Xr k G.dX2XNXpXF.pXiX7XY.5X5XE.E.R.5XD.L.M.P.W.E.E.7X7XF.2XW.k 0.iXb.S.yXW.yXI.R.y.Y.G.P.a > ; ; @ @ @ @ @ @ $ q.C h.0.r f.Z m B m U.M.2XP.y.y.| z.c.s.&.V W.7XR.g.s.U.: $ ; a s d &. .f e y. .c C h.8X4X^.Q.^.d.F.L.Z.b.V k 0 #.$.F.f.s.B.9.b.c.} z 2 a m t.s.b.B.z.C.v.C.M { M b.M.s.c.z.=. .x { x.u.=.%.",
"# X  .6XiXcXY.pXcXcXpXiXyX3XyXyXrXyX5XyX5XyXM  XW.5XcXpXM B j s e 2XW.P.F.L.5X5X5X6X5Xi.5XV , I.R.5X5X@XB.a w a E.T.qXuX2X6X9 N L.iXM.Y.W.D.N  .4XuXyXuX7XA.iX2X@XY.@Xh. XR. XyX9.c.f.Z Y.5XyXT.W.Z.yXy.9 7X3XpX2XT.yXuXD.@XP.L.2XS.a ; : ; ; $ > ; @ @ $ d.w.A. .c. .M.t.{ y.R.F.E.M.i.s.&.&.p.%.0.y.Z.P.U.0.t.x.$ $ e f s a f 2 { m m  .N 0.h.^.A.T.l.m.G.G.W.M.t.I.x.d i.M.h.y.b.B.| B.D.} l < 2 l c.D.b.b.;.N.c.v.z z s.#XB.t.z. .z.[ -.B p.;.N.c.",
"# X Y.5XVX5XE.iXyXR.2XyXyXyXiXiXyXiX7XyX5X5Xw  X Xi.I.rXj s j s c.2X@X7XW.E. X5XP.7X2X5Xd , M.E.@XW.6X@XJ.a a 1 BX4XCXdXpXA.0X~.i.6XE.Y.9.f.@XA.qXiX4XW.yXE.@X@XE.E.F.@XY.L. XE.@Xy.6Xf.2XiX^.yX7XY.Y.2Xm iXb.P.iX6XyXrX@Xg.b.M.M.L.2 ; ; ; ; ; ; ; @ @ $ e.L f.g.i.i.g.#.g.&.B.i.h.g.b.t.s.B.s.p.9.B.P.}.s.s.p.u.; : c M.B j 2 a x j j C M H d.8 A.H.H.l.G.Y.F.L.d D.9 t.g.L.b.I.#.B.k | y.} l 1 a s M R.b.g.c.;.N.C.e { i.f.&.;.s.;.v.s x t.| t.U.N.",
"# X 5XiXrXyX6XyXNXZ rX7XrXyXyXiXiX5XpX5X5XtXf $X Xi.eXm f f j a #XW.2X3X3XF.W.E.E.5XcX6Xp.v.$X$X2X7XeXL.| 2 1 0 pXsXqXNXqXdX4XpXZ.@XrXc f.@XP.d.uX3X3X4XW.pX@X5XE.2XE.L.L.@XR.P.E.9. XP.W.0X7X6X@XD.9.f.y.5XS.g.5X6XiX7XE.M.R.@X#.i.: : ; ; ; ; @ - @ @ $ C Z.k Z h N C N K.c.y.M.f.L.L.&.0.m #.s.p.L.b.$X&.z.x.v., : | 0.B [ w s w a j c 7 @.d.h.W.8Xl.G.F.M.g.k j N h E.b.F.S.i.D.h  .N.=.g l 2 5 g f B.P.K.| %.J.s.z.S.B.b.s.N.{ w 2 { [ p.t.J.E.B.",
"# X NXyX2X7XpXpXuXg.E.6XyXrXyXiXyXyX5X6XR.c.| #XbXS.eXd a a s d wX2X2X5X7X@X6XeX5XW.9X5X#.c.2X XW.rX@XD.u.a 0 s 8XiXuXpXBXqX2XCXKXNXY.kXY.A.eXc A.7X5XiXyX X2X@XE.W.eXE.g.E.Y. X5X .R.pXY.yXY.D.V k f 9 J.g.6Xb.A.pXY.b.D.U.E.@XI.#.r 9 ; ; ; ; ; $ @ @ $ M 8.$ $ $ , c S.m m V b.M.L.P.Z.E.i.s.t.b.b.9.c.N.t.c.x.1 : 9.d.x.V j { a a a | c 9.h.d.T.A.T.H.G.Y.M.b.N.N B.M.S.g.Y.i.i.%.;.p. .l l 1 2 a a %.M.s.u.p.=.s.C.J.L.c.V ;.u.{ =. .| ;.P.S.b.i.",
"# X cXBXrXiXeXyXuXiXtXeXtXyX7X5XpXpX5XyXrX0 s.J. XE.9Xp.g 0 a e 3X~.3X@X2X6XE.5X@XL.5X7X0 s.eXR.iXrX2Xs.w w 0 b.pX4XiXCXpXiXdXdXCX2XNXD.E.L.F.R.S.9.7 q 9 r m A.W.i.E.E.Y.E.P.P.R.C E.7X7XP.L.L.$.d 9 0 J.M.F.N A.D.R.L.}.P.@XrXc.=.g.b. .t.B ; @ @ @ @ $ v v i.C r $ m , h h 8.w.h.T.~.2XY.p.B.c.9XpXZ.i.g.m v.p.; : N 8.&.&.| x x d d m c Z h.W.Q.8XA.Q.8XW.R.S.J.y.b.#.N c b.L.&.s.s.t.N.s.z 1 2 2 5 [ u.b.t.&.c.I.S.P.L.S.J.s.&.N.B.p.s.#.S.S.b.z.",
"# X pXb.i.b.#XN iX6X@X6X5XsXyXyXyXiX6X$XrXz.wXU.E.7XiXs s s f e 3X2X6X~.@XE.5X5X6XR.rXiXk b.P.eXpX5XE.s.f w 2 tXBXCXiXBXpX2XpXNXZ.7XDX5XM.R.P.Y.S.i. .h  XS.yX7XP.W.2XW.E.2X@XW.N f.M.kXN M.S.tXM.d e 0 K.D.@XR.g.P.D.R.@XS.6XZ.B.#.@Xi.&.=.{ 2 @ @ @ , i.i.7 q C #.C $ e e r S.8.h.A.Y.A.g.N.b.c.BXsXA.s t.V C.z., 1 f W.#.&.V m &.m m k c q.d.d.d.Q.H.Z.T.F.D.g.9.g.y.y.V M.D.S.B %.c.V N.C.&.2 2 , s z &.f.S.U.| s.9.i.B.K.J.b.J.s.B.K.N.s.m &.&.[ ",
"# X pXtX}.@XiX@X7X5XyXiXuXrXrXyXyXyX6XiXeXx B.R.R. X5X0 a 2 a R.2X0XM.2XR. X6X@X5X6XY.E.w S.R.W.5X@XU.%.s 2 0 pXdXdX7XyXW.qXsX7XpXyXS.D.eXE.F.E.c F.L.f.W.^.yX2XiXW.2X7XT.yX XD.D.V M.h.5XP.R.L.P.E.k c K.5X#Xh E.E.I.}. XY.@XD.R.g.F.b.K.w 2 ; @ @ $ W.q i.M.7 I., N N e 9 y.e.C A.h.i.i.&.s.f.f.Y.Z.r.l I.p.u.;.; > 9 C Z m d V N m c  .r 9.d.q.4Xl.A.G.A.R.S.g.$.m b.L. Xb.D.y.%.p.t.&.=.=.u.a 2 > < [ p.b.S.S.N.v.S.b.v.s.L.K.s.S.s.I.J.v.C.;.v.u.",
"# X NXBXuXNXpX5X2XtXyX7XrXrX3XcXyXrXyXrXrXd B.U.E.E.B.l z l j D.2X@X2XW.5X@X5X XrX@XR.E.e I.eX@XR.5X@Xs s w 7 uX4XsXdXpXpXpXBXCX7XpXdXP.W.Y.R.S.9 C  X7X7XyXiXrX7X2X XY.R.7X2XM.9.eXb. XY.5XS.S.i.&., 9  XtX9.#.5XeXS.I.@X5X@XM.2XL.m.$X*.l z @ @ ; r k.Z b.V 0 9 B #.9 7 m r G.L 8.y.f.t.#.s.s.b.#.t.9 k I.p.s.p.w ; &.9.#.%.h &.9.c N #.c Z m.A.4XQ.G.H.^.A.B.d y.B.D.Y.b.M.B.m | c.t.s.u.&.t. Xa < 1 [ s.c.S.v.s.B i.v.g.c.9.c.L.B.N.B.c.y.c.V  .%.",
"# X NXBXiXpXpXyXiXrXyXiXrX2XyXyXyXyXrX5XtXB I.#X$XU.V j z l a D.E.A.E.S.E.6X@XE.L.R.E.wXh R.5XY.W.@X}.f a 0  X7X7XqX8XqXT.dXdX8XpXNXBXW.Y.P.P.F.@X5XiXY.D.3X7X^.yXR.Y.Z.7X X@X%.E.F.b.W.i.0.@Xf.v.V 1 w U.@XtXS.@X0.M.D.Z #X#XiXyXNX8.U.;.z a @ @ ; 7 ~.@X$.d 1 : d  .m g.0.h.8.N  .y.$ w u.t.N.&.t.=.| M g.t.&.s., < 7 v b.R.x.N.s.i.f.t.k 0.8.F.^.H.T.G.2Xi.V t.y.D.L. .9.t.9 K.| m f.f.z.t.B.L.2 2 < 2 | f.c.s.t.p.B.c.B.S.B.U.B.K.v.B.K.J.C.s.x x.",
"# X iXyXrX2X0XyX6XR.rXrXyX5XcX7XyX5XeXtXZ J.wX XeXU.a.z x s j S.Y.Y.Y.A.R.5X5XE.W.5XR.}.=.R.cXD.5XD.@Xa a w L.dXdXiXdX7XiXT.iXNXdXdXW.R.P.F.F.F.F.2XyXyXZ.0X7X7X3X3X2X2X0.D.f.m rXY.W. XF.Y.g.i.B.w , d #XE.g.E.pX@Xd.#.S.W.@XF.5X5Xh.#XC.l 2 @ @ ; : 7 i.0 ;.1 ; e m w M.Z d.N d B { ; ; $ $  .B m ;.p.t.J.&.{ 9 , 1 c h.D.s.J.c.s.c.s.t.V t.| t.h G.T.H.A.N.9 t.t.g.S.N #.S.g.f.b.b.b.B.s.t.M.D.2 < a x &.B.s.s.s.s.J.b.f.b.b.K.s.&.B.v.N.J.v.v.v.{ ",
"# X 6X@XiXNXpXeXrXrX6XrXE.@XrXrXiXrXiX$XJ.kX6X5XI.B %.x j j B Y.W.R.R.E. X XW.D.tXE.@X5XeXY.E.6XE.W.m 2 s e T.iXiXuX4XNXiXqXdXpX4XpXW.2XL.Y.F.Y.2X2XA.2XG.8XyXpX7XW.W.c v.E.b.t. XiX2XW.eX XL.B., w 9 v.E.2XY.5X@XD.eX .f.5XU.5XW.E.b.h z M $ @ @ ; h c | { s 1 2 %.{ 1 x [ B x x [ , d : ; , @ ; , 1 : : $ V &.: : w.y.W.Y.t.s.k s.s.s.x.;.B [ -.} N.h.2XM.s B t.B., m L.Y.Z.F.Y.F.S.S.S.g.| M.S.-.< < [ p.c.b.b.c.B.s.t.B.&.B.s.t.J.y.c.c.v.K.B.C.{ ",
"# X cXeXtXpXVX@XrXiXcXF.tXtX5XtXrXrXcXt.s.cX6XtXeXU.l j l j %.W.W.R.E.W.@XP.@XE.5XP.5X XcXP.6X X@X5Xe s 1 e dX2XpXT.uXuXF.uXpX^.2XCX2XW.P.Y.L.W.A.W.2X0X7XqXuXpXW.2XyXm g.Y.P.b.7XY.2Xh.b.g.w 1 J.1 , L. XA.2XuXM.R.@Xc.h E.wXY. X5Xy.L.d { @ @ - ; h N N N.e m , j x w p.V s : B &.c.| , 1 ; $ $ $ ; ; ; $ d ; , e.e.i.w.G.s.z.[ s.u.x.s.z.=.;.[ [ d Y.T.f m =.&.: S.M.A.A.S.F.A.D.L.A.A.Z.B.t.J.-.2 < l %.{ s.s.v.K.s.B.v.J.v.N.K.b.s.u.v.N.N.J.J.N.",
"# X g.cXpXNXCXiXiXyX7XrXpXtXrXrXpXiXiX$Xc. XeX5XL.{.j x j s ;.D.A.W.E.D.D.P.M.D.P.F.5XS.E.D.Y.E.@X6Xm s 0 6X4X2X^.pXiXyXdXpXT.NXpXP.rXE.F.R.L.5XF.g.5XqXqXpX4XdX2XT.7Xe M.5XW.yXf.5XW.W.x., : { , : , U.R.M.2X2XiXY.E.R.$.6XM.D.L.L.#.U.a.t.: $ ; 0 #.N m 9 e , , -.a x | | [ x M 1 c.V $.w @ $ ; ; ; ; ; 1 d ; $ q.d.d.d.h.i.*.{ =.t.=.V ;.B j z [ N A.i.f.m m , b.S.P.S.F.D.L.L.Z.A.D.D.S.S.t.B.s < < l z -.t.B.U.B.S.B.c.J.J.u.| v.s.v.v.p.K.c.B.K.",
"# X tXW.uXNXNXiXyXyX6XiXiX6XE.pXpXiXeX$X#XE.eX6XB.U.l l l s $.F.Y.h.iXF.g.6Xh.Y.Y.F. Xb.5X6XR.eX@Xi.1 0 w kXpXCXT.NX0XuXpXdX0XsXZ.h.5XY.Y.P.eXb.s.W.7X3X4XuX2XC E.0.S.C.L.E.y.A.uXE.U.h 1 , 2 , : > 1 R.E.@X@X@XE.F. XkXP.N 6X7XF.D.L.i.{.w , e B.g.r.e 0 1 , f , 1 %.#. .k  .x B e i.c g.t.@ @ $ N , m 1 b.c , w.d.h.q.d.m.i.%.%.t.u.[  .-.[  .x -.b.E. .e , s.S.S.g.F.b.A.b.F.A.Z.F.A.D.B.J.S.$.B > < 2 s [  .b.S.b.B.J.t.J.S.c.; ; N.z.;.{ J.B.K.v.",
"# X cXW.rXiXrXpXiX6X5XiXtX XeXpXrX5X .iXiX6XcX$X%.l l #X[ I.R.| F.f.h.h.E.L.rXi.P.2XY.@XeXR. XE.J.M f d 0 g.2X2XyXW.W.G.G.~.5X3XpXe.P.F.R.L.6Xs.U.M.iXqX7XiXuX2X2XY.B v.eXb.5XyX2XE.%.: $ : ; , , > &.W.h.E.2XD.P.@X@X5XP.E. XP.cXf.L.&.1 ; K.J.f.s.s.v.2 0 &.{ d e %.t.&.{ B %.| M F.A.T.{ $ @ q.b s.i.0 0.q , q.e.d.d.w.Z.t.B *.v.x. .z.{ *.{ %.=.i.c  .7 L.b.B.S.S.E.S.A.M.A.S.b.i.y.s.c.g.S.v.s.s 4 5 g [ { B.M.c.B.B.B.J.b.v.v.d $ v.M =.z.c.U.x.",
"# X rXNX XiXeXW.@XE.E.@X5X$X5X5XiXtXi.wXrXtXiX$Xj l s kXrXNXr.9 D.b.i.Y.W.R.Y.y.Y.F.D.Z.Y.R.W.P.}.x z.s e @XuX7XiXpXuXyX2XuXA.qXqX7X7XL.Y.P.9.c M.eX2XuX, 7XpXW.Y.Y., , eX .eX0.P.N.e ; , 6X=.p.j : C.M.rXrX2X6XrXE.yX6XFXrXL.b.iXS.$X; ; #.t.J.K.I.c.s.z.1 B 0 k Z $.| %.j t.x V N g.n d.{ ; M N f B 8.9 c C y.q.e.j.d.d.C U.B %.v.=.t.;.-.%.{ %. .h 7 0.M.0.P.g.f.S.b.S.b.y.D.M.L.i.b.y.b.s.t.v.{ a 4 4 a g { s.b.c.J.c.v.B.c.v.B.s.f ; v.=.v.C.t.: ",
"# X uXtXVX2XiXiXrXtXrXrX5X#XkXwXiX%.N i.5X6X6XiXB x j $XW.eXiXsX#.W.wX5XZ }.L.S.D.OX7XW. XW.2XP.=.z x w &.7XpXyXpX7XuXpXyXi.E.BXpX2X@XR.A.D.6Xi.P.6X7X0Xe i.7XE. X2XN.h t. XL.g.D.9 9 N.6X4Xk j a , U.A.E.rX X5XA.uXNXrX5XS.L.i.I.k , NX0.s.k k N N B d d d : r g.t.#.B V p.m V V i.L.G.0.M ; z  .d : q k e Z.9 q.d.d.d.d.h.g.{ { u.[ =.-. .%.*. .%.h.g.L.Z.D.L.y.S.g.L.M.Z.M.M.b.y.S.b.c.y.c. .s.} 5 4 5 a g } s.c.s.b.t.B.y.N.s.N.J.p.z.> N.x.v.: =.",
"# X F.pX6XrXkXeX7XtXuXrX@XyX7XW.@X$.a.}.@XwX6X XB x d @XW.Y.pXiX#.D.5XiXg.S.k i.b.F.2X2XW.R.@X$Xf =.d 0 eX7X~.qXdXdXpX0XNXW.6XyXuX2XE.F.L.Y.6X7XeXh.yXpXD.d F.W.Y.W.S.m I.s.B.{ ; L.f M.5X2Xx s 1 , }.D.S.2XW.~.iXNXyXY.Y.I.I.k ; , tX X9.S.#.#XE.9.s.t.s.B.N.9 c V =.M { | B d 9 M.^.T.S k ; w j $ - q h , , $ 8.d.d.m.k.h.s.x [ C.;.u.%. . .%.[ { g.Z.s.y.M.M.L.i.D.L.M.f.c. .y.S.P.t.t.i.y.B.t.x < 2 5 g g [ t.t.t.S.c.B.B.c.B.b.N.N.| B ; a w s U.",
"# X rXiXcX6XiX6X5XiX2XrXyX7XyXrXg.I.$X6XwX6XwXM.x j f iXyX7XrXyXE.eXm @XP.wXN S.R.i.A.h.F.Y.E. Xf ;.B 1 R.7X4XiXiXdXuXqXyX7X2XyXW.b.Z L.P.eX@XrX2XeXW.P.5Xq r 5X2XR.I.}.1 { ; : P.H.y.5Xh.Y.z s 1 1 2XF.P.2XqXiX7XW.F.@XD.J.0 ; C.B.6XE.S.c.d D.g.s.&.S.L.S.| Z 1 N m { z d m t.Z C d.q.q.t r e e $ - $ : 1 : q e.v 8.h.Z.d.0. .;.v.z.;. .%.{ B %.%.i.~.Z L.b.D.S. X .b.S.i.&.b.b.L.L.L. .b.b.v.c.} 4 4 5 g l [ ;.c.t.v.B.S.S.r.s.v.b.N.c.&. .; : U.L.",
"# X tXcXkXK.rXtX#X6XrX6XrXyX6X6XZ 5XkXeXwXkX$Xi.x k z yXuX0X7XyXeX6Xc.D.5XiXtXeXP.J.k D.F.Y.R.I.w K.a 9 7XdXyXqXpXNXiXBXY.yXY.2X Xm c Z.Z.L.Z.@XS.F.W. XyXrX: 0.L.U.t.B , , , f ~.R.y.P.P.Z.%.w w L.5XW.W.A.4XNXD.h.F.P.N $ $ }.h P.#.U.b.M.b.b.g.| J.U.U.c.J.B.: ; V d e , | m | Z g.i.q r e e w ; ; e 0.k $ 8.e.q.v d.d.m.i.z -.;.z.=.t.%.x z { | i.W.E.M.D.L.S.g.b.S.g.M.S.D.F.L.L.Y.D.J.L. .b.x.5 2 a a 5 s [ z.v.B.v.S.b.b.r.b.v.N.J.S.U.t.| : ;.",
"# X cXpXiXiXL.$X5XrXyXrXeXpXyXP.iXeXeX5X9XW.iX=.M z &.yX7XyX7X7X2X5X9.6XpXcXiX0.0.U.t.b.@Xi.$X9 2 1 2 E.7XqXuX7XdXdXyXP.W.Y.2X3X}.i.S.7XF.i.S.E.S. XrXM.2X@XL.B U.$XV , ; ; 1 ~.3XF.#.tX2XW.j 1 w W.T.Y.A.e.W.2XY.F.W.a ; k 8.P.r D.0.D.b.| D.E.wX| v.R.E.S.$X}.e , e : x U.m M | 9 N 8 r : 9 9 1 ; >  .d.N : r q.q.A.v 8.d.F.B *.z.{.{ [ x x x N.p.d.P.F.5XM.M.S.b.S.D.L.M.F.b.L.L.F.D.D.J.R.b.R.P.r.2 1 g 4 j x x.B.s.b.b.J.S.c.S.S.t.c.N.J.c.s.z ; ",
"# X tX5XiX@XM.rXE.pX6XrXyXtXyXiXyXpXwXrX@XtX5X%.j j 5X5XrXh.3X7XpXE.W.@XrXE.M.7X0Xk B.5X5XkXU.=.2 : , rX7XpXyXdXpXZ.2XM.yXiXuX6Xm Z P.P.Y.=.b.L.tX5X5XW.uXP.6Xd e J., ; : , a.F.Z M.b.yX~.Y.%.w 2 Y.W.T.Z.F.F.2XD.$.; : A.sXyX2XZ.9.F.~.E.L.E. XwX#.B.E.I.#XB.y.D.e k @.9.L.9 7 8.y.C v t ; ; ; ; ; , c C m r #.e.j.j.L d.e. X;.%.B.=.%.[ M M | k.m h.@.#.b.A.b.F.Z.D.L.A.A.S.S.A.A.F.A.D.b.g.b.P.F.J.f.g.c.g s  .p.v.x.c.N.J.S.c.s.&.u.C.b.S.s.N.x.x.",
"# X rXiXE.6XU.D.6XtXrXeXtXrXsXpXyXrX2XrXD.5X5X| [ j 6XiXpXiXW.~.7XyX#.D.R.6XZ.yXyXe { eXyXW.z [ a 0 0 7XuX7X5XF.m. XF.rX7XrXyXC m E.F.F.Y.u.| y.@X7XA.Y.h.rXb.N.: 0 M.B.iXZ 5XY.C I.6X4XG.Y.z a w Z.d.Y.k.d.A.3X, : D.Y.Y.A.8.2X@X@XA.2XE.M.S.M.tXt.c.M S.U.B.{.r.d M.R.S.b.q r L L h.9 ; ; @ ; ; ; , 7 7X9 7 h S e.d.A.q.h.A.z.-.K.;.%.[ [ =. .H.f i.L. XW.2Xb.f.L.F.P.A.A.Z.M.S.L.L.Y.D.B.y.b.L.L.b.c.g.b.x.< x %.%.B m &.&.B t.r.v.&.v.c.S.v.C.N.U.",
"# X 5X@XE.E.$Xt.rXrXL.E.6XrXyXcX7XtX5X6Xi.}.$X[ x B 7XkXuXiXyX5X7XrX5X7Xb.M.3X0X0X0 [  XY.M.x l a 2 w 7X7X@XE.L.@XY.7XrXyX7XrXc i.R.@XY.pX[ =.f 5XT.2XY.W.E.x.k , R.@XP.yX2X2X2Xb. XE.e.l.C f 2 x E.W.P.Z.h.yX, S.A.5XP.2XeXZ.g.7XW.7 C yXS.6XE.P.;.x.k B.K.B.L.9 L.g.f.R.f.B q e.A.c f ; ; @ ; ; ; : , $ e 9 h v q.d.d.8.8.F.b.=.=.;.%.=.%.%.| d.k i.A.5Xb.D.F.A.D.L.S.L.L.D.h.P.L.Z.L.L.t.S.b.D.L.b.y.c.v.l 2 a z u.&.z.N.z.s.s.B.b.N.v.s.t.c.C.v.S.",
"# X yXcXtXrXrXM.#X5XE.@X$XeXrXpXpX5X6XwX$XrXN.z x x 7XiX0X5X6XcXrX2X7XtX7XrXuXG.5Xa ;.Y.tX}.M s a 1 J.A.@XD.Y.5XtX2XyXyXyXF.3XN E.D.E.eX0.V z S.2X7XpXyX7XwXa , m }.P.5XY.2X5XY.5Xd.m.q.q. .z 0 N.g.~.E.iXC N R.7X9XZ.F.Y.eX7Xi.D.eXh N i.Z.@XB.L.p.%. .f.S.t.y.b.v.s.s.c.v.v.d q  .V e $ ; ; ; ; : { $ 9 s.Z q S L q.d.v q.8.E.s.v.%.j { [ u.%.S.m i.A.A.F.P.i.L.F.Z.h.L.A.F.A.M.D.L.b.9.c.y.#.b.D.S.s.s.g.x 5 g [ s.t.N.v.y.s.N.c.N.s.J.J.s.c.c.v.v.",
"# X 7XrXpX6XtXi.i.R.eX6X6XwXtXrX7XE.I.y.$Xx.%.B x M pX5XyXyX2X2XW.5XrXiX5XE.0Xh.iXa t.5XeX$X;.a 0 2 {.0X2XE.5XY.@X7X0X0XW.yX2XR.W.F.P.E.V { 2 yX7X2XW.Y.0.: x s t.6XZ pXyXyXW.5XpXW.H.l.q.e , 2 6XW.2X~.A.A.M.S.R.E.L.rX@X@XrXi.E.i.B j  .9.D.N.g.%.[ &.i.N  XS.b.t.C.s.c.;.J.u.9 w e d.G.L T.Y.Y.M.&.f x , q $ S q.8.8.H.q.h.C K.&.%. .%.%.{ [ M.s.C Y.E.R.A.A.d.A.L.M.L.L.y.D.D.L.g.m y.f.c.S.s.b.c.b.K.M.v.g z *.s.b.N.b.S.B.x.N.s.N.v.N.s.c.N.s.s.",
"# X E.iXiX5XtXg.%.R.rX6X$X@XeX5XuXP.B.f.#X[ { [ x { 7XpXyXyXeX5XP.@X7X7X X@XpXm E.a t.yXI.N.=.0 2 z h W.7X2XP.yXE.iXyXyX7XW.2XOXE.S.L.B.| s  .2XF.E.wX1 , u. .e wXpXW.Y.yXrX7X7XiX^.j.4Xj., , 2 iXY.W.F.L.m.f.eXb.f.I.M.L.rXeXc U.J.x [ [ } x Z U.x x t.c. XP.b.c.c.x.p.x.c.{ z C.: e h.S j.A.L.g.s.| m j , ; b i C 8.q.l.h.h.Z.t.&.[ x  .%.{ B D.B.0.P.W.W.L.A.Z.L.L.b.2Xf.9.b.F.D.B.S.M.b.t.c.g.t.b.c.r.b.J.5 l -.y.c.b.b.B.J.N.#.B.s.t.K.v.s.C.&.z.",
"# X yXiXeXrXkXE.;.K.7X@X$XI.iXyXcXR. XtX#X%.%.{ B N.iX~.rXrX0XiXk.7X5XrXrX5XyXh.5X$Xe 7XV z.d w 2  .5XyXY.5X3X7X0X3X2XW.0XeXC L.Y.P.L.m M 1 u.5XB.s.0 , v.#Xm d W.7XW.2X7XyX2XW.W.2Xy.9., , : 1 E.Z.7XY.D.V h L.M.}.I.g.L.#XR.f.R.s.;.{ x %.z s.K.u.V f.g.D.i.&.s.;.C.z.x.x.s.B c.t., Z @.t w.i.B.m | B ;., ; r S c S q.d.j.Z.yX$.s j B x x B x  XV N h.b.F.D.Y.L.A.A.A.D.D.P.F.D.D.A.S.S.J.g.f.f.M.i.b.c.b.J.a a x a.N.v.J.N.J.v.N.N.c.J.B.s.s.C.c. .",
"# X 5X7XrXiXiXcXU.;.E.W.iX6X7XiXB.@XiXwX;.%.p.u.m 9XyXyX7X5XyX7X@X5X5X5X5X7XeX7X2XE.e g.f.B j a 2 eXiXuX7XyXuX7XyXY.3X7X2X X#.P.R.R.D.k 1 w f s 1 f k i.P.M.b.M.W.5XiXyX Xf.F. X0XY.h.b.k : , : b.c.W.L.b.b.#Xb.v.B.I.I.I.B.I.R.R.U.%.B { B z [ B ;  .R.R.M.g.6XJ.t.p.c.N.c.c. .c.p.| 7 7 $  .c g.{ { %.w > ; ; C $ q.q.d.l.A.Y.S.s f B B { B B R.d M h.F.Y.Y.E.Z.b.kXA.D.b.b.b.S.c S.b.p.b.b.&.J.b.e s.s.c.p.5 5 g z z.B.B.N.v.c.N.B.N.v.I.v.s.s.x.b.",
"# X tXrX5XcXNX9X$Xs.}.@XrXE.6X .E.$X5X Xs.%.N.J.x tXrXrXyXyXyX7XY.yXrXE.7XyX2X5X5X}.a R.t.p.[ w f yXqXiX4X8XuX7X2X7XW.Y.7Xd P.b.W. XS.9 -.{ c.x.k y.6Xb.F.F.tXeX7XyXyXyX X0.F.iX5XW.2XR.k 1 : ; k %.2XD.N g.c.kXJ.c.c.B.M.b.s.M.N.s.C.{ t.| M N.s.0 0.W.Y.F.D.B.J.f { t.v.v.u.=.m s.J.&.: N $ 8 0.m s t.> > ; ; ; q v 8.h.h.W. .b.f [ ;.z.l x j B f Z h.@.8.Z.Y.L.D.L.5XF.b.D.B.c. .c.B. .s.b.c.s.J.m t.B.b.-.5 4 5 a ' t.v.c.s.v.B.b.b.b.c.J.B.u.t.J.",
"# X iXrXeXiXD.iXtXg.=.6XwXs.&.I.@X$X$X#Xz.;.;.{ &.7XcXiX9XuX6X2X~.NX3X5X5X7X@X7X@Xa.l yX;.;.j w 9 7XqX^.yXY.uXdXiXG.4X7XyX9.5XF.L. XD.V v.{  .j E.W.~. XW.5XM. X X2X@X7XuXW.W.W.F.Z.iXk j 1 : , l C.2XA.#.0.m b.B.J.b.L.S.I.R.I.J.v.u.| %.1  XY.| m m b.R.M.L.b.B.w l N.N. .p.s.s.s.&.c.e r q.N 9.m S.h d : ; ; ; 7 S e.L w.R.{ 9 }.{ p.u.a c d.g.Z i.8.C c f D.Z.F.D.I.J.m t.| S.M.g.y.b.N S.I.s.B.&.{ u.N.x 5 5 a g l x s.x.t.s.v.b.B.B.v.J.c.s.s.J.",
"# X pXNXiXrXrXiXkXE.-. .#X%.}.rX#XrXwXJ.=.[ B B #XyXyXyXrX@XyX2X6X5X7XrX5X2X5X2XM.a [ @XB.%.a w V qX0XT.7XiXiXiXqX7XiXBXuXV R.R.D.L.}. .*.1 0.qXR.E.Z.W.yXY.7XW.A.iXG.Y.yXyXuXyX0X7XuXx j , 0 8.K.2X0XP.9.| c.s.S. .y.f.c.b.s.$XB.N.t.0 v.v.c.4Xs.%.@X9 S.P.D.I.h s f v.{.u.p.u.t.p.s.t.%.s.q C i.F.P.P.D.d M %.a 0.L e.8.e.b.N yXiXz M { k i.t.y.m 8.@.v c d f.A.S.S.K.h h N.g.B.R.F.D.L.s.S.N.{ V | c.V C.s 5 5 g 5 5 g a =.t.s.v.C.C.v.y.c.S.K.z.=.",
"# X pXsXpXeXtXiXtX$XN.%.U.t.@X5X6XtX5Xv.u.{ [ B 6X7X7XyXeXrX7X6X3X7X7X5X7XR.L.Y.6Xs { B.z. .a w t.yX~.2XA.2X^.7XBXqXuX4XdXg.L.P.F.P.I.1 : #.7XuX2Xb.W.eXW.2XW.W. X@XR.2X7XpX2XyX7XpX5Xx f , 9.8.g.@X5XZ.i.#.&.f.c.b.i.J.B.g.v.t.J. .h B.eXc.t.4X Xd R.M N L.I.J.x s  .p.z.=.u.;.p.%.[ m L.C.9.V h.~.Z.G.s.x k f M : f n C d.9.#.Y.R.z k &.c | t.Z  .8.v C v d b.S.S.B.d s.B.b.M.M.S.y.R.S.c.y.d { x &.{ t. .a 5 g g g 5 4 l [ v.z.t.u.v.N.v.S.v.v.v.z.",
"# X rXtXcXpXrXrXkXtXU.t.x.i.@X5XyXrXE.u.u.[ { [ 6XyXyX9X5X7X9XNXyXuX7XiXiXyXiXpX$Xs %.J.=.;.2 2 iX7XyXiX7XW.W.W.W.7XpXuXdXt.F.Y.D.Y.S.k wXpX7X3XR.5XP.2X2X2XW.P.0.5XE.7X7X7X2XyX2XpXiXj s , R.C f.0.eX9. X=.u.s.c.s.s.J.B.c.c.B.0 K.c.R.R.l V uX}.x 6XS.k t.t.U.x j s ;.x.{ p.a.;. .C.t.t.p.x.m d A.F.h.N 9 w , t.1 : e.e.m.Z.2XA.Y.[ a B J.| | d b.v c c c h | y.i.b.D.m.b.b.h.S.B.b.M.J.b.V M M k #.c.N.B.-.5 g g g 5 5 5 g z.} f ;.%.=.m v.s.K. .%.",
"# X pXiXpXiXiX@XtX#X#X#X=.s.@X@XY.Q.&.z.-.[ { [ 6XrXyXpXyXyX7XyX7X@XyXuXyX7XyXeXk j }.U.B ;.s d 2X7XqXW.7XyX7XiXpX7X4XpXsX0.L.L.A.P.L.e Y.7XP.P.7XP.9XW.F.7Xh.S.I.0.7XW.2X2XyX2XiXrXf s s t.B.Y.h.S.J.I.h t.B.x.v.s.b.f.=.p., i.Z.N V s.s.z m 3XI.B p.M.L.1 x.c.z.a f =.V z.c.B { %.|.z.=.s. .c.d #.#.t.9 j c.| k 9 ; 8.d.e.^.Y.F.P.x { f | 0 d b.S v : , : 1 &.c.S.J.I.D.g.B.{ , 2 2 4 < : &.| | s.b.s.v.s.[ 5 5 < < a 5 g l c.K.{ *. .%.%.k s.c.N.t.",
"# X eXtXpXiXiXkXM.tXiX$X;.%.@X2XW.W.V ;.;.{ { { eX0X7X2X7XyX7XiX5XyX7X9XyXrX5XwXk { eX$Xp.[ s g.iX4X4XyXW.7XpXuX7XiX3XsX0.M.L.P.D.R.F.tX7X9XM.W.Z.E.@XE.A.yXR.}.b.i.eXh.2X4X3XyXiXyXm , a.I.rX0.L.}.e @Xm s.K.v.u.N.s.c.e i.V f e 0 f w w 2 f P.tX{ c.i.B.v.,  .%.d  .z.p.s.s.p.%.x &.t. .;.N.t.y., t.V k c.t.d a 1 ; 8.8.8.G.2XZ | B z { j s m v C : : s 5 g l ' ' x S.J.g.4 5 m  . .s.R.Z V 0 x.c.L.b.s.K.L.4 < < < g g g g x.-.B B -.u.=.x.| k s.S.",
"# X tXrXrXpXuXtX@XcXtX XN.%.g.F.C N B B =.{ { &.eX5X7XrX7XrX5X7X6X6X5X5X0XyX9X$Xz x.W.B.v.f s U.yXNX7X7XyXpXpXuX7X2XG.yXP.L.R.Y.P.L.iXZ.7XE.E.5XP.A.yX@XL.f.0.f.9.f.eX XR.Y.F.5X7X2Xk ;.S.$.0.P.0.c.=.E.i.S.wXh B B f e D.Y.#.[ m t., 1 1 z N.M.b.&.U.M.v.B.k ; { %.a  .=.p.;.=.%.z.p.z.c.z.p.f V c., t.k g.f.t.w 0 : 8.q.e.W.9.9.h f { %.9 9 V c : , d K.V x ' z ' } J.c.a 4 y.L.S.B | L.B.S.V c c.c.s.v.C.B.5 < 4 4 g g g g a [ t.r.t.t.c. .c.b.z.z.",
"# X kXtXiXiXpXiXiXiX$X$XB.%.| 5X6X%.B B B { { v.@XiX7XrXrX7XpXyXrX2X@X3X5X9X4X$Xz f.@XeXf g s 2X7XsX7X4XyXqXdXuXT.yX2X7X@XY.E.D.L.F.7X5XP.5XR.E.R.E. X5XrXm B.B.B.b.$X0.@XM.| &.b.N.j k b.m N L.g.J.L.iXc.tXP.} z.d b.D.I.rXs.%.V C.> k m.L.7XP.0.Z V B.b. .s.9 d B a ;.;.u.p.p.p.B =.;.t.t.z.V  .t.t.s. .M.0.c j w ; q.L e.A.h.L. .d #.B N Z M.8 : c c e.M.N. .z l [ v.c.9 u.s. XD.N.s D.S.B.v.9.V C.C.&.y.B.5 4 < 4 5 5 g 4 z s.v.v.c.v.t.N.b.N.z.b.",
"# X iX5XtXiXpXiXiXtX$XwXK.t.%.5X}.%.B B B B { N.}.tX2XrX5X5X7XNXyX@X2X2X0XrX2X$Xz B.rX$Xx f x @X5XE.NXpXBX7X4XyX~.7XiXyXL.P.W.F.2XY.6X6Xg.wX5XwXc.E.R.I.V C.z.s. XU.I.I.b.y.t.1 , 1 2 m M.A.7X7XL.M M.R.s.7XY.x : J.L. XB.v.B 2 0 1 1 Z.G.T.A.h.}.#.&.}.S.S.&. .1 j [ ;.u.u.p.u.p.s.x.B J.z.z.N.| t.#.&.k q  .N  .0 m j.q.d.Z.A.i.i.V &.| 0.M.9.C c S e.l.Y.Y.D.t.l [ s.M.S.D.L.R.m.c.s L.L.D.B.B.s.M c.b.b.c.5 4 4 < 4 4 a 5 l y.b.s.B.B.b.B.N.C.c.t.",
"# X iXyXiXiX@XtXiX6X6XrX#XJ.s.I.}.&.%.B B B B v.6X9X7X6XrXE.5X7X@X@XP.2XiX5XyXtXx y.#XU.l j m @X3X2XyX7X@X7XY.rXyXW.0XyXF.Y.Y.A.R.C a 1 1 f 0 9 , e s B  .B z a 1 1 c.t.v.t.p.p.l 1 ; U.7X5X7XY. XI.kXg.y.t.: M.B.C.K.N.k v.;.j M 0 Z.Z.L.Y.0. XL.B.0.I.M.Y.L.-.1 , [ %.=.s.s.t.N.p.C.z. .y.t.=.t.&.x x s.|  .&.{ 9 c 8.j.j.W.d.i.$.m V d i.m.G.q.7 j.H.A.W.F.F.N.[ l { L.L.V A.b.Z.B.w S.D.m.B.S.b.m y.S.A.b.g 4 4 4 4 5 5 g } b.b.f.s.c.B.v.r.v.v.c.",
"# X rXrXpXpXiXeX5XiX5X5XtXJ.&.&.u.&.{ { B M { z.E.eX6X XE.6X}.R.5XeX2XrXyXyXiXU.z J.}.p.j j Z @XpX7XF.pXdXuX3X5XyX7XyXY.Y.F.F.L.F.g.1 , < : : r.U.J.K.U.{ 0 j ; ; ; B { x.m t.s.s.s 0 L. XL.Y.F.5Xb iXwXk ,  .B.s j x d e b.S.%.j L.Y.2XT.@XI.M.S.L.t.b.g.S.{ > : { > { *.x.&.S.r.y.t.v.s.=.p.%.u.=. . .d 9 m $.| 9 v e.H.l.Y.8.9.V h y.#.r 8.A.e.j.j.H.F.2XY.Y.b.g.F.L.J.L.y.y.C. .z 1 d d m.B.S.S. .p.c.B.I.l 4 < 4 a 5 5 g } N.p.c.N.c.v.c.N.b.N.B.",
"# X tXiXtXiX@XkXtX7XrXiX6XB.v.=.t.;.=.{ B B v.v.}.eX@XE.}.E.}.6XP.5XcXyX5XiXtXx x #X}.c.l j 6XW.E.yXW.yXuXpXuX~.3X2XyX2XE. XL.Y.A.D., , S.L.S.L.D.P.#.p.[ l < ; ; 2 &.=.S.t.i.J.s.0 1 rXZ.h.Y.F.W.@Xc : h.N.%.C.l f a V tXE.L.=.z S.W.yXW.g.P.g.b.y.L.c.M z ; N.{ f f ; %.z.B f.q.C c t.&.B %.| =.M =.B : 9 0 9 , 9 d.8.A.l.^.i.h.#.0.&.h C q.A.G.!.j./.G.T.D.F.F.M.L.R.P.S.c.b.=.x x B Z s.P.S.b. X .s.x.c.B.l 4 4 4 5 5 4 5 a B N.s.b.c.B.c.r.v.N.N.",
"# X tXrXtXE.tXeXtXtXrXkXE.$XK.;.;.;.-.[ V B U.#X5X6X6XE.}.B.6XtXY.@XrXcX}.9.c.x B.iX5X;.[ l }.7XW.7XyXyXW.7XcX2XNXyXyXW.Y.P.L.E.I.y.&.N.J.L. XP.P.5Xk x.x 2 > ; ; { B.[ b.N B.b.s.2 f 2XP.rX3XpXA., f.NXrX[ %.x.j B c.5X~.G.P.f 1 @X5XNXP.F.S.@X}.g.k m < 1 c.c.%.a v.2 0 p. .| r c h f d j { %.x { &.{ 9 m 9 7 y.Z 8.e.^.H.G.Y.Y.W.| V i.m.P.Y./.A.A.q.G.W.Y.E.S.A.F.L.R.S.b.S.z.C.J.e | E.J.L.b.b.J.t.N.c.b.s.5 4 < < < 4 4 4  .V U.s.s.b.s.;.=.K.x.",
"# X rXtXE.U.#XrXiXyXuX6XrXL.|.x.%.-.=.[ V B ~.tXeXP.$X6XE.L.P.D.g.6XR.M.F.#XB -.U.iX$X;.x N rX2XyXyX7X7XW.2XW.7XpXqX7XE.Y.Y.Y.E.f.S.$.6XR.5XrX2X2X2Xj =.N.2 > ; ; N.U.s i.S.R.I.| V U.kX2XpXF.2Xq 2X9.pXkXs B  .f 0.i.Y.2XG.U., s uXeXU.E.@XE.$Xg.m | , { s.j h B k U.2 : 1 k  .c c d k d z x M %. .&.u.{ V e 0.8.8.d.e.h.H.G.F.Y.Z. .&.r.B.Y.y.Q.l.H.j.Y.Y.Y.F.F.D.Z.J.L.J.b.N.t.1 < a j 9 p.b.y.K.c.S.t.N.I.b.t.< 4 < 4 4 4 < a p.s.c.S.y.c.s.s.c.t.",
"# X iXkX#X XtXtXtXiXiXrXtXeXC.C.p.-.=. .[ | 6XrX@XwXwX$X}.R.iXtX5XE.U. XrX6Xm z.@X#X X%.z 6X0X7X7XuXuX2X7XpXpXW.iXqXiXY.D.Y.F. Xy.Z F.eXrX5X5X7Xf.7Xd C.K.x ; ; > b.J.k A.F. XL.V %.$X@XtXm e 7 eXP.N E.$Xx -.-.m B.A.2XyX Xj < s 9XE.P.L.}.M.s.J.1 : J.t.u.N.x.{ { p.e [ : f  .v 7 e c d w k z %.{ %.s.| e 9.0.Z C w.d.m.l.8XA.Y.b.r.t.s.f.A.Y.Y.c j.G.e.W.F.Y.A.F.S.L.S.t.S.J.z.N.C.m B.K.c.N.c.b.S.v.B.b.S.M.z.4 4 5 a 5 4 < < 1 x p.b.p.u.u.t.s.z.",
"# X rXkX6XtXtXiXrX7XtXrXiX$XK.z.;.;.;.=.%.rX5X5XiXtX5X@X@XM.7XtX@XeX XW.P.6Xx B.iXtXB.B z R.rX2X7XyXyXP.P.R.eXY.2XpXiXY.L.Y.P.L.L.I.$X9.c e N W.Y.2Xj %.C.f ; ; < 6XtXV Y.E.E.E.| 9.E.@X0 1 V #XL.b.s.rX;.j z.N.| c.E.2X5Xm s 2 a @XM.D.L.b.t.[ : #.K.&.u.u.s.p.p.V s.J.S.y., f.v e m s e x B [ x { { { %.x m #.#.#.i.d.d.m.j.Z.W.L.t.M |  .A.v pXq.H.q.h. XZ.P.L.Y.A.D.J.L.h B.C.c.C.[ c.c.p.S.J.b.t.c.c.B.B.i.[ 5 4 5 5 5 4 4 2 { f V c.b.p.b.c.v.c.",
"# X tXE.tX5XtXtXrXrXrXrXtXI.N.;.;.-.%.%.%.rX5X7XeX2X@XiXR.eX@XyX X6X5XtX6X| x  XiX5Xc.[ z 6XD.g.y.E.R.5X@XM.2X7Xd.g.F.L.D.Y.R.S.P.E.s.}.B.P.}.Z.2X2Xj f x f < ; R.Y.c.S.3XE.W.5X%.| %.1 $ y.s.=.m t.t.U.#Xg x.B.x M.$XE.M.x l 5 l #.9.S.s.c., , 0.s.t.&.x u.z.t.;.s.&.c.i.s. .M 7 , f B m x { &.;.=.&.&.m d V 0.i.C d.d.C d.h.F.F.F.m.9.0.y.m.Y.G.@.H.Q.y.Y.F.P.R.P.D.S.b.b.I.B.V 1 1 a  .M M c.9.I.b.B.B.c.N.b.} 4 4 4 4 4 5 5 5 #. .| B c.b.C.c.C.c.",
"# X #X6XrXrXrXeXiXtXeX XiXI.N.;.-.-.=.%. .7X7X5XE.7X7X5X7XP.@XiX0X5XiX5X5Xm K.5XE.W.c.[ m D.R.W.5X5X7X5XY.E.E.2X X2XM.E.D.L.R.5XI.E.R.L.2X XW.W.uX7Xx j x x : #Xb.m g.R.W.@X~.R.V | [ : K.cXB &.I.U.}.rX%.s C.N.N.D.I.t.%.x 2 s ;.M.B.7 y.d S.B.0 s.N.t.s.=.z.| p.c.s.r.9. .s.e : , , 1 M f | =.%.{ x j m 9 #.9.0.#.e.j.F.A.h.m.Z.^.iXW.F.b.F.Y.b.b.C G.k.@XZ.M.M.A.b.D.R.J.J.S.s.B.N.K.M F.S.M.v.c.S.&.9.r.b.B.v.5 5 5 4 4 g a g %.p.t.;.w B C.v.J.c.",
"# X wX6XrXtXtXtX7X6XrX6X XN.z.p.-.;.-.%. .5X@XpXpXyX2X5X7X7XE.6XsX7X@X5XJ.x S.@X5XU.;.z {.W.2XrXiXrXyX@XiXyX2X7X5X2X9.S.D.f.@X XR.pXE.5X2X XY.W.W.W.x z a B  .7XB.9.A.P.7XW.2XL. .B m U.c.s.j  .{ ;.%.{ j f C.x.;.b.s.z.C.-.s [ K.v.B.: i.A.S.B.K.9 &.c.s.{.[ t.z.x.u.s.s.t.u.k 1 , 1 1 2 s =.%.{ B &.m d V #.#.Z 9.i.y.A.F.d.d.Y.iX3XY.R.c.i.B.f b.e.d.N  .M.b.D.D.L.I.J.B.V N.b.L.L.=.k #.S.B.f.s.c.t.c.c.I.B.K.g 5 g g g g 5 g p.;.t.%.t.t.t.c.S.B.",
"# X $XrXiXrXrXiXyXrXtX@Xu.x.;.-.-.u.%.%.%.7XrXyX@X7X~.2XrXD.W.W.5XyX XBX . .D.R. Xs.M x #X0X7X6XrX0X2X2X7X0X7X7XyXP.E.Y.7XpXdXdX7XNX7XW.Y.Y.yXyXT.iXj j 2 2 L.7XR.S.A.pX7XE.W.S.{ B b.&.=.V { p.;.%.&.%.a [ { | N.v. .{ *.p.x  .u.m $ s.J.v.v.b.t.s.0 s.c.c.z.j t.x.p.x.p.s.B m c w > 2 1 2 2 x [ m k V d V m | N Z d.8.@.d.^.Y.W.^.2X2Xs.v.s.s.V B d.d.b.E.L.D.D.E.D.L.S.b.c.t.B.J.K.4 { 9. .B.s.B.c.r.v.y.s.v.z.5 5 5 g g g g g x.x.u.=.r.f.B.c.S.S.",
"# X $XtXrXiXtXiXyXiXrXU.u.u.-.-.-.-.%.%.&.5X6X X@XE.E.P.L.@X@X5X5X2X2X7XB -.R.U.L.y.x B 6X7XyX7X2X0XyX4XpXyXrXyXyXR.Y.F.W.qXpX8X4XiX2XF.2XW.3X7XyXY.B j 1 0 B.g.5XL. XuXW.Y.W. XB B.V s.u.C.x.K.u.m V B =.p.{ |  .#.s.=.-.x.x z 2 , c.b.B.v.v.s.c.s.r.: v.t.%.d ;.p.&.&.;.=.j m d %.0 z a 2 2 w f x k x V | Z  . .9.q.8.8.8.~.Y.G.~.@XR.B.z.| t.t.M A.t.s.R.S.P.D.D.F.A.b.M.s.c.S.S.a f B.y.| i.K.s.c.z.z.t.a.s.t.g 4 g g g g g z u.z.c.=.z.s.B.y.J.N.",
"# X B.rXtXyXyXeXrXrXtXc.p.N.v.-.-.%.s.wX5XrX5X X@X@X@XE.E.R.@XE.R.R.E.6Xx =.P.rXa.V j B iXyXW.W.9XyX7X7XyX~.7XT.7XW.L.F.yXpXiXuXiXyX2X7XeXW.rX@XW.2Xz j z M K.Y.L.f.iX2XW.Y.P.B. .$Xc.%.C.#.cXN.t. .t.=.M.$X| N.&.m =.t.%. .0 ; 1 c.K.c.s.N.v.v.k p.s.x x s. .p.x ;.| &.&.B j V  . .a , , d a 2 0 2 x j %.| | Z 9.C 8.8.c 8.D.G.W.2XZ.t.s. . .%. .c.8.9.i.D.D.F.D.L.D.L.L.S.b.I.s.a j f.K.b. .f y.S.c.t.&.t.s.p.;.5 4 5 g g g l l c.v.B.N.v.x.t. . .v.",
"# X z.$XtXiXrXwX6XtXrX|.C.C.x.-.-.*.R.6XeX6X5XwX@XeXrXeX@X$XD.R.y.s.R.A.x s.L.L.a.x j b.2X2X0X6X2X2X2XyX7XyX@XyXE.Y.L.W.4XiXqXiXuX3X2XyXf.5XZ.R.rX3Xj j a s.W.R.W.i.g.7XP.b.P.N. .K.&.p.Z wXVXN.s.t.c.J.b.N.N.c. .=.v.N.;., j N.k #XB.c.s.N.s.c.&.=.z.-.1 %.%.B B ;.&.;.&.d x B &.B m 1 1 f | s.2 , < M | {  . .C 9.q.d.8.y.h.~.7XW.U.t.t.;.%.&.S.s.h.9.M.S.F.Y.S.L.F.S.L.b.B.=.B 0 M.b.c.S.s.| e p.N.s.c.m s.&.z.4 < 5 g g l g g r.x.B.B.f.N.V  .{ &.",
"# X x.p.wX#XiXtXrXtXeXN.C.-.-.-.*. .@XeXtX@X6XeXE.eXeX6X5XwXrXa.x.I.R.L.[  . XL.N.;.{ 5X7XyX7XyX2X9X0X7XyXyX5Xh.D.L.L.7XyXyXqX4X~.@XrXP.eXW.iXW.Y.E.e a s K. XE.g.#Xb.R.R.s.b.f.c.| x h i.wXf.}.s.N.J.s.t.v.B.c.=.=. .{ | m p.t.k s m m c.s.| ;.s.k z.M -.1 &.c.f t.| p.N.d B V z.V #.| : , w { B , 1 2 2 2 f d.b.8 C q.h.8.Q.T.F.L.b.s.s.z.v.J.K.L.K.V y.h.A.E.D.S.D.L.R.J.J.;.a f.c.J.J.v.c.J.m , m { s.y.u.c.x.z < 4 4 g g g g z.f.B.x.| 8.L l.l.k.",
"# X s.p.wXtXwXrX5XwXrXK.p.z.;.-.;.$X7XeX@XeXVXD.$XrX@X6X5XrXC.s.x.}.=.g.;.U.U.#XE.&.t.~.5X7XrX7X@X7XyXyX9XZ.2XD.5XR.L.W.qXyX4X4X7XF.5XyX2X2XpXyX@X}.B a j E.2XpXb.i.R.B.M. XJ.t.}.B %.i.M.M.B.B.}.&.c.=.u.;. .u.t.&., L.b.| &.u.z.1 0.t.s.N.s.;.v.s.{ x  .: 9 u.t.v.j c.v.k k m m m m  .} < ; d 9 : 2 1 < 1 9 Y.y.0.8.e.q.d.G.7XD.S.c.c.y.s.z.C.B.B.B.d c.Z.L.D.J.F.F.L.L.K.u.d v. Xv.v.V m m  .s.[  .c.v.c.c.y.f.z.4 4 4 a g g g ' x.B.B.a.a.H H 8.w.",
"# X {.s.$XeXtXtXiXiXK.v.a.z.-.-.p.9XeXeX$X#XM.eX5X5XrXyXyXtX[ R.}.vX=.#XN.c.L.R.D.g.&.@XE.F.~.P.@X@XW.P.0.2XE.U.P.L.D.2XyXqXuXyXiX7X@XpX7XqXyX5X5Xm $X2 w 6XpX5XE.J. XE.E.E.{.V  Xl B.y.E.eXB.#X$X&.N.a.p.[ -.%.w t.g.s.#.=.t.u.c.u.f &.c.t.z.x.u.;.%.s f L.s.d p.z.z.x.u.a 0 B k V | | ; > 1 ; , d 1 B 1 < V q.h.e e 0 d.d.W.W.M.I.c.y.z.s.{ c.y.c.u.f M.S.A.F.A.L.S.M.R.L.w x.B.s.S.J.s.v.s.N.c.J.c.d S.c.c.J.s.=.-.< < 4 a g g l l c.N.t.: 9.H H 1 ",
"# X wX;.}.wXtXtXtXN.s.$Xp.z.;.=.wX6X6XwXE.P.6X5X@XW.rXyXyXtXB }.I.B.M.J.B.B.i.@X@X#XS.6XR.eXL.W.@X2X2X5XE.P.L.t.E.L.F.yXyXyXqX0XyX7XE.2XyXyXW.2X@Xd S.w h iXyX2X XP.S.R.eXE.L.{ bXl c.b.yXE.L.@XL.[ { z.-.B [ 0 c.a.s.u.c.%.u. .s.B.k s x.N.u.-.-.{ f w B.c.K.1 ;.p.=.{ B 9 B m m { B f > < > : e 9 k r.N 2 i.8.v 7 h d.F.A.2XeXM.s.t.y.s.p.x.K.i.s.s.x M.h.E.E.D.L.L.Z.D.k s 9.5Xb.R.M.s.s.b.I.B.B.B.&.f J.B.N.N.C.l 4 4 4 g g g 5 5 | N.; r n 8.d.s ",
"# X wXu.p.wX6XwXrXp.s.u.-.;.-.%.6XeX6X5X X5X}.$X5XeXE.P.i.%.[ E.E.B L.I.y.N.s.M.@X5X XW.@X@X7X7X2X7X7XyXyXb.i.B.M.R.yXyXuX2XyXyXyX2XE.2X7X5XP.@Xa P.$Xd v.6X7X@XM.E.D.L.P.R.B.j iX-.$.M.pX7XM.2X@X[  .-.s B v.s.t.t.z.z.;.N.N.J.c.v.k a j %.p.x.{ : k v.s.p.N.x., ;.s.u.u.B d m f w j s : < > > V N Z.D.i.{ 8.q.d.h.M.R.i.0.Y.E.c.s.s.s.s.[ N.s.#XJ.s.B v.m. XL.L.L.L.A.x.a s.f.r.9.y.J.{.J.c.b.J.c.v.U.&.k s.z.&.B.z 4 4 5 5 5 g g ' x.c.9 r 8.Z C B ",
"# X  Xu.&.$X XcXJ.K.|.z.p.u.-.u.eX6X5XwX5X$XeXeX5X5XrX5XW.}.C. XrXV B. XU.t.t.tX@X2X5XrXyX2X2XF.yXW.2X@XP.E.E.P.g.b.2X2X7X2X7X7XiXE.W.7XW.E.P.D.w c.N.a $XyXrX7Xf.5XR.L.eXE.g.w eX;.g.2XE.6XE.W.5Xz a w , p.t.c.x.u.-.x.v.z.c.v.p.u.z.;.a B -.{ 7 I.&.m t.t.&.t.[ 1 t.=.=.%.f d V j x 2 0 l { k Z.j.d.F.D. . .q Z.Y.A.u.j [ L.S.s.c.v.s.%.t.s.c.L.s.N.#.u.Z.G.L.S.f.f.| 5 t.t.S.s.S.K.t.I.S.S.s.s.J.%.j B V e c.s.b.s.5 5 a g g g 5 g z.b.J.Z z x [ f ",
"# X iXN.s.}.wX$Xc.C.;.-.-.;.*.5XrX5X5XP.E.6XeX5XrX@X5X5X X| J.5X@Xy.@X}. X=.Z E.@X2XrX7XyXpX3X0X~.4XF.Z.M.f.M.0.2Xf.F.5X7X2X4X2X7Xi.L.6Xh.F.E.B.2 t.&.1 @XrX5X X@XR.D.L.D.}.B d s.t.@XeXD.b.M.$Xb.a < { %.%.t.c.p.x.u.t.v.t.v.z.t.u. .u.z.1 s k c.s.x.x.t.t.m &.{ |  .=.%.B m w V k j 1 x w y.e.d.d.A.^.rXg.{ |  .d.h.M z [ L.t.N.c.s.s. .t. .V S.N.t.| t.M.^.Y.P.J.{ j g.S.S.L.b.J.L.L.S.B.J.c.C.C.v.#.c.t.c.V L.I.J.z.5 5 g g g a g v.$.&.d l x j s ",
"# X tX Xp.N.$XrXv.v.p.z.-.x.p.7X7XeX6X5X5X2X2XW.7X6X5X2XrXV S.rXE.P.U.#XB.s.N.@X@X2X7X7X8X4XW.W.5XW.yXZ.D.iXW.rXP.F.2XeX2X7X5X2X5XB.L.yXL.W.M.B.w g.h e ~.yX3X X7XE.0.g.wXB.w { #.6XrX7XY.2Xt.p.e 2 , [ p.t.=.;.x.-. . .x.x.p.t.t.=.x.[ u.: v.t.c.t.s.&.U.J.y.c.B f 1 ;.t.{ B B B [ { 2 f 0 0.e.h.h.h.C P.f d x ;.b.%.x [ j i.g.#XB.t.c.&.t.s.9.S.b.s.d B.f.W.y.B j d c.D.L.L.L.s.K.K.K.S.L.b.N.s.b.B.J.S.B.v.;.&.J.M.[ 5 g g g 5 g a -.#.@.e x d B z ",
"# X tXtXJ.&.{.C.{.p.-.-.z.-.$X7X6XeX6X@XW.7X7X7X7X6X6X6Xi.p. XR.L. X Xb.B.U.s.F.6X7X5X2XuX@XW.7X3X@X3XR.2X5XW.S.Y.A.2X XW.2XW.R. X| M.L.S. XM.f.p.C.0 v.5XrX~.Y.R. XY.2XI.%.a z.L.b.@X6Xi.iX&., 0 f -.;.=.%.;.| =.;.| p.N.N.z.s.&.u.v., z N.c.{ #.;.&.&.t.| s.=.|  .B 1 B { | M B [ a 2 a 2 y.e.d.8.c v h j a d d Y.t.j z f 0.R.6XP.t.N.c.V s.g.g.B.c.V x.h.E.B.m h C L.L.Z.L.I.S.J.S.S.J.s.b.b.s.N.J.J.S.B.S.B.#.J.L.v.4 4 5 5 5 s s p.u.n d j x f s ",
"# X rXwXU.c.z.s.v.x.-.-.C.-.$X6XwX6X6X6X X5X5XT.5X7X@XwXE.p.L.wX XI.M.f.I.N.Z g.F.6XA.4XqXE.W.2X5XT.W.2X2XL.eXP.D.W. X2X2X5XY.R. Xg.S.I.L.E.B.h.c.s.d #.rX7X2XY.F.Y.2XyXV 2 2 9.m. XY.yXy.P.0 L.0 s =.-. .t.=.{ { %. .t.t.x.p.s.c.t.0 B.V b.M y.c.s. . .t.| s. .p.&.&.s 1 M a d a x s w f 1 9.8.q.9.d.h.M.1 g 1 C A.f.l x x y.9.iXE.c.b.i.| b.g.c.c.c.&.p.F.m.g.c.{ f.S.W.L.L.S.P.R.L.b.S.S.K.f.B.b.J.L.S.B.v.J.&.V L.z.4 4 < 4 a z.{ z s.C d s z a f ",
"# X tXwX$XU.-.;.C.C.p.N.-.%.6X6X5X6X@XE.wXR.3X~.rX@X6X$XV P.rXW.I.i.i.N.F.&.$.0.0.$.Z b H m V F.2XZ.2XE.7XR.D.@Xb.2X2X X5X2X2XW.R.Z.S.E.S.F.eXi.t.b.w Z A.E.W.2XA.4XY.F.| 1 2 e r 9.8.@Xg.s.L.r.5 B *.;.;.%. .{ V 9.c.m s.v.x.;.q d.h.=.m z.v.c.&.%.|  .x ;.s.p.I. .s.%.1 z =.m j 1 > 1 1 1 M L q.d.h.Z j 2 2 8.8.D.E.z [ z &.2XW.A.s.t.&.C i.b.b.&.s.s. .m.F.W.P.g.g.R.A.Z. XD.A.M.b.f.b.s.s.c.B.J.D.S.K.B.b.v.B.=.z.s 5 5 2 2 j a.N f u.H e j j j x ",
"# X tXiX}.K.C.-.x.C.-.*.%.z.6X5X6X5X@XE.6X2X7X2X5X@X5XN 8.P.@X2XS.S.g.g.L i.a.M.a.M H u.V b N x P.E.~.P.f D.@XY.L.7X5XA.7X5XyX7X3Xh.pXY.R.W.@Xb.g.g.d #.W.7XW.^.k.W.W.C m 1 1 9 B.: 1 0 h.S.wX&.g x %.| V $.#.h 0. .g.m c.p.0 S.f.| x.u.f B V #.| [ { B B t.s.s.b.B.f { 2 : l B f < < < 1 2 h 8.q.h.Z.N 9 , 9.h.m.E.L.{ [ x &.~.G.Y.f.y.s.b.S.S.S.t.=.t.%.A.G.Y.P.S.V F.h.h.y.Z.b.#.s.S.J.S.b.L.b.S.S.S.b.B.c.c.N.J.z 2 < < 2 2 j %.V [ V 8 j j x w j ",
"# X iXwXI.J.C.;.%.z. .%.%.wX X5X6X5X$XR. XrX2X5X3X2XA.k.k.L b.b.M.F.d.w.B.%.i.a.c.| Z p.B G G x i.@XZ.R.J.A.S.M.M.iX5X2XW.W.2XrXR.rX@X0.R.3X2X5X&.| k I.5XY.Z.k.H.A.2XZ h 1 1 1 1 t.: #.f.9 1 w a s { V | $.$.x d 0 w ;.k f m L.t.| t. .x [ s.%.M B [ x { a.{ d k d { w s < : d 1 1 , s 0 2 0.8.h.d.8.c Z d.l.Y.D.Z L.%.[  .g.Y.F.Y.R.y.f.s.S.E.b.t.t.| t.A.T.F.Z.M.N 0.g.M.i.t.a 1 0 =.b.B.s.J.c.S.S.L.K.c.c.c.B.c.N.4 4 2 2 4 2 V %.$.%.h d z d f x ",
"# X 6X6X|.C.#X;.z.-.} %. .$X5X@X@X@XE.#XE.2X6XP.3XZ.F.L H k.w.w.e.d.8.L w.L w.g.$.y.H N H N H H H h Z N v ~.c M.E.2X7X2XW.OX@Xd.R.h.D.Z.0.0.C H c m N c 8.d.l.T.T.T.d.N , , < 1 < s i.r | x | V { j N d m =.k m 2 < < a 0 9 9.{ p.V ;. .=.s M.#.d d w  .M Z [ #.t.V w B 2 1 s r f.C M V M N L 8.c g.h.C h.9.h.h.D., c B -.c.b.Y.Y.M.E.M.9.f.i.S.B.B.s.#.&.h.l.A.h.h.| 7 9 1 w 1 , 9 j f %.r.c.B.b.S.b.S. .&.t.S.b.s.v.c.l 2 2 < 2 N Z Z B h e w 0 a s ",
"# X I.b.tX$Xv.u.-.-.%. .{ 6X5X2X5X2X@XE.~.G.g.k.k.w.e.w.H w.w.L H L k.k.d.w.H a.H G H G b $.b H w.p.[ m p.{ =.M.7X7X7X5XY.W.W.M.2X2XF.Y.Z 0.C Z u u b u u c i b e 1 d m : > > < 1 9 g.9 N H &.M Z m m h Z #.V k < < < : j &.t.| [ p.%.{ { t.i.2Xk 1 w ;.$.h %.f.0 #.0 d w 0 e h.h.Y.A.d.i.g.#.0.d.g.f.9.b.#.$.&. .s.9. .B V f.i.A.P.P.@X&.c.t.9.s.b.s.t. .d.A.F.C n b N m c b m x m j 4 j c.c.c.t.m #.s.b.b.f.B.B.B.v.c.{ 4 5 4 w Z Z r x d e w a j k ",
"# X u.=.-.#.$.B.i.a.;.*.p.6X5XZ.M.M.F.e.d.w.k.w.0.w.w.8.e.e.e.d.M.e.w.L L H 0.a.p.u.x $.m a.t.%.&.%.z M z x x m 2X7X5XW.2X2XA.Y.7XY.F.D.h V d Z C r b c c i b h s 2 2 < w r u $.| d h c u h a 9 c : b n #.Z B w 1 < < < 1 B e x [ M Z ;.2 Z N b.9., f | | 0.a 9.f a 8 [ 2 =.#.i.9.N F.Y.R.d t.d Y.S.S.Z.F.E.y.M f : #.t.r C 7 C 2X7XZ.Y.s.s.y.t.b.s.B.B b.N N C h b c $.c #.V a 1 j 2 4 5 l z x N.c.b.c.s.B.b.J.N.B.N.S.c.s s M Z Z H t.x j b 2 e n L ",
"# X ;.J.D.k.k.c.c.;.u.a.{.k.k.k.k.k.e.d.k.k.k.k.8.i.#.a.$.D.k.e.w.P.D.@XZ.R.J.0.B f { x.k =.=. .[ %.x x l f f j F.W.W.W.T.Y.Y.W.W.F.A.Z Z |  .c N b C 7 m k k d , < 1 1 : r c h m | h c 1 , w f q : H i V N M M d 1 M [ a 1 a a x M m #.p.i.F.M.b.h m 9 m F.j 9.| Z i., Z N L c r r m 0.g.9  .r 5XN 0.Z W.Z.N i y y i b 7 p i 7 7XD.E. Xr.x.r.s.s.t.s.B b m C #.e d N #.m B a 2 < w 2 4 4 g { s.b.B.b.S.b.S.b.i.f.f.B.y.c.a 2 N c r m b b d b & y K K ",
"# X g.g.a.a.N.;.;.%.-.p.;.M.a.$.i.i.a.i.a.D.w.e.i.i.$.t.g.i.$.8.B.v.s.g.B.i.{ V x B x x z a.{ { x [ z [ z j a m 4XY.W.D.Y.Y.d.P.Z.d.9.N k Z m #.N N N V k f z j > s 0 1 < q i y b h q m 0 u u b H w r 9 1 , 7 e r 0 1 $.d | w a 2 i.i r r r M.d c c c N N f.0.&. .n b q N u 7 : 7 u 7 9 r i.u.j 9.M.L.q rXv i i p 7 y u c G i 8 8 d.P.M.0. .r. .s.s.$. .L c k V 0 z M M N M s < < 2 4 4 < g l t.s.B.c.S.S.c.b.S.c.b.b.c.L F p y i c , c  .8 = D = = = ",
"# X a.t.;.M.t.%.-.=.*.$.g.w.$.g.$.g.i.0.$.0.k.w.k.0.0.g.0.g.$.$.B.u.&.;.| | x { m N N j V ;.%.z j z [ B B s s E.~.Y.2XY.P.g.1 2 2 < m b b n i N Z N h V h h e d k w , ; , d f r c h c c N h m 7 u k e 9 , 9 q d 2 < 0 b c c N i i e.y r r 8 r #.c c C C c h.h.m : 8 u u r , , : , 9 7 q e , c r k.N N N f i L p L C L 8 i p y y y 7 q r q h h C 8.g.0.f.g.H m h e m k 9.y.V 2 < 2 2 2 4 2 a l z.S.f.b.b.b.{ m #.y.$.[ 8.i n p % L % % = = = = p p t L ",
"# X s.$.a.g.B.=.| k.w.0.0.g.a.0.w.w.8.8.8.H w.$.w.H $.H $.0.H w.$.0.;.Z H Z Z $.$.$.l j z B [ z z x z z x s j E.Y.W.W.3Xv b x 1 2 < , h i n b u c 0 9 r r i i r r 7 r 0 , m i y u r 0 1 1 j u a > , f 9 9 0 , e , , N i i i q.i i n b i y i i r k Z n b n r 0 ; , , q , , : : 2 N q r 7 h q r i.c u N 8.v e.q.p L q.p L w.8.h i 8 y $ q , u H 8.n c c b u 8 c c h r u u c e 2 < d z [ f a 2 l t.r.S.S.S.m c.M.s.q r b i i v t p p p L K K A p t p t * ",
"# X g.a.J.N.c.=.p.H H 8.M.a.e.e.8.w.w.L w.$.#.$.a.H H H $.N N w.b #.#.{ j x Z w.G N N Z B x [ x [ x x j a 2 x R.Y.W.F.F.n c 8 1 1 , , < h Z N b i u i 8 8 n i i f b , 9 h , N c u u 1 s < > 1 1 :  .e r c r 7 , < h b b p n n i i i i i b i b q 9 N H i 8 r , 7 0 ; : > ; ; > 1 n u 8 8 7 h e r h f b c v L c * A K % $ d.i.m u u i 8 7 , C C C H 8.i r m , k h m h d 1 1 k 2 5 w M { j B d g #.d.L L h.i.b.M.M.N c n p = p = y n p K A p O * t t n 8 ",
"# X R.M.C.N.a.&.U.Z.$.0.w.w.k.e.a.$.0.H w.0.#.k.H b u N H G H H ;.%.%.V x ;.C H w.#.| $.Z N f %.B B z a a e B Z.P.D.F.A. . .Z b b 9 > < , c #.b r i 8 u r , u b r b i 8 9 e 1 1 1 , ; > > > ; , 0 1 e @.q.j.j.| 1 9 , i y C u b y u i n i C y L * r 8 9.1 e q q 9 1 ; ; ; ; ; 9 C b 9 q , r u u * 8.p y i e.p K K J % % & r c y y c r 7 2 q H b H i n q c 0 , d j d 0 2 w f 2 2 a d d k m m g { $ p K = p % = = = p p p = A v t A p n p p * & p p p p ",
"# X U.U.J.N.;.g.E.M.w.0.w.w.w.8.w.$.w.H w.0.L G b G r e e w N H %.$.H Z m %.N #.w.H H C b N N m h h h m h k h h N c Z i. .a.$.N Z #.n r h b n r 7 r 8 i C i b i N g.w.i b d e w 9 < : , < > 1 , , > ; e S S q.S q.@.7 8 i n b i n q.i n L p p n l.d.l.d 1 e h q 9 , ; ; > ; > , n v n 8 8 8.8.e.l.7 i i e.i J K = = = % O $ e.u 7 8 y y 8 , r r c c 7 r c 0 q r i i 9 9 9 < 2 , k d 1 e x m d Z v A L L L S L S n n S A p v i = t O t t p t * & t p p ",
"# X B.M.g.c.k.M.0.$.w.w.8.w.8.w.w.w.H H b b b h Z y r w w e 0 q h G b G G G b n b k.r h x x u b q k u h h d d j w x ; w | $.0.#.Z C n n n p u r u c 8 u c 8 u u , , k i i 9 9 , q 1 1 > > > ; > > ; > ; : 8 S S q.j.q.v 8 e.G y y i i w. .n L C h.d.C c 1 f k u , : : ; ; ; ; ; $ A.j.1 9.r L j.p p q.q.v v K % = = K $ O O i y b 8 y y y t i 7 7 w.q q q r 7 q r b 8 w B q q , , 0.: 9 7 h q k N t L L A A L n n i n p p p p p A p p t t t & * & n n ",
"# X R.N.$.H M.k.i.k m %.N b r u c b u b c b h h N u e 1 1 q q e u u i n n G G #.q $.b b m i.k e w z j m j a w a 2 s > 1 m #.N N H C 9.C N c b h r 7 r b b 8 : , , > : $ r q 9 , 1 1 1 , > < , , , , ; , : * % t @.@.j.Q.i r c u 8 u C i n 9.k.e.l.d.Z.N q h y.7 N q q q q u 8 7 7 L 8.8.r c r n n i b e.S A K p j.n p $ $ O O m d 8 u b p i n i C q.9 , 7 r $ 7 7 7 1 h , q $ $ q q : 1 d k e 9 b p L L L L L p n n L S n p t c p L S S p = A p = n L ",
"# X t.i.0.p.=.=.d d d s 0 , H G $.r u h u h d w r h e q 8 8 8 u b G G e.8 8 C { a , u r w.y.a V w w u b H s 2 1 , w e 1 | N 8.C n b #.$.c m b N u q u r i 8 8.G H b u 1 8 8 9 9 7 , ; ; , r 9 h i.q , , n p = & % * c q.Q.9 C c 0 e 8.C #.v e.l.8.C Z.m c 9 d., h u 0 b m &.M N w.d.C #.N k r C i e.e.S = A K & p p p O o O O , Z C e.8.i i y % * i C d d.k.i 8 7 e n p i b y n i S t t 7 7 y * 8 t L L L L L S n t S n n A n n n S n L n L n * t v i ",
"# X &.=.$.0.$.r 7 h 8 q e k G b b y y i u b i 8 y u u u y p y y * 8 l.0.9 u u h d 8 8 i L i 8 i i i y $ N r u y i i b , N #.#.| C #.b Z N C N r u q b u b n i y i u q 7 q q 9 , , ; : ; , 1 , c $ q 9 , n = = & % & & c r x 1 , 9 d h Z b 8.F.l.d.h.8.c e e n 8 r : : b 7 9 q f C c C #.C 0 C n q.S 8 = J p * & t A S O O O O + h H v e.L K % % % % * 8 H v i i b N n p L n p 8.r 8 S v 8 i O % & & L j.K K K A p p S n p = S i p n S L L S p * y i n ",
"# X                                                                                                                                                                                                                                                                                                                                                                                                                                                   ",
"# X                                                                                                                                                                                                                                                                                                                                                                                                                                                   "
};
