/* XPM */
static char *d42a1845abc14e93c4b7792b6bf2dbc61rlDLvsprjj6ghAj[] = {
/* columns rows colors chars-per-pixel */
"113 117 188 2 ",
"   c #2E3944",
".  c #2E3B4A",
"X  c #343D4B",
"o  c #383F49",
"O  c #313E51",
"+  c #36404C",
"@  c #3A434D",
"#  c #354455",
"$  c #3A4655",
"%  c #3E4854",
"&  c #364758",
"*  c #394758",
"=  c #3C4A5C",
"-  c #3D4C63",
";  c #3F5068",
":  c #41474E",
">  c #424B55",
",  c #4B4E53",
"<  c #434E5C",
"1  c #4C5256",
"2  c #45505E",
"3  c #4B535D",
"4  c #56585C",
"5  c #54595E",
"6  c #6D675F",
"7  c #404F63",
"8  c #435264",
"9  c #4B5663",
"0  c #4D5965",
"q  c #44546B",
"w  c #48576A",
"e  c #47586F",
"r  c #4C596C",
"t  c #535B65",
"y  c #5C5D66",
"u  c #535E6B",
"i  c #585F69",
"p  c #455770",
"a  c #475973",
"s  c #4B5B72",
"d  c #505F72",
"f  c #635E65",
"g  c #5B6066",
"h  c #56616D",
"j  c #5B636D",
"k  c #4F6077",
"l  c #546274",
"z  c #5B6672",
"x  c #5E6874",
"c  c #55657B",
"v  c #59677A",
"b  c #5C6A7C",
"n  c #646366",
"m  c #64666B",
"M  c #66696C",
"N  c #696B6B",
"B  c #6E706B",
"V  c #75716A",
"C  c #7A746C",
"Z  c #606770",
"A  c #636B74",
"S  c #696D73",
"D  c #646E7A",
"F  c #696F78",
"G  c #6D7175",
"H  c #66717D",
"J  c #6B737C",
"K  c #717476",
"L  c #71777E",
"P  c #75797E",
"I  c #7D7D7C",
"U  c #847C75",
"Y  c #847F79",
"T  c #86817C",
"R  c #8C867E",
"E  c #576983",
"W  c #5C6C82",
"Q  c #616F82",
"!  c #657283",
"~  c #6C7682",
"^  c #6E7884",
"/  c #657489",
"(  c #6D7A8A",
")  c #707781",
"_  c #747B84",
"`  c #797E85",
"'  c #747D8A",
"]  c #797F88",
"[  c #837F80",
"{  c #7C8085",
"}  c #76808D",
"|  c #7C838B",
" . c #758291",
".. c #7D8692",
"X. c #7E8895",
"o. c #7A8799",
"O. c #7E8A9A",
"+. c #848484",
"@. c #8B8681",
"#. c #8D8A85",
"$. c #81868D",
"%. c #84888E",
"&. c #8C8C8D",
"*. c #928D85",
"=. c #918F8D",
"-. c #94918C",
";. c #9A958E",
":. c #818791",
">. c #848B93",
",. c #898E95",
"<. c #848D99",
"1. c #898F98",
"2. c #8D9096",
"3. c #87909C",
"4. c #8D929B",
"5. c #939394",
"6. c #999694",
"7. c #9D9993",
"8. c #92969D",
"9. c #989799",
"0. c #95999E",
"q. c #9A9B9D",
"w. c #A29C94",
"e. c #A19E9C",
"r. c #AAA595",
"t. c #A5A19D",
"y. c #ACA799",
"u. c #8E95A1",
"i. c #8F98A4",
"p. c #8E99A9",
"a. c #9297A1",
"s. c #959AA2",
"d. c #9A9DA4",
"f. c #959DA9",
"g. c #9A9EA9",
"h. c #A09FA1",
"j. c #9EA0A6",
"k. c #97A0AF",
"l. c #9EA2AA",
"z. c #9BA5B3",
"x. c #9CA4B1",
"c. c #A2A3A5",
"v. c #A9A7A4",
"b. c #ACA9A7",
"n. c #A1A3A9",
"m. c #A2A5AA",
"M. c #A5A6AA",
"N. c #A2A5AC",
"B. c #A5A7AD",
"V. c #A8A7A9",
"C. c #A6A8AE",
"Z. c #AAABAD",
"A. c #A9AAAE",
"S. c #B0ADA7",
"D. c #B1AEAC",
"F. c #B3B1AE",
"G. c #BBB5AA",
"H. c #A3A7B0",
"J. c #A6A9B2",
"K. c #ABADB1",
"L. c #AAADB3",
"P. c #ACAEB1",
"I. c #ABAFB8",
"U. c #B0AFB0",
"Y. c #AEB0B5",
"T. c #ADB1B9",
"R. c #B2B3B5",
"E. c #B9B7B5",
"W. c #BAB9B6",
"Q. c #B3B5BA",
"!. c #B6B8BC",
"~. c #BBBBBB",
"^. c #C1BEBB",
"/. c #BFC0BF",
"(. c #C3C1BD",
"). c #CAC7BE",
"_. c #B6BAC1",
"`. c #BBBEC2",
"'. c #BDC0C4",
"]. c #BBC1C9",
"[. c #C3C3C2",
"{. c #C7C7C6",
"}. c #CBCAC6",
"|. c #CBCBC9",
" X c #D0CFCB",
".X c #D2D1CC",
"XX c #D4D4D3",
"oX c #D8D7D3",
/* pixels */
"Y w.E.@.N M S m n f y t j $.2.9.c.d.d.M.Z.B.C.K.J.K.d.] n.F 9 j h j u h :.l.d.f.f.4.q.n.Z.d.s.d.V.R.P.j.s.K.P.P.B.m.j.n.d.m.s.s.d.d.m.Z.K.C.s.{ J F J } ~ z u ) | X._ :.$.J ) F _ d.N.l.2.z w s 8 8 8 q w w w q e s s s q e r s w ",
"C t.E.I N M n n f n m y 9 ,.8.d.Z.M.c.B.m.c.M.P.K.J.l.] _ j S ] _ | _ $.5.2.1.s.f.4.d.j.M.B.C.Z.m.`.d.n.B.C.Z.K.m.n.c.m.c.c.5.f.d.d.B.M.c.s.| j A _ ' ' ^ h l J L _ F ) >.' ) ..a.l.N.f.' r 7 s w w w w w q w e s s l s q = - 8 8 ",
"V *.t.Y N S m M n n n t 3 5.s.c.n.M.c.M.m.j.M.Z.M.J.a.~ j _ _ s.d.2.>.2.2.s.,.,.d.d.d.d.d.c.P.Y.K.Q.d.m.m.d.j.K.n.j.n.m.C.M.s.4.4.d.N.5.8.| z h H ~ ~ ~ F h b A J ' J J { ) >.,.a.4.s.<.~ r 7 r q q w w r s e q s s s s w & # # & ",
"V Y ;.T K S S M S n f y j s.q.d.M.j.B.m.c.d.n.c.m.j.| z t 2.0.d.0.j.m.c.8.N.d.>.8.l.m.d.d.d.c.R.K.d.2.8.0.{ >.Q.M.m.j.c.m.d.0.4.1.s.a.$.| z h H H ) J A x A ~ _ | :.) J $.4.8.,.$.| :._ H d - r w q q w r r r w q s s s s - - - - ",
"U @.;.@.P G S S N m g j j d.c.j.m.M.C.M.c.m.m.m.N.2.| ) >.s.j.m.M.C.C.N.s.N.J.2.>.d.l.d.j.d.0.5.$.] $.2.0.2.0.K.d.s.d.B.K.d.d.8.%.a.4.| ' ~ v v v b _ | ~ F J >.,.2._ J >.l.2.` J J | a...z q w q q q w w w q q p s s s s - 7 7 7 ",
"U R 6.T K S S S m n A j 9 8.j.c.n.d.n.d.q.j.s.2.,.,.d.8.j.l.d.n.Y.B.M.M.B.B.N.s.2.2.2.n.d.j.d.5.$.,.2.s.2.8.d.d.l.d.d.M.B.l.s.2.$.g.l.| J ( ~ / b z ~ ' ) ~ ) | | ,.| >.<.8.s.0.| ,.l.K.k.~ r r q q q w w w q q s q s s s q w w w ",
"C #.w.I V N N m n M M j 3 | 2.>.| >.8.2.2.8.s.d.j.m.N.d.c.m.l.0.K.Z.j.n.N.J.l.d.N.j.2.8.N.K.d.j.d.d.8.0.d.q.d.c.j.j.n.C.C.m.j.8.] 4.4.| | X.( H x b ^ ( J L _ | _ ,.8.s.0.8.s.d.8.a.a.m._.>.u q q q q w q q q e e q s s s q w w w ",
"6 [ +.K B N n f n M g t 3 j F J J $.,.$.2.s.d.j.c.d.n.M.c.j.d.8.M.Z.d.d.l.K.N.n.B.K.l.8.2.s.d.m.l.m.d.8.,.$.| $.8.f.d.l.J.J.d.u._ 2.' ' <._ J ~ H H ~ ~ F L ,.>.2.d.d.d.l.l.d.j.l.N.m.n.Z.d.' - - - q q q w r s s q q s q q q q w ",
", 5 K S n G m y n n y t t z _ $.%.,.8.C.m.n.d.q.q.Z.P.E.Y.Z.d.2.d.Q.m.j.j.m.N.m.n.J.N.8.2.>.| J x j 9 $ @ X X X @ > 3 i D ' } } H _ A A _ x F H ~ ~ ~ ) | ,.2.8.j.s.N.m.N.n.4.8.N.d.g.s.Y.T...- - 8 w w w r s s s s q q q w w w w ",
"o : m M g g 9 3 3 5 y y 0 j | ,.j.d.d.m.d.d.s.d.M.R.R.E.E.P.B.0.m.K.j.j.q.d.c.c.c.d.2.| J 3 $ $ # O O # # # O O X O X + # # 2 0 z x j A A j F ) J ) ~ A _ 8.2.0.d.s.l.K.f.d.<.d.J.H.f.d.Q.K.) w w 8 w w r s s w 8 - = = - w w w w ",
"X X % > @ @ @ + @ @ < < % ) | <.8.0.d.8.s.m.C.J.Z.P.C.M.Y.K.P.n.Y.P.d.9.5.d.c.d.d.,.] u % @ @ $ * $ = = = = = = * % @ % # X X $ 3 _ | ( L S ' | ] _ L ] <.4.8.d.d.s.4.8.2.8.d.j.s.l.l.2.l.2.A s q 8 q w w q 8 = = * # # & 8 w w w ",
"X + + @ $ < 8 8 < > # $ 8 l ! } 2.s.d.l.l.l.N.J.l.H.H.J.K.K.M.d.Z.d.{ { %.d.l.:._ F < # # * * < 7 < 8 8 9 0 0 0 t t t 9 9 3 > O X i | l.j.>.:.8.8.1.,.a.d.a.d.T.l.s.8.| 4.N.l.d.1.<.1.<.0.2._ d w w w 8 7 - * * # # # # # - w w q ",
"X X @ @ < w t r r w 8 w w r l D ~ $.u.f.a...' ' | 2.f.J.K.K.Y.N.N.m.2.d.0.2.>.^ 2 * $ = 7 - < 8 0 j D D A J J F S F J J H A z t < @ X < _ | a.l.g.l.f.f.d.s.0.!.l.l.d.2.4.l.f.0.1.2.a.s.m.J.f.( w 7 - = = - * # O O # # # - q q s ",
"X X X % 9 8 w 8 8 w w r s d c b b Q / ( / ! Q ! Q ! ..l.J.K.K.B.J.N.l.m.8._ b w * = 7 8 8 < 0 F ) ] :._ J | ` ` $.&.0.m.>._ S S G A t >   9 2.d.s.l.a.2.2.d.d.Q.C.g.d.s.s.d.a.4.2.s.d.d.n.T.f.>.8 - * * * * # # O # $ $ * - q s s ",
"X X % 9 8 < 8 q w w w r l l v b b W b W v W Q W c b ^ 4.l.n.n.H.J.N.s.4.3.z = = - 8 8 < w F | 4.>.$.1.| j | | :.2.q.Y.Q.M.s.>._ L L P J t @ 3 ] <.4.4.s.8.s.s.T.J.8.s.d.d.d.s.4.s.s.l.n.N.Q.J.2.0 - = * $ # O O # # $ $ * 8 r s s ",
"@ < 8 8 8 9 w w r s s s s l c b b W W b c W W W c b ! >.d.l.j.d.m.J.8.| D = = - 7 7 0 J <.8.2.2.,.2.4.u.z z _ >.&.5.~.K.K.Y.B.l.8.| L P _ j : @ J >.a.d.8.2.1.j.d.2.d.N.d.d.d.2.d.s.8.1.2.s.N.s.l = * # # # # # * $ $ $ * 8 s s s ",
"% 3 w 9 D J l l v v c c c c b b c c W b b b W W c b ! ..g.B.K.l.N.l.} i * * = - = 0 _ 0.s.8.s.0.,.8.8.4.' h J | #.5.~.Z.R.Q.C.B.m.0.>.] _ _ J > % ) 4.2.a.4.8.0.s.4.s.a.a.s.n.2.1.,.2.8.8.0.N.l.b * # # # # # * = * $ $ & q s s s ",
"9 t i L Q.Q._ J D b b b W W b b b W W W W W W W W W W } l.K.B.K.g._ j < * = = < u _ 2.s.j.M.K.B.l.c.q.8.<.j F J { K R.K.C.m.m.C.K.N.m.8.] L _ J 3 9 ) ,.s.d.$.| 2.2.,.>.f.d.8.2.a.d.n.K.N.l.N.C.~ = = * * $ * = = * $ * * q w w p ",
"3 t G 5.{.oXM.2...( ! b W W W W W W W W W W W W / W b ' l.Y.n.2.:.' D = = = = t :.5.>.0.P.C.K.H.d.M.s.l.f.i u A $.S Z.m.Z.B.N.m.c.B.K.m.2.` L _ | 3 j ] 2.8.| 2.l.8.8.2.N.s.8.d.g.d.d.J.l.d.N.K...= - = * * = = * $ $ * = 8 w w q ",
"3 J &.6.{.oX[.R.z.x.<.' ! ! b W W W W W W W W W W W b ' f.K.l.2.<.' r = > < t | K.q.q.d.P.T.J.K.d.d.B.J.z.z 8 u ,.] M.M.K.J.N.n.N.B.Z.d.d.>.L P | J 3 A ] :.] ,.2.2.a.1.a.s.0.0.l.N.l.l.l.l.N.m.<.7 - = = = = = # # * * * 8 w w q ",
"1 +.5.q.~.XX~.Z.K.B.d.4...' b b b c c c c b b b W W W ( f.K.K.H.a.H < = - 9 ) d.C.8.l.c.~.'.c.V.M.c.B.J.N.H < 8 %.+.M.K.J.J.N.c.C.m.j.j.d.a.:.] | 2.A 0 ~ ) G %.f.a.2.2.d.d.2.s.J.J.g.s.g.N.N.n.X.w 8 - = = = = # # $ * * 8 s s s ",
"N 6.-.5.7.R.b.q.8.,.2.d.8...~ b c c c c c W c b W W W ~ i.H.l.f.4.u > = 8 z ,.m.j.2.2.0.d.[.Y.d.M.N.C.M.N._ = < { +.q.Z.C.N.j.j.Z.K.m.m.c.d.8.] | | _ > t ] <.j.C.a.1.s.T.d.| | >.8.4.2.a.d.l.l. .s 8 - = = = = * # $ * = 7 p w q ",
"+.-.#.#.&.q.5.5.,.>.2.8.$.) J J ! z d s c c c W W W W ~ u.J.d.2.<.J 9 < 0 _ s.c.d.8.d.d.q.P.Z.d.Z.J.B.c.l._ * 7 ` %.d.K.B.c.j.n.M.C.m.C.c.d.d.8.J L G 4 t _ :.4.s.$.8.s.N.l.%.$.| ,.| | ,.4.<.>.~ q 7 - = = = - * # # * = = - - - ",
"-.-.;.t.D.~.b.Z.Z.Z.P.M.j.s.<.4.2.~ b l d l l c E W W ! <.a.>.0.d.l.d.| ) ,.Z.c.d.d.B.Z.c.C.Z.Z.Z.Y.m.M.l._ * 8 J >.q.Z.K.m.M.K.B.m.B.B.c.d.d.J.,._ >.%.>.:.| | 2.0.d.2.8.8.8.,.2.8.0.2.8.8.:.$.D w 7 - = - = - * # # * * = 8 r w ",
"-.w.t.t.b.b.~.P.V.P.Y.R.Q.K.J.N.H.a.} ! v b c c E W b D >.l.d.n.n.J.C.m.l.2.d.,.8.0.j.d.Z.K.M.M.c.m.N.C.d._ = 8 A ,.2.B.Z.v.M.K.C.N.C.n.j.n.B.J.J.m.l.d.s.s.2.) F ,.s.8.s.N.!.N.N.J.n.l.f.l.a.>.v w 8 - = = - - * # & * # # * 7 = ",
";.w.;.t.F.F./.P.Z.P.K.Z.Z.Z.Z.J.N.g.<./ b Q W W W W Q ~ 3.J.j.d.C.B.n.0.m.s.{ _ 4.>.>.8.n.M.M.M.Z.K.B.Z.d...= = i >.| C.M.M.c.M.B.m.m.c.N.m.l.J.J.N.C.N.C.s.1...F $.d.s.s.~.K.K.N.J.m.l.d.N.k...v r q - = = - = # # & = = * = * # ",
"7.w.w.t.E.~.(.R.Z.E.~.P.Z.P.P.Z.d.l.,.! b W E E W E b ! O.T.M.j.Z.B.B.M.n.s._ >.d.2.0.P.c.d.d.d.H.K.c.m.n.4.= = 0 $.I m.d.Z.c.M.m.c.m.B.m.n.J.K.M.j.N.j.d.8.>.:.^ 4.a.>.5.N.[.Y.M.M.K.Z.B.N.x.} b s q q = - - - = # & - - * * # * ",
"t.r.7.7.R.E.|.~.R.E.~.Z.M.m.Z.B.d.m.a.( W W E W W W W ! ( K.C.Z.K.C.K.R.J.d.] 2.n.s.m.M.d.n.l.l.N.C.M.M.m.a.= = 0 $.{ d.l.J.m.C.N.B.M.N.d.c.C.C.M.m.m.n.d.8.8.} z 1.d.:.2.s.d.P.n.d.Z.c.M.C.g.' W s q q - - - - - = * - = & # * - ",
"v.r.7.6.D.E.|.~.^.~.R.C.R.P.P.R.Z.N.8._ Q W W Q b b b D ' K.Y.P.Z.K.K.T.J.d.J 8.s.8.0.q.d.M.d.N.N.n.c.c.m.s.9 > 9 $.@.q.f.J.P.m.m.N.n.d.s.l.d.d.d.d.J.J.j.8.] F F ) a.8.l.l.0.s.j.m.m.m.j.N.a.' b s 7 q 8 - - - - = = - - 7 8 - - ",
"r.G.w.=.V.R.~.~.^.W.Z.P.E.R.P.M.d.s.a.<.' ! ! D ~ ' ..>.f.C.K.P.K.K.K.K.J.l.J 4.s.8.K.M.5.j.j.B.B.d.d.j.j.a.i > 0 +.+.q.a.N.m.2.j.N.N.d.s.s.l.j.N.l.N.N.l.d.| ~ ~ J >.a.g.T.K.l.d.j.N.l.j.N.g.<.D l q q - - - - = * - - 8 8 q w 8 ",
"y.F.c.5.e.W.~.E.~.~.E.E.R.R.P.c.d.l.l.l.l.2.<.$.:.a.J.J.T.Y.R.K.K.K.K.B.s.,.:.| 2.0.C.Y.j.N.d.N.m.d.f.s.g.a.h = < %.{ a.4.2.8.a.C.8.,.,.d.m.N.l.l.n.n.d.d.n.f.:.} ] 4.a.<.l.K.l.d.0.K.N.j.C.N.f.~ l w q - = - - = * = - 8 w w w w ",
"G.(.~.F.b.[.[.~.[.!.Q.R.R.P.R.R.N.d.l.m.K.d.J.J.N.K.Q.R.Y.P.Q.K.J.K.K.J.N.2.>.| 8.2.2.J.l.C.s.:.:.( b A z h = = 8 _ ] t < < 5 A M :.s.d.d.N.l.l.d.l.d.8.l.d.d.i.' ~ f.2.:.:.N.d.l.g.s.N.K.K.N.s. .c w w - - = - = * = - 8 8 w w q ",
"R.^.~.E.b.~.[.W.^.R.P.R.R.R.P.K.B.d.l.0.K.j.J.J.B.C.R.R.R.R.Q.K.K.J.Z.J.T.N.0.8.l.s.2.s.a.N...% $ # # O O O * - 8 J m . . # + X > 2.l.g.d.J.g.d.N.l.d.s.J.d.a.f.' J 4.>.] | g.2.s.d.2.C.Y.K.C.j.o.W r w 8 - = = = * - - 8 8 w w q ",
"W.~.{.~.R.(.~.~.~.!.K.R.R.Z.Z.Z.j.l.B.j.K.n.Z.m.C.~.Q.K.C.C.R.K.B.m.M.N.n.l.4.f.d.l.,.,.a.s.' = # X & & # # 7 8 w z J j 3 = $ > j ,.j.n.B.N.d.s.N.l.l.d.n.Q.l.4.} H <.f.8.d.8.>.s.8.s.K.m.n.N.l.o.l q 8 8 = = = $ * = q 7 q w w w ",
").}..X(.Z.[.{.~.E.R.K.Z.Z.M.C.m.d.Z.P.K.P.m.B.C.!.Q.R.m.J.K.Z.K.P.B.C.l.n.d.8.2.n.l.s.d.>.} ..8 * # * * * 8 r r 0 x _ ) J A j F _ 8.B.J.J.J.m.l.H.N.g.d.K.`.s.>._ J i.f.l.l.s.| :.4.,.a.8.8.N.f. .l s - - - = * # * * - - - 8 q w ",
"}..X.X~.P.E. X[.E.Y.P.M.M.K.C.j.m.C.K.K.T.m.K.B.J.R.K.K.Q.P.B.K.R.Z.l.s.B.B.d.4.K.K.n.s.,...| ] X.>.| | } ..' ~ J J $.{ d.4.2.d.d.s.J.J.n.l.l.J.n.f.l.g.Y.m.8.2.<.~ } ,.s.0.s.s.| | a.d.,.2.<.J v k c 7 q - - = # * = * $ * - - - ",
"(.|. X(.F.~.XX[.~.Q.E.Z.Z.K.C.m.C.P.K.K.K.Z.J.M.n.C.K.K.Q.R.B.K.Q.J.C.n.N.K.N.N.l.H.N.l.2.| ] 2.f.<.>.s.s.s.| | $._ 1.` c.d.j.M.J.M.B.m.n.K.N.N.n.f.d.s.N.d.j.d.l.,.] ] 8.d.H.N.4.| ..l.J.K.s.] Q l c w q - - - * # * $ $ * * & * ",
";.E.[.~.M.Z.[.~.~.R.R.E.R.C.Y.K.R.R.C.K.K.M.d.n.K.B.K.Y.Q.P.m.R.R.P.P.M.N.J.N.N.d.n.g.a.:.<.,.| m.s.8.s.s.d.,.F J F >.$.M.j.M.Z.R.Y.B.m.c.K.K.B.B.d.l.N.0.N.l.J.J.l.8.| ,.l.H.K.s.| J d.K.n.l.g.u...D d w q - - * # # $ $ # # # # ",
"*.c.E.(.c.Z.~.Q.~.Q.C.Y.Q.Z.R.K.C.C.C.R.K.m.m.m.K.C.K.Q.R.C.B.P.R.K.B.c.N.H.l.l.l.n.N.:.4.2.a.) ,.B.n.l.l.g.f.z 0 t | $.j.n.K.Z.V.M.B.M.M.m.K.J.N.d.N.K.d.J.K.B.C.N.s.<.1.s.g.N.<.F | f.j.l.d.H.l.4.>.' l 8 = = * * * = * # # # # ",
"#.q.c.b.q.Z.~.R.E.Q.Y.K.R.P.R.K.M.j.B.K.Z.N.N.B.K.M.j.K.K.N.J.Q.Y.B.m.j.l.l.d.l.l.s.8.<.f.| <.F L g.N.l.s.f.l.z w w | :.,.8.f.d.5.8.l.B.C.N.K.J.J.J.J.s.0.J.J.m.C.M.0.8.l.s.:.4.>.J 2.g.s.n.N.N.N.j.8.4.<.z = = * = - - = * # # # ",
"R e.Z.6.#.e.~.R.~.~.~.R.R.Y.Q.K.B.M.n.N.C.K.m.m.M.m.N.C.K.K.I.Q.K.n.C.N.d.B.C.J.N.f.2.u.<.~ _ ~ ~ D H D b z j w w r | _ > 9 < < < 9 2.s.m.C.N.K.l.K.H.2.8.N.l.d.l.8.2.s.J.K._ <.4.| d.m.l.N.J.N.B.N.l.l.s.' q = # # = - - * # # * ",
"e.b.R.~.c.c.Z.Z.E.Q.Q.Q.Q.Y.~.K.J.K.C.J.C.C.B.c.c.m.N.J.Y.Q.Q.I.J.n.B.l.l.J.N.l.l.2.a.a.4...>.z # # O O # # # = w u _ j @ @ $ # $ < 8.d.j.m.B.Q.m.s.d.2.,.s.K.l.0.d.N.K.J.T.f.$.<.0.j.j.j.l.g.s.d.N.g.l.d...d & * # = - - * # # * ",
"y.b.c.R.M.Z.R.R.R.Y.P.R.E.Z.P.C.B.N.B.K.K.M.m.M.B.n.M.K.K.I.I.J.J.d.l.J.C.l.n.4.$.<.l.s.s.>.i.! $ = $ $ $ * = w u A ) A S h 9 2 > z <.s.d.j.a.K.N.2.j.K.N.T.Q.l.0.K.K.l.j.C.l.:._ d.B.n.d.l.T.d.8.d.d.s.8.X.c 7 = = - - - = # & - ",
"F.E.M.c.q.b.E.~.Q.R.P.R.~.P.Z.P.Z.m.m.K.P.C.Z.V.Z.m.C.K.Y.J.Y.I.J.0.l.T.K.K.J.4.,.l.n.d.d.>.f.' $ = > < 0 9 0 h H ' ] G ] ) _ J J $.d.d.d.,.,.l.N.d.d.j.8.s.N.N.l.N.d.0.2.8.d.f.>.2.J.l.N.N.K.j.d.s.f.d.d.f.Q 7 = = - - 7 8 = = 7 ",
"v.E.Z.q.&.e.~.~.~.R.R.C.R.Q.P.R.K.M.M.K.R.Z.C.B.B.n.M.P.I.K.T.K.J.0.| B.Y.J.J.4.,.B.J.C.8.,.4.f.] ] | ..<.>.>.' >.<.8.8.,.d.d.l.8.2.d.l.N.N.d.s.n.d.s.s.s.8.s.N.J.N.d.d.j.a.K.N.4.>.4.N.B.B.m.m.n.l.l.f.s.i.W w - - - - - 7 - - - ",
"b.F.e.c.+.7.^.E.~.R.Q.C.P.R.P.P.C.B.C.K.R.C.J.J.B.B.P.M.K.K.K.B.N.s._ d.Y.K.N.s.| l.J.l.1.>.2.s.d.N.m.l.d.B.N.>.) ,.>.c.2.K.K.K.j.2.d.N.K.].d.1.d.s.l.N.d.s.5.s.l.J.J.l.d.<.H.l.a.8._ f.K.n.d.M.m.j.d.s.0.<.c w - - - - 8 - q w w ",
"v.Z.M.0.&.q.R.F.[.R.Z.Z.K.Z.K.K.K.B.c.m.M.Z.C.l.j.C.P.B.J.K.K.J.N.l.8.l.C.N.l.4.J 2.2.2.l.d.8.| >.m.B.K.J.J.J.s.u J %.c.2.R.Z.C.j.s.s._.R.K.B.d.j.l.N.K.l.d.d.8.N.H.m.J.0.2.N.s.f.,._ ,.l.B.c.B.s.,.<.<.| / l r - - - 7 8 - - 8 q ",
"b.7.#.5.M.d.c.D.[.R.M.n.Z.R.M.d.M.K.J.C.K.Z.m.m.M.C.m.m.m.K.J.N.N.l.m.N.l.f.>.F J ..4.m.B.l.f.| >.d.B.K.Q.K.J.d.r u _ 2.2.M.M.C.l.m.d.!.Q.K.K.B.J.H.N.K.l.d.s.2.l.J.N.l.d.2.2.<.>.2.:.a.1.N.N.K.d.2.2.0.4.Q s s q 8 - - - - - - - ",
"&.w.R.Z.j.q.Z.~.{.R.M.n.M.P.Z.m.P.Q.Z.K.R.P.C.m.B.B.m.C.K.K.K.K.K.H.J.N.N.2.A A 2.l.m.K.T.N.8.L 2.8.l.N.I.K.N.d.r r F 2.2.q.n.s.f.f.f.T.!.J.B.N.J.J.K.K.d.d.s.$.2.d.N.d.j.m.2.s.s.<.} g.,.8.l.n.d.2.2.n.g.b q q q w - - - - 8 8 8 ",
"S.E.Y.Z.5.q.R.~.~.P.M.K.P.R.Q.C.P.Z.m.K.R.K.d.d.M.n.m.Z.C.B.K.K.J.N.N.l.<.F L 2.m.m.j.d.J.d.| A } _ } <.>.<.1.>.w w F <.2.J A i j j Z J j m d.N.J.K.K.B.N.l.l.a.a.0.l.l.d.C.l.d.4.>.| H.,.s.N.j.j.s.d.j.4.c q w w w - - - - - 7 8 ",
"D.b.Q.c.%.q.M.E.~.P.Z.P.E.Z.K.K.C.V.M.M.B.B.d.B.J.C.Z.Z.K.J.J.N.J.l.s.a.2.] <.s.d.j.l.j.N.| < % = > * $ % % # $ = 8 z _ ) @ @ # # # # # # 3 a.s.g.l.J.N.N.J.J.a.s.N.T.Y.q.n.J.N.s.2.) f.a.d.T.l.N.m.l.j.a.b q q 8 q - - - - - - - ",
"E.b.R.j.&.5.b.W.[.R.Y.R.Q.P.U.R.K.C.Z.K.M.K.Z.J.C.C.Z.K.K.K.K.J.8.,.l.m.l.<.s.K.d.d.C.n.s.| % + O # $ * $ $ = $ - w j ) 1.A u = > = = = < A 8.1.8.2.0.l.l.N.l.d.8.J.K.K.n.K.J.J.s.a.4.1.2.2.n.8.d.N.B.m.a.b a q q - - - - - - - - ",
"E.D.R.V.2.q.E.E.R.P.K.K.P.R.R.R.K.P.K.R.K.R.K.B.B.M.B.K.N.N.l.d.s.N.N.l.j.0.C.Q.J.N.B.q.l.2.i * = 8 = 7 8 r r r s r z _ 2._ ( F D x F D ~ :.8.:...>.2.J.K.Q.J.l.d.N.N.n.C.K.N.d.4.a.g.2.| 2.d.N.8.8.n.m.a.W s w q - - - - - - 7 8 ",
"D.b.R.j.2.q.P.E.M.Q.U.C.R.Q.R.R.K.C.K.K.K.Z.C.N.J.N.d.l.d.j.K.s.C.T.C.N.K.K.Q.T.N.s.8.0.l.g.f.,.| _ } <.,.:.a.a._ H ( P 9.` $.$.4.s.8.a.4.,.2.d.l.j.N.K.B.l.d.N.l.C.K.d.d.d.s.a.2.a.f.a.:.:.s.s.8.2.a.4.4.! s q - 7 - - - - = - 8 ",
"F.v.b.5.5.q.K.R.E.Q.Z.m.Z.Y.T.J.K.N.V.K.C.m.n.l.d.a.s.d.l.K.N.N.K.K.B.J.T.Q.Y.K.8.<.s.N.N.d.l.N.N.,.4.l.n.q.d.c.2.J ' | 9.{ $.5.d.m.m.l.J.j.8.d.d.q.l.Y.l.l.N.d.N.N.J.d.s.,.:.2.>.| >.2.4.2.4.s.d.f.f.<.u.' s s - - q q 7 - = - = ",
"D.c.5.t.6.c.~.E.P.R.M.d.d.j.l.n.C.n.l.C.c.d.d.8.8.f.C.J.N.K.J.K.T.Q.I.J.K.K.Y.s.,.l.N.J.N.d.2.8.H.N.s.j.s.B.j.K.d.x D J q.$.0.C.B.j.N.J.J.N.m.s.2.a.l.J.s.j.N.l.N.m.s.,.<.%.<.| ~ ] >.>.1.g.s.f.d.N.l.d.H.<.l q - q q w q - - - - ",
"v.d.e.b.c.b.~.|.Z.Z.Z.m.M.c.m.B.c.d.m.K.N.C.J.B.d.f.l.N.B.K.T.T.K.B.H.n.l.l.J.l.N.J.N.N.s.>.] ,.d.j.m.5.s.n.d.K.H.v r h 5.+.>.M.Z.j.d.B.J.s.m.s.| 2.8.g.d.d.N.J.d.N.2.| :.>.>.8.8.a.8.2.4.a.f.d.d.n.N.C.H.f.b q q 7 - q q 8 - - - ",
"M.c.v.e.v.D.W.~.R.R.M.c.M.m.m.j.m.N.C.Z.N.J.K.K.H.N.J.K.H.l.N.J.H.d.l.n.d.j.g.B.2.,.>.<.2.2.8.8.8.d.j.j.C.M.C.K.K.v w i %.&.| c.M.B.K.J.s.:.| _ J a.,.<.s.N.J.l.d.K.a.| $.Y.J.s.s.d.l.l.d.s.8.l.m.d.N.K.K.z.b q w w q q ; - - - - ",
"9.q.8.+.5.=.c.M.R.P.M.Y.n.d.j.M.B.C.K.K.Z.C.T._._.Q.T.J.C.N.m.K.T.K.m.l.f.<.1.l.| ~ $.l.H.g.d.d.d.s.2.j.n.P.R.K.u.r q 0 +.2.{ ,.0.n.Y.s.>.2.4.>.2.d.f.s.l.d.n.d.8.I.8.| J K.Y.d.8.s.f.l.C.l.j.J.n.l.m.m.d.a.~ r r q q 8 w w q q q ",
"7.8.%.| K K J ` 9.c.c.M.M.j.d.j.m.B.m.K.Z.C.B.K.T.T.J.K.T.J.N.B.K.N.n.8.>.| _ s.d.| l.J.j.s.d.l.N.K.s.2.c.P.K.J.A w q 0 ` 0.{ $.8.s.C.2.8.J.l.4.g.d.l.J.d.8.l.s.0.K.,.:.| f.N.d.8.0.4.l.N.J.K.K.C.B.J.d.8.l. .r s q w w w w q s s ",
"&.s.d.>.J L ,.,.>.s.n.d.m.N.n.n.j.N.B.T.Y.K.K.P.J.K.C.P.Q.N.n.I.K.J.J.d.>.J 8.B.d.L 8.K.B.d.s.s.s.f.m.~.~.Z.K.} 7 8 w w x 1.I G 2.2.8.8.d.N.g.g.a.,.2.l.H.N.J.N.l.H.N.g.<.>.l.a.>.2.1.l.C.T.J.N.l.N.l.l.g.g.' r s q q q q s q w s ",
"=.d.0.2.2.>.s.M.P.P.M.d.d.m.m.m.n.B.C.Y.R.Q.R.B.n.T.T.K.Q.J.N.B.J.K.H.d.| ) l.J.N.| >.N.l.d.s.0.d.N.C.Q.|.Z.2.0 8 8 w 0 A $.,.G m { 8.d.l.a.4.a...' 1.g.N._.T.l.g.l.l.l.8.:.8.s.,.>.<.l.l.l.l.f.l.l.s.s.f.4.( q p q w q q s q w w ",
"6.j.8.d.s.,.9.Z.~.Q.K.Y.C.J.Z.N.m.B.B.K.R.!.Q.K.m.K.Q.K.R.K.J.N.J.N.N.0.2.| 0.s.T.>.:.n.s.s.f.s.m.C.P.~.[.l.z 8 < 8 u J | <.>.{ m g >.d.f.a.8.8.| | 1.1.g.].l.d.f.f.d.4.2.$.<.f.8.,.| 2.n.d.d.f.m.s.1.,.a.1.} s p q q w q q q q w ",
"q.M.d.B.0.2.6.Z.R.K.Z.P.K.K.C.C.C.K.C.K.T.Q.Q.K.K.K.Y.K.Y.B.N.C.K.l.N.d.N.{ 1.4.Q.8.>.2.N.C.N.d.B.K.P.P.K._ 8 8 8 0 H | | { ,.:.$.t i ,.4.1.s.g.,.4.f.4.l.l.B.s.a.>.s.4.2.,.8.d.8.8.4.d.J.,.:.>.s.d.$.| a.4.>.l p q w w q q q q w ",
"5.c.j.0.&.9.q.Z.Q.K.Y.V.C.B.K.K.C.K.K.Y.Q.Q.Q.C.R.K.C.Y.R.J.N.N.d.s.s.d.N.:.:.<.T.l.2.>.B.K.J.d.K.Q.Z.J.2.0 8 8 2 z >.8.s.| ] ,.%.P 3 j ) >.l.J.l.l.f.,.>.l.N.s.s.$.s.g.l.l.l.g.a.a.s.l.j.>.a.4.8.0.2.>.1.2...c s q q q - q q q q ",
"+.5.5.8.,.q.c.Z.E.K.Y.N.N.B.Q.Y.Z.K.Y.R.K.K.K.m.Y.K.Y.J.R.J.d.d.2.N.j.J.N.2.:...2.l.s.,.m.K.J.N.K.K.N.2.u < 8 8 u ) ,.j.0.2.,.$.$.{ _ t _ C.s.l.l.J.N.l.>.d.4.8.d.f.d.8.2.d.f.u.2.>.2.8.:.8.l.| >.8.8.0.2.4.' c s q w 7 - q q q q ",
"2.c.d.d.8.d.M.Z.Z.C.R.C.C.B.K.Y.C.B.J.m.m.Z.Z.C.n.s.C.j.M.d.M.m.s.s.T.l.l.1.>.| $.0.8.5.2.l.l.N.N.l.d.z < 8 8 w J $.0.j.s.2.s.,.{ >.| J t J 8.N.C.B.J.l.a.l.d.l.8.s.l.g.8.8.a.,.| _ >.| $.s.1.:.| 2.2.4.>.X.D s s 8 q 7 - 8 w w q ",
"0.c.s.d.0.s.B.Z.Z.d.K.B.K.N.m.K.B.B.M.j.n.C.B.m.0.8.B.s.d.Z.R.M.B.d.K.J.d.s.| :.2.2.8.a.<.:.x.T.J.H._ < 8 8 0 J ,.8.J.J.J.s.8.l.>.>.2.,.M 3 A 2.N.N.l.s.f.l.s.l.2.4.N.s.f.s.a.<.| 2.c.2.>.'.[.<.3.>.) | ..<.! k q - 8 - - w w w q ",
"-.d.d.d.d.0.B.Z.R.8.M.K.Y.Q.N.B.Z.K.M.m.V.Z.Z.N.j.m.J.l.K.R.U.P.T.l.B.N.l.f.$.:.f.g.l.8.a.| 4.T.B.:.9 < < w A $.8.d.J.T.N.N.g.d.C.$.>.:.| i < J a.d.d.l.d.d.d.N.f.g.l.a.a.l.4..._ s.l.<.2.Y.V.}  .<.<.<.:.p./ l q - - - = 8 w w w ",
"%.4.j.a.d.j.Z.Z.R.C.Y.K.K.T.J.K.K.K.K.Z.Y.Q.C.m.N.m.K.T.Y.Z.Z.R.T.I.J.l.l.l.g.>.4.N.J.f.l.a.2.N.2.9 7 8 9 A %.2.d.s.l.m.N.K.J.d.N.s.| _ :.| t 3 J 2.l.K.J.l.H.g.f.8.>.>.<.g.d.| >.d.d.<.a.j.2.} ' 1.| _ ..X.! s w 8 = = * - ; q e ",
">.8.d.a.8.j.M.Z.E.K.K.Z.P.Y.Z.C.m.Z.P.Y.R.Y.m.K.m.R.R.K.Z.Z.Z.R.K.K.K.N.l.N.J.4.d.l.l.J.J.l.g.:.u = 8 < t _ 1.q.l.8.s.N.l.l.J.n.N.d.8.) J 2._ t 3 J :.l.K.l.N.l.f.a.>.,.,.g.l.<.f.8.d.4.4.d.d.4...4.:.>.<.<.Q s q q - = & = - q w ",
">.>.a.8.0.d.M.b.E.J.Z.K.Y.C.l.B.B.n.M.B.Z.K.m.m.m.P.Q.K.B.Z.Q.R.C.B.B.l.K.J.g.>.8.4.s.s.2.:.4.u = = 8 0 J >.0.N.J.d.8.C.d.s.n.N.N.d.f.8.] >.$._ t i | 4.J.J.H.N.d.d.8.8.f.g.N.g.f.2.,. ...d.d.f.<.>...<.4.1.b s - - - = & = q q w ",
"$.,.8.8.l.c.c.c.Q.K.B.K.Y.P.R.C.N.c.N.C.Z.C.c.Z.Z.n.Q.n.n.Y.!.R.B.B.N.8.d.K.d.| >.s.2.| | ' z * = 7 w H >.0.l.C.T.N.s.d.d.s.d.N.N.N.d.8.| _ _ :.J t A 8.s.l.J.J.l.s.1.<.g.N.N.d.<.:.) J <.8.s.u.X.| | | <.X.W s - - - = * - q w w ",
"| <.>.8.C.5.q.M.E.M.C.K.Z.K.Y.N.n.c.K.K.Z.K.P.Z.C.C.P.m.m.Z.~.Q.P.C.N.s.8.Q.J.:._ 8.{ ) 1.' 8 = 8 8 j | 8.m.K.N.J.d.8.s.d.l.N.l.l.N.s.| >.4._ } ) J 2 9 _ f.J.K.l.a.4.8.1.4.z.f.X.~ A } f.4.2.} ....] | $.4.' u 8 - 7 = & - - q r ",
"| _ ,.d.d.q.7.t.E.V.K.Z.K.P.Y.P.Z.Z.R.K.B.R.K.n.M.Z.K.l.n.N.`.K.C.N.d.s.s.j.s.:.A | $.,...8 8 w 9 z _ s.n.Z.Z.K.f.| 8.N.H.N.N.d.j.l.1.:.' u.f.J J ~ b @ 9 $.f.f.s.f.a.4.:.:.1.' j t J 4.<.<.X._ _ | _ :.] ] ' ~ D l 8 = & = - q w ",
"| ) ) 0.8.8.q.c.E.R.C.P.Y.Q.K.K.B.l.Z.P.m.B.K.C.m.K.K.M.n.M.K.C.B.Z.Z.K.P.Y.K.l.j } a.:.l - q r x _ >.s.Z.P.Z.B.g.g.d.d.l.N.l.d.d.d.8.,.| f.H.>.J F ~ 3 > F | ' _ <.:.) ~ J z h t A _ <.f.u.f.4.:.' | ,.>.| <.<.' ( b = * = - q q ",
"} x F s.,.,.9.d.~.Y.m.K.J.Y.R.R.Z.n.C.B.m.m.K.K.K.H.K.R.K.K.Y.Q.~.!.Q.K.C.P.C.m.x _ :.l 7 w r b _ >.2.s.d.C.T.J.C.K.N.N.s.g.d.0.d.j.d.a.f.N.J.d.%.A F m > # t H ' ..~ H ~ J ) :.8.8.,.<.2.4.8.s.,.2.4.2.1.2.s.f.~ ( b - & = 7 7 - ",
"H w S | >.,.0.n.~.Q.C.K.Q.Q.Q.Q.!.K.Z.m.d.n.B.C.P.B.P.m.N.c.K.Q.Z.K.C.M.V.C.B.l.^ J x 7 8 u x | 2.0.0.%._ ` j.n.H.K.J.H.2.s.d.l.l.d.4.<.1.H.N.d.$.) D A ~ 8 > h z h z ~ } 4.s.l.K.s.4.4.8.s.d.a.2.4.a.f.u.d.l.g. .v l 8 = = - = = ",
"u w J 2.s.2.0.c.R.!.K.Z.Y.Y._.Q.K.C.Z.m.m.J.K.K.R.C.K.n.m.c.Z.K.C.K.J.K.C.Z.K.z.( t 2 8 l F ..2.d.~.~.2._ | 8.j.d.J.g.2.4.l.H.f.,.4.} ) J _ ) _ j u t ^ ..J 9 < 3 z ~ 2.m.m.d.j.8.4.2.8.s.s.g.J.N.J.f.<.<.8.d.,.<.l s 8 = = = = = ",
"u r J 4.s.8.8.q.Z.Y.K.B.K.Q.T.C.C.K.K.j.d.M.Y.Y.K.C.j.N.K.Y.K.K.K.K.B.C.C.B.d.2.9 < w v ( >.4.d.P.~.~.5.,.a.0.d.0.d.4.2.2.<.>._ ) ( H x u u j u h h F ~ _ | | _ 8.N.8.c.C.n.Y.N.,.<.4.s.8.2.s.N.K.N.<.~ ' l.d.:...! r 8 = = * $ * ",
"b w ) 2.0.d.2.q.Z.K.K.Z.P.Z.M.K.T.C.n.0.d.N.K.K.B.C.s.N.J.K.K.K.Z.P.J.Z.K.N.3.h < 7 l ' 8.0.9.Z.~.`.d.d.d.l.l.l.2.>..._ J J F F F A x D H ) { | >.>.| _ S >.8.<.| d.J.s.s.d.N.d.d.s.4.d.g.d.d.B.T.s.>.:.,.8.g.4.f.>.z 8 = = = * = ",
"D w | >.s.d.2.d.Z.B.K.R.Y.K.K.Q.T.N.d.s.d.J.m.N.N.N.s.d.l.T.Q.K.K.K.Z.J.K.l.x > 7 r ~ 4.m.8.j.M.P.l.d.d.d.d.N.N.>.Z z _ ( | | D F ~ ~ _ <.,.d.s.d.l.f.s.2.| ,.2.<.F ' ,.4.f.n.d.H.d.f.f.s.a.d.l.J.l.B.d.g.4.4.l.m.8.X.~ r 7 - = - ",
"l x 1.,.8.q.5.n.Z.C.K.I.P.C.J.J.K.N.s.d.m.K.J.m.N.B.s.s.n.C.K.R.R.R.P.J.K.s.< 8 r b | d.s.c.Z.m.l.H.H.s.2.s.d.0.2.| | _ ~ >.1.} _ 2.4.1.4.a.d.l.j.l.C.N.J.4.| >.] J t J ,.d.J.N.N.d.s.4.f.a.s.l.N.H.N.d.l.4.<.N.l.| ' X.( 8 - = - ",
"u ( f.0.j.m.d.n.M.M.K.K.Z.Z.K.K.P.N.d.d.Q.Q.K.K.B.l.d.l.l.m.J.K.Y.K.K.K.J.X.< r A _ 0.d.M.M.j.d.a.l.s.5.s.d.j.j.d.2.<.1.2.2.d.0.8.8.8.2.2.s.l.B.j.s.d.m.Y.K.f.| ,._ ) t J 4.d.N.B.g.s.8.s.g.d.l.J.J.J.l.s.,.>.8.>._ >.<. .h - - = ",
"9 ..f.l.C.m.c.c.8.0.d.Z.M.C.J.R.Q.Z.d.d.R.R.P.K.N.N.H.N.l.n.K.Q.R.K.B.J.k.u 8 h x _ 8.c.M.2.&.>.>.2.0.l.J.B.C.C.C.d.2.4.4.s.d.N.s.2.<.2.d.l.N.K.N.s.4.s.n.J.T.<.$.| 2.J j ) ,.m.K.N.s.s.f.l.d.B.K.K.N.H.g.2.<.2.4.u.u.3...H 7 = * ",
"r O.g.K.C.Z.c.j.&.2.n.C.Z.P.C.Q.~.R.M.c.Z.R.Q.Q.K.J.J.n.d.N.Y.Q.P.B.Z.d.b 8 r u F ,.8.>.8.c.Z.m.j.l.l.K.N.N.a.s.d.s.4.<.<.s.l.g.s.d.0.4.s.l.B.K.N.n.l.s.l.s.l.H.:._ %.$.S j J ,.d.B.d.N.d.l.K.H.H.N.d.l.l.s.4.f.2.a.>...' b e - * ",
"z } l.d.j.K.c.j.&.9.K.P.P.R.R.Q.R.K.M.M.Z.K.K.Z.J.C.K.n.N.K.T.P.M.N.s.A 8 w r t J ,.a.4.m.~.{.P.d.s.2.l.J.K.8.s.m.N.f.<.2.s.s.2.1.a.a.f.d.C.K.J.j.l.K.C.g.s.2.d.l._ >.>.| Z , M s.l.H.J.g.g.N.J.H.l.l.J.N.d.f.d.l.f.4.| D r q - - ",
"F :.a.s.H.N.4.q.6.b.E.~.R.Q._.Q.l.j.C.C.P.K.j.m.K.K.C.m.m.J.T.K.K.B.] 2 q w 0 A | | | d.J.(. XZ.K.1.| | K.T.s.4.J.Y.l.8.d.s.a.4.:.>.a.d.l.K.K.n.8.8.f.f.4.a.5.N.K.d.| } L | J 3 ) f.I.J.l.l.j.j.j.l.l.J.l.l.f.f.l.f.>...v r - - - ",
"_ <.2.s.d.l.2.q.q.b.E.R.P.Q.!.B.d.Y.Y.P.J.C.M.P.Y.K.Z.K.N.m.J.K.Y.d.t 8 r w A | 8.:.J 1.f.B.`.c.l.) J _ l.K.s.1.d.P.d.s.d.f.2.<.f.l.d.2.,.N.N.l.d.l.l.s.s.4.,.J.N.N.d.} J >.2.g < F a.f.N.J.B.n.C.K.K.K.k.k.f.f.2.8.>.( v p - - - ",
"| <.4.s.l.s.0.q.q.b.E.R.Z.R.T.N.K.T.K.C.d.m.K.R.Y.C.Z.P.B.Z.C.J.K.A = 8 8 z ] 2.l.8.| $.$.2.K.Y.| j J 1.N.8.,.1.d.Z.l.N.s.d.f.4.4.J.K.s.>.l.l.l.J.T.K.j.f.g.2.a.l.J.N.l.| ] | | j > F <.f.J.N.l.n.N.J.g.<.4.4.<...| ' ! s q - - - ",
"J | 4.s.d.8.0.c.v.Z.E.~.Z.Q.Z.J.~.Y.R.K.0.Z.K.K.K.K.Z.K.J.Z.m.l._ 7 8 w z _ 2.0.N.s.l.f.F _ l.K.2.>.N.K.f.<.2.J.B.Y.l.T.l.J.B.J.N.J.g.1.1.d.d.l.I.T.J.d.4.,.a.g.g.J.J.K.N.| _ ] 0.J 1 m | 2.d.2.2.4.<.| _ 2.4.f.l.f.f. .c q q - - ",
"J _ 4.4.a.8.0.b.b.Z.R.~.P.C.m.Q.Q.Y.P.B.d.R.R.T.T.J.C.K.Z.J.g.) 8 w r u ^ >.8.&.d.g.N.T._ ~ d.R.d.d.l.K.8.d.:.d.C.j.K.Q.B.K.H.K.T.N.f.>.u.g.d.4.f.g.2.$.| $.d.N.8.l.l.K.B.l.) ] 2.2.A j | 1.a.:.>...} | 1.g.l.l.d.d.f.} v q q q q ",
"_ _ 4.2.2.2.0.v.b.v.D.W.Z.s.l.J.K.K.m.Z.m.M.Z.P.K.J.j.n.K.K.| 2 8 0 l J <.8.2.,.,.j.C.`.4._ 8.~.J.a.d.n.C.N.,.:.0.d.l.K.H.J.K.Y.J.f.g.4.} 4.N.l.l.g.d.l.l.l.g.f.>.a.l.m.g.2.' _ | :.>.A t L _ ( _ _ | f.N.n.N.l.s.d.l.a.' W s q q ",
"| _ <.,.,.2.2.c.b.v.v.Z.M.d.K.K.N.d.n.Y.C.8.d.Z.B.d.d.l.d.} w 8 8 u J >.8.8.>.4.8.j.B.~.l.:.l.|.P.l.K.K.J.J.l.1.s.J.Q.Q.H.d.l.B.N.l.H.H.<.| g.g.l.l.d.l.l.l.f.s.$.4.f.2.' A z A ) :.] ] t 3 i H _ :.1.l.m.s.j.l.d.j.l.8.>.O.v r q ",
" .) :.<.1.u.,.q.c.b.Z.R.P.m.J.K.l.C.K.J.T.l.q.M.8.>.| | h = 8 r r ~ %.8.l.d.>.2.l.N.n.d.K.s.d.C.l.C.T.K.K.C.l.l.,.2.J.J.l.N.N.B.N.N.N.g.1.| :.2.s.a.4.f.l.a.| ) F F i 0 l x ~ } ~ _ $.) J j | N.d.l.d.d.8.s.g.c.d.d.d.s.4.4...D w ",
"' A _ | ,.2.<.5.c.b.Z.E.Q.n.j.Z.M.R.R.B.K.K.Z.c.5.2.~ 0 = < w 0 z $.0.d.N.l.2.4.d.K.l.s.g.s.N.N.n.K.T.Q.J.J.d.m.8.] m.Y.N.l.N.N.N.J.J.d.2.2.| >.a.N.f.:._ ) J F A z u z D ~ | | _ F _ | | ] { 2.l.2.s.N.l.s.n.C.m.j.N.l.2.<.4.<.r ",
"_ F _ _ | :.>.&.5.M.Z.~.R.q.m.R.Z.P.Q.K.K.J.Z.d.s...w 8 - w u j ] 8.d.n.K.J.d.g.d.d.l.N.l.s.N.N.l.N.K.C.n.N.N.K.g._ J.`.K.s.n.N.N.m.d.4.f.g.>.| l.l.1.| _ ) _ 3.4.>.| ' } _ | >.<.4.J ) | ] _ _ ] >.s.J.T.H.N.N.B.B.j.l.g.a.f.k.b ",
"~ F ] | | ) { 5.5.c.F.~.(.P.Z.K.P.R.I.T.J.l.s.s.,.j 2 8 r h F $.0.B.Z.B._.Q.N.n.l.J.T.K.N.l.l.N.d.J.K.B.C.K.K.I.N.J.K.C.s.s.l.j.d.l.N.N.N.l.a.<.,.g.f.d.l.f.4.s.f.f.:._ } >.4.a.8.l.4.J | ,.,.` j ) >.N.Q.J.J.d.J.K.d.d.N.N.a.f.Q ",
"~ D | :._ j 2.Z.c.b.F.{.{.Z.Y.K.K.T.Q.J.d._ J ~ x 2 8 r v ~ 2.8.c.P.Y.J.T.K.d.J.N.J.K.J.N.d.5.l.l.K.J.J.J.T.Q.Q.N.K.B.m.d.d.N.N.K.K.B.H.J.J.g.s.:.4.a.s.N.g.f.g.l.8.8.<.| s.l.s.s.0.f.2.J 2.d.{ A > J a.N.B.J.n.J.K.C.J.l.d.s.f.~ ",
"D H F x A 4.N.c.c.D.F.~.!.C.Y.K.J.N.2.:.J h r 8 < < 0 z ) 8.s.9.Z.Z.P.Q.J.K.T.I.J.N.K.J.g.4.>.l.J.n.n.N.J.T.T.T.d.l.J.N.J.l.K.K.Y.T.K.K.J.N.l.f.} :.4.d.s.a.s.K.C.8.K.H.l.d.d.d.d.l.l.k.8.) j.0.:.F 9 _ 2.d.n.J.J.d.K.C.N.d.s.<.H ",
"z h z >.d.l.8.q.c.b.Z.Q.C.j.C.l.l.| ) _ D D z u < 2 t F 1.d.s.d.m.M.Q.I.C.K.Z.J.K.N.J.l.8.2.2.l.T.l.l.K.K.K.J.B.B.l.N.l.J.N.H.J.J.K.J.l.N.l.N.l.<.%.l.l.s.m.N.T.K.d.K.J.K.N.0.N.N.B.J.N.N.4.:.2.2.>.F t | 4.s.N.N.l.N.N.d.l.2...b ",
"u l <.d.d.2.8.0.j.M.P.R.0.| $.| _ F F x z z j j 9 F _ $.f.m.j.K.B.Z.B.K.Q.Z.K.Y.K.N.B.d.s.4.a.K.!.J.K.T.K.J.B.J.T.K.B.H.H.J.J.H.H.B.n.d.d.f.d.l.:.,.J.l.a.d.m.N.j.s.N.N.J.J.8.N.J.J.N.N.l.N.s.| ,.:.) A t | 1.d.N.K.N.H.N.N.d.>.! ",
"j ! | 0.0.,.8.2.9.t.c.d.9.1.2.>._ J ~ F D A x 3 _ 8.2.0.d.m.P.K.P.Z.Z.Z.Y.Z.K.K.B.N.l.l.l.d.8.J.{.I.K.Y.T.K.J.Y.K.J.J.J.l.J.T.n.d.J.J.N.l.l.m.4.8.d.J.H.d.j.N.l.N.N.K.B.K.K.l.B.C.K.l.d.N.C.K.4.] ..>.| j j ,.d.l.J.C.H.K.K.K.<.~ ",
") H J 8.d.4.5.>.2.7.h.c.c.N.l.s._ H ^ ~ ' D j ) s.s.V.q.c.C.R.Q.Y.J.Y.K.R.Q.K.C.K.J.K.J.l.d.8.N._.K.N.K.J.J.J.K.K.B.K.T.K.l.K.K.8.s.N.K.n.N.N.f.J.g.g.H.d.m.J.J.J.J.K.J.K.K.l.f.d.J.N.d.l.N.N.l.,.>.,.:.| j ) s.d.N.l.K.K.K.N.u. .",
"J D ~ 8.d.2.2.1.j.M.v.R.P.K.s.4._ F J ..} l { 2.$.2.d.7.Z.R.R.R.K.I.J.K.~.!.P.B.T.K.T.T.J.N.d.d.K.J.H.N.l.N.N.H.K.K.T.K.J.d.d.8.8.s.d.J.H.d.l.l.a.4.2.d.d.T.K.J.J.J.J.H.J.K.l.d.8.l.J.N.N.l.N.B.K.u.| :.| ] z ) N.g.d.B.K.T.K.l.p.",
"] ~ _ 8.s.2.,.,.m.Z.Z.~.K.Q.J.l.>.) ) .._ D | %.| 2.9.d.j.K.K.Q.K.K.C.R.~.~.Y.K.K.N.K.K.Y.J.m.s.N.J.l.s.f.l.d.n.J.J.T.K.N.g.d.8.d.n.d.d.J.m.d.8.8.a.f.l.d.J.K.T.H.N.B.J.Y.I.m.l.d.d.j.d.N.J.B.K.K.J.4.>.} | | t %.m.d.s.Q.T.R.J.g.",
"| | :.>.2.,.,.9.Z.b.R.~.m.Y.K.N.8._ | } } ~ A | s.d.1.5.d.C.P.R.Q.Y.Q.R.E.R.E.K.N.N.B.J.T.J.T.n.N.J.0.J.B.J.J.j.B.J.I.K.J.N.N.l.0.n.J.l.j.a.d.d.g.N.g.N.l.d.m.K.n.m.n.J.Q.K.n.B.B.j.l.d.l.N.N.N.N.K.Q.2.:.:.:.| t | s.d.C.C.P.K.g.",
"| $.<.| ,.,.5.c.D.Z.Z.C.2.s.d.c.d.2.<.:.} J J <.0.8.$.%.0.M.j.P.E.Q.~.P.~.E.Z.Z.Z.j.C.m.Y.K.I.N.d.K.K.!.J.J.H.N.l.J.T.B.l.H.N.l.s.f.J.N.s.2.d.J.J.N.s.d.n.l.l.B.J.J.N.J.C.J.m.l.J.N.l.l.N.g.d.H.J.J.K.N.:.<.| 2.) j >.H.V.M.d.d.4.",
"| <.4.| >.0.c.M.Z.Z.Z.C.d.d.d.M.C.m.d.a.a.8.f.d.s.d.&.&.d.C.c.E.!.`.!.P.Q.Q.m.C.M.m.B.m.Z.K.J.N.s.C.C.Y.K.J.l.N.s.H.T.J.N.K.J.l.f.s.d.g.N.s.2.g.N.K.N.n.l.H.J.N.K.N.J.K.N.H.N.N.N.m.g.g.l.l.d.N.C.c.m.C.l.| | 2.2._ F 2.C.M.l.| D ",
"$.,.<.X.>.d.M.Z.Z.D.W.M.l.C.K.R.Y.Z.n.g.s.l.l.d.l.m.5.2.m.j.C.R.Z.~.R.Z.P.~.P.C.c.j.m.c.Z.Z.B.j.d.J.K.J.l.N.d.f.s.K.Y.N.K.J.N.l.s.f.d.f.l.a.>.>.l._.K.N.N.N.l.d.N.N.B.B.N.N.K.K.d.d.d.f.a.f.d.l.N.C.C.J.J.a._ 2.4.| J J s.2.2.F 0 ",
",.<.>.| | 9.c.Z.b.R.D.m.R.R.P.E.Q.Y.M.d.s.d.d.s.d.J.B.q.P.M.K.M.P.~.Z.c.c.Q.~.B.Z.K.V.c.M.C.B.d.d.C.K.N.s.l.a.d.8.d.Q.l.d.d.s.8.2.8.s.<.2.>.%.8.K.T.T.J.J.l.N.l.d.N.d.n.C.J.C.T.n.d.f.s.8.d.l.l.l.j.N.K.K.m.>.| >.4.| | <...A u 0 ",
"2.<.:.} >.0.8.c.Z.E.U.m.Q.Q.!.R.R.R.K.j.d.d.d.s.8.d.C.M.Z.!.Y.q.Z.Q.c.d.d.K.~.Z.V.M.c.V.M.m.m.n.d.d.C.B.d.l.l.d.4.a.H.s.<.s.,.2.8.2.a.s.l.f.8.8.l.l.l.N.J.B.B.J.B.J.l.l.B.K.T.I.N.N.N.g.,.4.N.N.l.d.g.d.m.n.s.,.] a.8.<.4.' 0 r w ",
"8.2.:.| a.8.5.c.D.F.R.R.!.!.~.R.Z.Z.P.C.d.8.j.d.<.,.m.K.R.`.~.q.M.Q.P.M.K.j.P.Z.d.c.n.E.M.m.N.d.d.2.m.C.f.s._ 2.2.,.2.8.| ,.,.f.f.d.N.H.l.f.8.8.N.l.l.l.l.l.j.B.J.B.N.N.I.I.K.B.J.J.N.d.s.>.d.K.l.l.a.8.s.m.C.f.>.| s.>.D l r w 7 ",
"a.2.:.| 4.4.5.v.F.b.b.P.Q.Q.!.R.P.Z.Q.Y.j.8.s.s.$.,.d.~.R.~.~.c.Z.R.K.M.K.d.d.M.5.M.R.K.j.d.n.s.2.$.d.l.s.4.| f.<.:.2.l.f.n.N.J.N.d.N.N.J.l.s.4.N.N.N.N.l.d.l.N.J.J.J.I.J.J.N.l.N.H.N.g.N.a.2.l.g.l.l.j.d.C.K.l.l.,.| J 0 d w 7 7 ",
"2.,.] _ :.| 5.Z.Z.h.q.Z.!.Q.E.R.Z.P.R.Z.M.d.d.2.] ] 2.K.P.K.!.s.c.Z.V.m.J.l.2.c.2.c.M.n.d.s.d.| J { c.d.2.1.$.s.s.4.>.J.K.l.N.K.J.g.l.l.m.H.K.l.d.l.N.H.l.l.d.d.N.K.Q.K.n.d.d.n.N.N.H.d.N.g.,.4.d.g.N.l.l.l.l.N.K.l.| ~ b w - - = ",
"4.2._ %.] J 2.Z.t.q.M.R.~.Y.Y.P.V.Z.Z.M.B.j.<.| ) F | d.q.8.8.,.m.q.d.s.0.a.,.Z.=.5.V.B.q.q.5.J z %.d.8.0.0.:.s.l.C.1.K.n.f.j.g.g.f.s.l.l.l.N.N.d.f.d.n.N.J.l.l.n.N.Q.J.l.n.N.g.d.l.d.N.J.N.4.2.2.2.s.l.N.d.>.2.N.K.f.} l 8 - = = ",
"a.1.| %.$.] s.Z.t.c.b.Z.b.Z.Z.Z.c.C.P.Z.M.c.,.J J D _ ,.,.$.` _ +.P 2.8.<.2.d.Z.q.5.M.m.8.4.>._ _ | 2.8.s.j.2.2.d.K.2.K.d.8.N.N.l.a.8.g.d.l.l.N.f.d.d.d.n.J.l.l.N.l.Y.K.K.T.J.n.K.J.d.l.N.l.d.d.8.,.4.g.N.s.2.4.d.N.f.4.x 7 7 = - "
};
