/* XPM */
static char *Screenshot_from_2024_03_27_11_01_251711537420[] = {
/* columns rows colors chars-per-pixel */
"40 42 205 2 ",
"   c #241B16",
".  c #2A1D16",
"X  c #261E1B",
"o  c #2B1E19",
"O  c #26211E",
"+  c #2D211B",
"@  c #322116",
"#  c #3B2517",
"$  c #34241B",
"%  c #3A261B",
"&  c #36291F",
"*  c #3B291E",
"=  c #272322",
"-  c #2B2623",
";  c #2F2926",
":  c #2F2A28",
">  c #332720",
",  c #332A23",
"<  c #3C2C22",
"1  c #332D2B",
"2  c #392E2A",
"3  c #3F3026",
"4  c #36312E",
"5  c #3A322C",
"6  c #373132",
"7  c #3B3533",
"8  c #3E3936",
"9  c #3F3A39",
"0  c #422617",
"q  c #442E1E",
"w  c #47311F",
"e  c #4B311F",
"r  c #52331E",
"t  c #432E21",
"y  c #453124",
"u  c #4B3424",
"i  c #4C3824",
"p  c #453429",
"a  c #4A3529",
"s  c #45392F",
"d  c #4D392B",
"f  c #523624",
"g  c #533926",
"h  c #5C3C26",
"j  c #503728",
"k  c #533B2B",
"l  c #5A3E2B",
"z  c #423632",
"x  c #443933",
"c  c #4D3C32",
"v  c #443E3B",
"b  c #513F33",
"n  c #593E32",
"m  c #56412E",
"M  c #5C412D",
"N  c #4D4134",
"B  c #47403C",
"V  c #4D433B",
"C  c #554132",
"Z  c #5B4333",
"A  c #5C4835",
"S  c #554539",
"D  c #5A4639",
"F  c #5F4A39",
"G  c #6F4827",
"H  c #63432D",
"J  c #68452D",
"K  c #6C4A2F",
"L  c #714C2E",
"P  c #624632",
"I  c #6A4732",
"U  c #654A35",
"Y  c #6B4C34",
"T  c #644C3A",
"R  c #6A4E39",
"E  c #724F34",
"W  c #724F38",
"Q  c #6C5136",
"!  c #6D523C",
"~  c #745034",
"^  c #7A5436",
"/  c #7E5A36",
"(  c #73543C",
")  c #7A563C",
"_  c #74593E",
"`  c #7C5B3E",
"'  c #4B4543",
"]  c #4E4946",
"[  c #504742",
"{  c #514A45",
"}  c #5B4C43",
"|  c #534D4A",
" . c #595143",
".. c #56514E",
"X. c #5B524B",
"o. c #575450",
"O. c #5C5653",
"+. c #5E5855",
"@. c #5F5A58",
"#. c #654F40",
"$. c #645142",
"%. c #6C5542",
"&. c #6E5847",
"*. c #66584D",
"=. c #6B5949",
"-. c #735541",
";. c #745A43",
":. c #7B5C42",
">. c #735D49",
",. c #7B5E49",
"<. c #615753",
"1. c #625955",
"2. c #685D55",
"3. c #635D5A",
"4. c #7C6245",
"5. c #76604B",
"6. c #7E6349",
"7. c #66615E",
"8. c #69625F",
"9. c #706354",
"0. c #6B6562",
"q. c #6F6865",
"w. c #875A2F",
"e. c #845933",
"r. c #825C3B",
"t. c #8C5F3B",
"y. c #86613E",
"u. c #8A633E",
"i. c #946A3C",
"p. c #835E43",
"a. c #846243",
"s. c #8A6544",
"d. c #8C6945",
"f. c #83654B",
"g. c #8A674C",
"h. c #85684B",
"j. c #8C6B4C",
"k. c #936744",
"l. c #926B43",
"z. c #926D4C",
"x. c #9A6F4A",
"c. c #8C704D",
"v. c #9F7445",
"b. c #95724D",
"n. c #9B744D",
"m. c #876951",
"M. c #936F51",
"N. c #8C7154",
"B. c #8B7559",
"V. c #947354",
"C. c #9A7652",
"Z. c #9C7A55",
"A. c #937459",
"S. c #907C5D",
"D. c #9C7C5A",
"F. c #A47C4D",
"G. c #A87C4A",
"H. c #A27C54",
"J. c #A97F55",
"K. c #A17E59",
"L. c #817667",
"P. c #A48157",
"I. c #AC8554",
"U. c #A5825C",
"Y. c #AA845B",
"T. c #AB8A5B",
"R. c #B38D5D",
"E. c #BC905C",
"W. c #998061",
"Q. c #A58564",
"!. c #AA8763",
"~. c #AC8B62",
"^. c #A58969",
"/. c #AD8F69",
"(. c #B49465",
"). c #B99866",
"_. c #B3946B",
"`. c #BC9A6C",
"'. c #A88F73",
"]. c #AF9470",
"[. c #BCA16E",
"{. c #C79651",
"}. c #D4A258",
"|. c #C29967",
" X c #CDA567",
".X c #C4A26D",
"XX c #C8A877",
"oX c #D1AB72",
"OX c #CBB179",
"+X c #D9B37A",
"@X c #E2BF7D",
"#X c #C5AA82",
"$X c #D6B782",
"%X c #DBBF8B",
"&X c #C5B298",
"*X c #DEC28A",
"=X c #DDC691",
"-X c #E9CA8E",
";X c #E3CD9B",
":X c #EAD097",
">X c #E7D29C",
",X c #EBDBA4",
"<X c #F2DEAA",
"1X c #F8E3A5",
"2X c #FFFBD6",
/* pixels */
"( -.f.l j k n Z Z Z P -.g.;.! P Y W -.( y.V.h.V.z.j.p.a.,.U Q Q ( R ( R U _ Z.R ",
"Q d ! a.M k k n k m U k j k k t a d l ) ~.~.! T Z b S F T ;.! >.R P P U Y Q./.A ",
"m a V.P.p.R b z 3 M T D D U A Z f.z.` j.&X_.P.T.Z.6.#.S %.%.U F n -.,.n R #X/.'.",
"$ t Z :.C.p.:.j N F C ! 4.-.a.s.l.( H g h.a.d.b.Z.Z.Q.W.N.5._ %.m.m.f.M.` !.].D.",
"% * g g P Y y.) Z d U :.s._ _ f.A.,.h.U h j.a.b./.^.D.V./.(.6.f.T U.!.K._ D D.4.",
"w * * Q I j ( s.M U _ Y ( f.f.f.C.u.d.J f H ~ d.Y.K._.!.D.N.A.V.-.a.j.:.` ` M S ",
"u u + 3 ~ a Z j.j.Y T ;.;.( p.R Z d 1 , $ , ; , b ! j.H.Y.U.V.Z.XX/.Y.a.n.a.p T ",
"y q 3 $ $ q k U :.A.;.( :.Z p 2 v ' ..V R S ' ' 9 : , Z M.Z.Z.`.*X.XC.:.H.R T ;.",
"* y y p o < < T -.-.j.M.Z 7 v | ..| { d Z.>.1.@.@...v 1 p %.-.b.P.a.V.n.:.g.&.4.",
"* y i p % H t $ :.-.D #.b ' | | o.| v H XXh.*.+.3.3.O.| 9 , T ! T h.l.b.:.:.>.%.",
"* 3 k y a Y k < % :.-.} { ' | O...' s R *XW.&.O.3.q.1.3.3.' , d V.Q.C.H.V.T ! ! ",
"< p p d P T P j @ @ U -.} | | { | B j V.=XXX%.1.1.3.3.3.0.7.[ 5 n U.~.K.~.g.#.( ",
"* a < a Y ! R g <   y ` A ' | { ] c h Z.=X;X,.2.+.+.+.+.9.S.=.' 1 T P.D.Z.D.} Q ",
"% u < Z P Z P k q X . :.).6.S | v y Y ~.$X;Xd.=.O.2.&.V.#XV.<.O.] 2 z.K.Z.Y.=.Z ",
"* y i W l T P A > - = a Z.XXC.Y Z m Y R.(.<X!.Y R M.`.*XR.%.@.7.0.8 l K.M.x.6.C ",
"* y l R M W d 4 1 2 = $ h R.$XK.Y g d.I.R.>X!.r.F.XX-X.X~ X.3.7.0.| 3 K.A.J.V.A ",
"> y M I P P 6 9 8 6 ;   u J I.|.P.Q u.l.d.T.U.b.oX+X Xi.! +.7.q.0.@.8 a.(.Y.J.f.",
"% a P H P k 7 9 B 8 : O # f J l.x.e.Q n.P.(.*X].R.E.v.e.! O.+.3.0.@.B ,.J.H.Y.g.",
"0 t -.) Y b 7 9 8 8 1 X o u w i L L y.I.*X;X=X[.[.d./ / S +.+.7.8.0.B U k.F.H.V.",
"# u ) p.p.d 7 8 4 4 < y e H K J M h y. X1X2X<XoX[.XX`.T.b.h.%.X.O.7.] m k.(.).Y.",
"@ t -.p.J t 7 c Z :.z.s.l.F.n.r.g r L I.@X1X1X XI.%X,X,X>X*XOX[.S.L.F m r.).+X).",
"o @ u a t t > % m J H h h J H e i w e L i.{.}.G.V.a.j.l.j.l.n.b.4.;.N m h M u.s.",
"$ $ < < q a ; X X . @ # # 0 0 # * g # r G w.w.y.C.z.r.u.e.L M y s [ ' P ^ ( P Q ",
"> % j j g l ; 1 ; - X     @ # @ * u q w r r M r.K E i.A p s 3 7 ] O.' Y t.C.b.b.",
"< > u u l h 2 6 4 1 : - O q e e % $ q u q l h I Z..X|.z.p v B ..O.O.] a.n.b.P.j.",
"t y a l j P < 6 2 6 1 : < J J ~ f $ 0 $ @ u M h U.:X*X|.T B | O.O.O.v y.U.n.b.( ",
"> a k l j J n 5 7 2 1 = g ~ u.e.h # t u q g f t J (.;X$XV.X.....| | A x.g.C.a.Y ",
"t y < n a l M a 5 1 , < Y u.^ g % @ h ~ ^ ~ P g k j j.OX). .....+.V r.s.z.z.! U ",
"i t O l k l R U s 1 1 g Y h % % % $ a t.r.^ h q g Z < T P.c.....| Z s.a.a.s.N U ",
"u a 3 t Z a I H Z 1 O * $ + < t X . * r.r.G f > X M Z < t l $.] x r.s.j.y.:.A M ",
"u q & * Z l l ~ W b - - ; k t - = X $ Y ^ J y 1 ; X j P 3 & x v T s.p.V.) ! C M ",
"a u < * u n a W ( R s 5 d p : 1 1 O @ u L h * 6 2 , = y T } V d s.p.j.r.U T F J ",
"t y a % $ Y P j ( J I h p 1 6 6 1 ; o t J u 2 z 9 7 2 X < -.>.( ) p.:.Y T T _ U ",
"t j t p + w H d Z ( W l M Z z 6 1 1 X @ f q 2 z 9 7 z p < g V.p.( p.W Z F Z m U ",
"y y , y * < g h.P l i a P ) -.n z 2 X @ # < 7 v x Z Z k a * P A.B.W Z d _ A p U ",
"p < < < T l y R ! % u n j h P ( ) ( k a % l l T :.W P Y H y q ( M.A.,.c Z _ d T ",
"* < & i k d j U ( < t a l P n k P j l H Y E R R U -.-.I I a o t :.!.:.b n -.a Y ",
"* p * w k j y d % @ a < < g Y P P H a k M ` Y U :.I E P t % > + u p.W l ( >.a P ",
"* a y d m < * < < > j k < < < a j l g u J ( Q M R Z a $ < Z l 3 < @ t k A :.! :.",
"j a q M U k * % < t k a k a p < > % < q U m 3 w a k a p k n m k t , @ n $.b ! Z.",
"u 3 u y & g M k D ! R Z a d p Z p * & & p y i p N m m N M C F 4.4.P y * y k ! b.",
"* % % + $ $ y a d d A d y t t u w p j i m M H A M m i 3 y y m A U k u w w w M a."
};