/* XPM */
static char *_0ee7d1f010947f6fdb284643d68dcd5x5EitVVXnUxFWpXP[] = {
/* columns rows colors chars-per-pixel */
"748 540 153 2 ",
"   c #060503",
".  c #080705",
"X  c #0A0907",
"o  c #070B08",
"O  c #0D0C0A",
"+  c #110E0D",
"@  c #0E110E",
"#  c #12100F",
"$  c #120F10",
"%  c #0F1110",
"&  c #151312",
"*  c #1A1615",
"=  c #161916",
"-  c #1A1817",
";  c #161718",
":  c #1A1718",
">  c #171A18",
",  c #1D1B1A",
"<  c #1D1C1A",
"1  c #1D1D1B",
"2  c #1E1D1C",
"3  c #1F1E1C",
"4  c #211B1B",
"5  c #201C1B",
"6  c #211C1C",
"7  c #221C1C",
"8  c #241E1E",
"9  c #241F1F",
"0  c #1E211E",
"q  c #21201E",
"w  c #23201F",
"e  c #22211F",
"r  c #24201F",
"t  c #1E1E20",
"y  c #231F20",
"u  c #1F2120",
"i  c #222121",
"p  c #242120",
"a  c #252221",
"s  c #242422",
"d  c #272423",
"f  c #262525",
"g  c #282323",
"h  c #2A2524",
"j  c #292625",
"k  c #262926",
"l  c #292827",
"z  c #292927",
"x  c #272628",
"c  c #2D2728",
"v  c #272A29",
"b  c #2D2C2A",
"n  c #302B26",
"m  c #302728",
"M  c #322D2C",
"N  c #2E312E",
"B  c #31312E",
"V  c #38332F",
"C  c #362F30",
"Z  c #382F30",
"A  c #2F3230",
"S  c #343432",
"D  c #3B3434",
"F  c #363936",
"G  c #393936",
"H  c #363739",
"J  c #3E3738",
"K  c #363A38",
"L  c #3C3C3A",
"P  c #403537",
"I  c #403B37",
"U  c #403738",
"Y  c #433C3C",
"T  c #483D3F",
"R  c #3E413E",
"E  c #42413F",
"W  c #48433E",
"Q  c #3F3F41",
"!  c #453F40",
"~  c #483F40",
"^  c #3F4241",
"/  c #444442",
"(  c #4B4344",
")  c #464946",
"_  c #494947",
"`  c #4E4748",
"'  c #464B49",
"]  c #4C4C4A",
"[  c #504547",
"{  c #514C47",
"}  c #504748",
"|  c #534B4C",
" . c #584D4F",
".. c #4D514E",
"X. c #51514F",
"o. c #564E50",
"O. c #594E51",
"+. c #4E5251",
"@. c #535452",
"#. c #5B5253",
"$. c #555956",
"%. c #595956",
"&. c #565758",
"*. c #5C5758",
"=. c #565B59",
"-. c #5B5D5A",
";. c #605557",
":. c #615658",
">. c #615B5B",
",. c #5D615E",
"<. c #62615E",
"1. c #5E5F60",
"2. c #615F60",
"3. c #5E6361",
"4. c #5F6863",
"5. c #626563",
"6. c #686565",
"7. c #656965",
"8. c #686A67",
"9. c #676768",
"0. c #666B69",
"q. c #6A6D6B",
"w. c #6C716E",
"e. c #70726F",
"r. c #677070",
"t. c #6D7371",
"y. c #727573",
"u. c #747976",
"i. c #797B77",
"p. c #767779",
"a. c #757B79",
"s. c #7A7D7B",
"d. c #7B817E",
"f. c #81847F",
"g. c #7E8482",
"h. c #818683",
"j. c #848986",
"k. c #888A87",
"l. c #868D8A",
"z. c #898D8A",
"x. c #8C918D",
"c. c #90948F",
"v. c #8E9492",
"b. c #919692",
"n. c #949996",
"m. c #959C99",
"M. c #999E9A",
"N. c #9CA29D",
"B. c #9CA3A2",
"V. c #A2A9A3",
"C. c #A6ABA8",
"Z. c #ACB2AD",
"A. c #B0B6B1",
/* pixels */
"# # # @ @ @ # # # # # # # # + + + + & & * * * * * * & & & & & & * * & & & & & & & & & & & & # # # # # # # # # # & & & & & & & & & & & * & & & & : : : : - - - - : : * * : : : : : : : : : : : : : : , , , , , , , , , , , , * * , , , , , , * * * * * * = * & & & & & & * * * * * * * * * * = = & & & & & & & & + + O O X X X X X X X X X X X X X X X X X X O O O O O O O O O O O O O O O O O O O O O O O O O O O O O O O O O O O O O O O O O O O O O O O O O O O O O O O O O O O O O O O O O O O O . . . . O O O O O X . . O O X X X . O O O O X X . X . . X X X X X X X X O O O O + + + + # # # # # # # # # # + + O O O O O O O O O O O O # # # # # # + + O O + + O O X X O O # # # # O O O O + + # + O O O O O O O O O O O O O O X X X X X X X X X X X X X X X X X O O O O O O X X X O O X X X X X X X X X X X X X X O O O O O O O O O O O O O O # # # # O O O O O O @ @ & & & & & & & & & & & & & & & & & & & & & & = = & & & & & & & & & & & & & & & & # # # # & & & & # # O + O O O O + + + + + + O O O O O O O O + + O O O O O O O O O O O O + O O O O O O O O O + + + + + + + + O O O + + + O O + + + + + + + + O O + + O O O O O O O O O O O O O O O O O O O O X X X X X X X X X X X X X X X X O O O O O O O O O O O O X X X X O O + + + + + + + + # # & & & & # # + + # & & & # # # # + + O O # # # # # # # # O O # # # + + + # # # # + + O O O O O O O O O O O O O O O O O O O O O O O O O O O O X O O O O O X X O O O O X X X X X X X X X X X X X X X X X X . .                             . . X X X X . . . . X X . . . .     . . . .     ",
"# # # # @ @ # # # # # # # # + + + + & & * & * * * * & & & & & & * * & & & & & & & & & & & & # # # # # # # # # # & & & & & & & & & & * * & & & & : : - - - - - - : : * * : : : : : : : : : : : : : : , , , , , , , , , , , , * * , , , , , - * * * * * * * * & & & & & & * * * * * * * * * * = = & & & & & & & & + + O O X X X X X X X X X X X X X X X X X X O O O O O O O O O O O O O O O O O O O O O O O O O O O O O O O O O O O O O O O O O O O O O O O O O O O O O O O O O O O O O O O O O O O O . . . . O O O O O X . . O O X X . . O O O O X X . . . . X X X X X X X X O O O O + + + + # # # # # # # # # # + + O O O O O O O O O O O O # # # # # # + + O O + + O O X X O O # # # # O O O O + + # # O O O O O O O O O O O O O O X X X X X X X X X X X X X X X X X O O O O O O X X X O O X X X X X X X X X X X X X X O O O O O O O O O O O O O O # # # # O O O O O O @ @ & & & & & & & & & & & & & & & & & & & & & & = = & & & & & & & & & & & & & & & & # # # # & & & & # # O O O O O O + + + + + + O O O O O O O O + + O O O O O O O O O O O O + + O O O O O O O O + + + + + + + + O O O O + + O O + + + + + + + + O O + + O O O O O O O O O O O O O O O O O O O O X X X X X X X X X X X X X X X X O O O O O O O O O O O O X X X X O O + + + + + + + + # # & & & & # # + O # # & & # # # # + + O O # # # # # # # # + + # # + + + + # # # # + + O O O O O O O O O O O O O O O O O O O O O O O O O O O O O O O O O O X X O O O O X X X X X X X X X X X X X X X X X X . .                             . . X X X X . . . . X X . . . .     . . . .     ",
"& & & & & & & & & & # # # # + + + + & & * * * * * * * * : : * * * * * * * * & & & & & & # # * * & & * * * * & & & & & & & & * * * * & & & & & & & & & & & & : : : : : : : : - , - - , , , , , , , , 4 4 , , , , , , : : : : & & * * * * * * & & & & # # & & + + + + # # & & * * & & & & * * * * * * * * & & & & + + O O O O X X X X X X X X O O O O O O O O O O O O O O O O O O O O O O O O O O O O O O O O O O O O O O O O O O O O O O O O O O O O O O O O O O O O O O + O O O O O O O O O O O O O . . O O O O O O O O . . O O X . . . O O O O X X . . . . O O X X X X X X O O O O O O O O O O O O O O O O O O O O O O X X O O O O O O O O O O O O O O O O X X O O O O X X O O # # + + O O O O O O O O O O O O O O O O O O + + + + O O O O O O O O O O O O O O O O O O # # # # @ @ O O O O # # # + O O O O + + + # # # & & & & & & & & & & & & & & & & & & & & & & & & & & = = = = & & = = - - = = & & & & & & # # & & & & & & & & & & & & & & & & & & & & & & & & & & # & # # # + + + O O + + + + + + + + O O O O O O + + + + + + + + + + + + + + + + + + + + + + + + + + + + + + O O O O O O + O O O + + + + + + + + + + + + + + + + + + + + O O + O O + O O O O O O O O O O O O O O O O O O O O O O O O O O O O O O O O O O O O O O O O O O O O O O O O + + # # # # O O O O # # & & # # + + + + + O # # # # # & & & # # # # # # # # # # # # # # + + O O O O O O O O O O O O O O O O O O O O O O O O O O O O O O O O X X X X X X X X O X X X X O O X X X X X X X X X . . . .                     . . X X X X X X . . . . X X . . . . . . . . . .     ",
"& & & & & & & & & # # # # # + + + + & & * * * * * * * * : : * * * * * * * * & & & & & & # # * * & & * * * * * * & & & & & & * * * * & & & & & & & & & & & & : : : : : : : : , , - - , , , , , , , , 4 4 , , , , , , : : : : & & * * * * * * & & & & # # & & + + + + # # & & * * & & & & * * * * * * * * & & & & + O O O O O X X X X X X X X O O O O O O O O O O O O O O O O O O O O O O O O O O O O O O O O O O O O O O O O O O O O O O O O O O O O O O O O O O O O O O + O O O O O O O O O O O O O . . O O O O O O O O . . O O X . . . O O O O X X . . . . O O X X X X X X O O O O O O O O O O O O O O O O O O O O O O X X O O O O O O O O O O O O O O O O X X O O O O X X O O # # + + O O O O O O O O O O O O O O O O O O + + + + O O O O O O O O O O O O O O O O O O # # # # @ @ O O O O # # # # O O O O + + + + # # & & & & & & & & & & & & & & & & & & & & & & & & & & = = = = = & = = - - = = & & & & & & # # & & & & & & & & & & & & & & & & & & & & & & & & & # & & # # # + + + O O + + + + + + + + O O O O O O + + + + + + + + + + + + + + + + + + + + + + + + + + + + + + O O O O O O + + O O + + + + + + + + + + + + + + + + + + + + O O + + O + O O O O O O O O O O O O O O O O O O O O O O O O O O O O O O O O O O O O O O O O O O O O O O O O + + # # # # O O O O # # & & # # + + + + + + # # & # # # & & # # # # # # # # # # # # # # + + O O O O O O O O O O O O O O O O O O O O O O O O O O O O O O O O X X X X X X X X O O O X X X O O X X X X X X X X . . . .                     . . X X X X X X . . . . X X . . . . . . . . . .     ",
"= = & & & & & & & & # # # # & & & & * * : : : : , , , , , , 4 4 , , : : , , * * * * * * * * * * * * * * * & & & * * * * * * & & * * * * & & & & & & & & & & & & * * * * * * * * * * * * * * * * : : : : : : : : * * * * * * * * * * * * * * * * = = = * * * * * * * - - , , < < , , , , , , < < < < < < - - & & # # # # # # O O O O O O O O O O O O + + O O O O + + O O O O O O O O O O O O O O O O O O O O O O O O + + + + O O O O O O O O + O O O O O O O + + + + + + + + + + + + + + + + O O O O O O O O O O O O O O O O O O O O O O O O O O O O O O X X O O O O O O X O O O O O O O O O O O + + O O O O O O # # # # O O + + O O O O O O O O O O O O O O O O + + # # + + # # & & & & # # & & & & = = * = & & & & & & & & & & & & & & & & & & & & # # # # & & & & & & & & & & & & & & & & & & & & & & & & & & = = * * - - - - - - < < < < < < < < - - - - < < < < 3 3 3 3 3 3 3 3 < < < < - - * * = = & & # # & # & & & & & & & & & & & & & & & & & & & & & & & & # # # # # # # # # # # # + + + + + + + + + + + + + + O O + + + + + + + + # # # # + + + + + # # # + + + + + + + + + + + + & & # + + + + + # # & & # + # # + + + + + + + + + + + + + + + + + + O O O O O O O O O O + + O O + + O + + # O O O O O O O O O O + + O O O O O O O O O O O O O O O O # # # # # # & & & & & & & & & & # # # # # # & & & & & & # # # # # # # # # # # # # # + + O O O O O O O O O O O O O O X O X O O O O O X X X X X X X X X X X X X X X X X X X X X X X X X X O O X X X X X X X X X X X X . . . . . . . . X X X X X X X X X X . . X X . .         . . . . . . ",
"= = & & & & & & & & # # # # & & & & * * : : : : , , , , , , , 4 , , : : , , * * * * * * * * * * * * * : * & & & * * * * * * & & * * * * & & & & & & & & & & & & * * * * * * * * * * * * * * * * : : : : : : : : * * * * * * * * * * * * * * * * = = = * * * * * * * - - , , < < , , , , , , < < < < < < - - & & # & # # # # O O O O O O O O O O O O O + O O O O + + O O O O O O O O O O O O O O O O O O O O O O O O + + + + O O O O O O O O + + O O O O O O + + + + + + + + + + + + + + + + O O O O O O O O O O O O O O O O O O O O O O O O O O O O O O X X O O O O O O X O O O O O O O O O O O + + O O O O O O # # # # O O + + O O O O O O O O O O O O O O O O + + # # + + # # & & & & # # & & & & = = * * & & & & & & & & & & & & & & & & & & & & # # # # & & & & & & & & & & & & & & & & & & & & & & & & & & = = * * - - - - - - < < < < < < < < - - - - < < < < 3 3 3 3 3 3 3 3 < < < < - - * - = = & & # # & & & & & & & & & & & & & & & & & & & & & & & & & & # # # # # # # # # # # # + + + + + + + + + + + + + + O O + + + + + + + + # # # # + + + + # # # # + + + + + + + + + + + + & & # + + + + + # # & & # + # # + + + + + + + + + + + + + + + + + + O O O O O O O O O O O O O O + # O + + # O O O O O + O O O O + + O O O O O O O O O O O O O O O O # # # # # # & & & & & & & & & & # # # # # # & & & & & & # # # # # # # # # # # # # # # + O O O O O O O O O O O O O O O O O O O O O O X X X X X X X X X X X X X X X X X X X X X X X X X X O O X X X X X X X X X X X X . . . . . . . . X X X X X X X X X X . . X X . .         X . . X . . ",
"- - - - - - = = = = = = & & * * * * : : , , , : , , : : : : , , , , , , , , , , , , , , , , : : - - - - - - - - - - - - - - * * & * - : : : - - - - - - - - * * * * * * * * * * * * * * * * * * * * : : : : : : : : * * * * , , , , , , < < 6 6 3 3 6 6 6 6 6 6 6 6 6 6 p p p p 6 6 6 6 w 6 3 3 3 3 3 3 < < * * & & & & & & O O O O O O + + + + + + + + + + O O + + O O O O + + + + + + + + O O + + + + + + + + + + + + + + + + + + + + + + + + + + + + + + + + + + + + + + + + # # # # # # + + + + O O + + + + + + + + + + + + + + + + + + + + + + + + O O O O O O O O O O # # # # # # + + & & & & & & # # & & = = & & & & # # # # # # # # # # # # & & & & & & = = * * = = - - , , , , - - - - , , < < < < - - - - = = & = = & = = & & & & & & & & & & & & & & # # # # & & & & & & & & & & & & & & & & & & & & = = * * - - - - - - - - - - - - - - - - - - p p p p p p p p w w 3 3 3 3 3 3 - - * * = = = = & & = = = = = = & & & & # # # # & & = = & & & & & & & & & & & & & & & & & & # # + + + + + + + + + + + + + + O O + + + + + + # # # # # # # # # # # # # # + + + + # # & & & & & & * * * * & & & & & & & & & & # # + + + + + + + + + + + + + + + + + + # # # # + + + + O O O O + + # # O O # # # + + + # # + + O O O O O O X X O O O O O O O O + + O O # # & & & & * * - - = * & & & & & & & & & & & & & & # # # # + + O O O O O O # + # # O O O O O O O O O O O O O O O O O O O O X X X X X X X X X X X X X X X X X X X X X X X X X X O O O O O O O O O O X X X X X X X X X X X X . . X X X X X X X X . . . . . . . .             . . . .     ",
"- - - - - - = = = = = = & & * * * * : : , , , , , , : : : : , , , , , , , , , , , , , , , , : : - - - - - - - - - - - - - - * * & * : : : : - - - - - - - - * * * * * * * * * * * * * * * * * * * * : : : : , : : : * * * * , , , , , , < < 6 6 6 6 6 6 6 6 6 6 6 6 6 6 p p p p 6 6 6 6 w 6 3 3 3 3 0 0 < < * * & & & & & & O O O O O O + + + + + + + + + + O O + + O O O O + + + + + + + + O O + + + + + + + + + + + + + + + + + + + + + + + + + + + + + + + + + + + + + + + + # # # # # # + + + + O O + + + + + + + + + + + + + + + + + + + + + + + + O O O O O O O O O O # # # # # # + + & & & & & & # # & & = = & & & & # # # # # # # # # # # # & & & & & & = = * * = = - - , , , , - - - - , , < < < < - - - - = = = = = = = = & & & & & & & & & & & & & & # # # # & & & & & & & & & & & & & & & & & & & & = = * * - - - - - - - - - - - - - - - - - - p p p p p p p p w w 3 3 3 3 3 3 - - * * = = = = = = = = = = = = & & & & # # # # & & = = & & & & & & & & & & & & & & & & & & # # + + + + + + + + + + + + + + O O + + + + + + # # # # # # # # # # # # # # + + + + # # & & & & & & * * * * & & & & & & & & & & # # + + + + + + + + + + + + + + + + + + # # # + + + + + O O O O + + # # + O # # # + + + # + + + O O O O O O X X O O O O O O O O + + O O # # & & & & * * - - * * & & & & & & & & & & & & & & # # # # + + O O O O O O + + # # O O O O O O O O O O O O O O O O O O O O X X X X X X X X X X X X X X X X X X X X X X X X X X O O O O O O O O O O X X X X X X X X X X X X . . X X X X X X X X . . . . . . . .             . . . .     ",
"< < < < < < < < < < < < < < , , , , , , , , , , 4 4 , , , , , , , , , , , , , , , , , , , , < < 4 4 4 4 5 5 5 5 5 5 5 5 4 4 , , , , - - , , 5 4 4 4 5 5 5 5 6 6 6 6 6 6 6 6 6 6 6 6 6 6 6 6 , , , , 4 4 4 4 4 4 4 4 , , , , < < , , , , , , < < 6 6 3 3 3 6 , , , , , , 6 6 6 6 , , , , < < , , < < < < - - & & & & # # # # + + # # + + + + + + + + # # # + + + + + + + + + + + # # # # # # + + + + + + + + # # # # # # # # & & & & & & & & & & & & & & & & # # # # & & & & & & & & & & & & & & # + + + # # & & & & & & & & & & # # + + + + # # & & + + + + + + O O + + # # & & & & & & & & & & & & & & & & = = - - - - & & & & & & & & & & & & & & = = - - - - - - - - - - - - < < < < < < < < < < 3 3 < < - - = = & & & & & & & & & & & & & & & & # # # # # # O O O O # # # # @ @ # # & & # # # # # # # # & & & & & & & & & & & & & & & & & & = = = = - - 3 3 0 0 w 0 3 3 < < < < < < - - - - - - - - < < - - - - - - = = = = & & # # & & & & ; ; & & & & & & & & & & & & & & & & & & & & + + + + O O + + + + + + + + + + + + + + + + # # # # # # # # # + & & # # # # # # & & & & * * * * - - * * & & & & # # & & # & & & + + # # # # + + + + + + + + + + + + + + + + + + + + + + + + + + + + + + + + + + + + + + + + + + O O O O O O O O O O O O # # & & # # & & = = - - , , < < - - = = & & & & & & # # # # # # # # # # + + O O O O O O O O O O O O O O O O O O O O O O O O O O O O O O O O O O O O O O O O O O O O O O O O O O O O O O O O O O O O X X X X X X X X X X X X X X X X X X X X . . . . . . . . . . . . . . . .                 . .     ",
"< < < < < < < < < < < < < < , , , , , , , , , , , 4 , , , , , , , , , , , , , , , , , 4 , , < < 4 4 4 4 5 5 5 5 5 5 5 5 4 4 , , , , - - , , 5 4 4 4 5 5 5 5 6 6 6 6 6 6 6 6 6 6 6 6 6 6 6 6 , , , , 4 4 4 4 4 4 4 4 , , , , < < , , , , , , < < 6 6 3 6 3 6 , , , , , , 6 6 6 6 , , , , < < , , < < < < - - & & & & # # # # + + + # + + + + + + + + # # # + + + + + + + + + + + # # # # # # + + + + + + + + # # # # # # # # & & & & & # & & & & & & & & & & # # # # & & & & & & & & & & & & & & + + + + # # & & & & & & & & & & # # + + + + + # & & + # + + + + O O + + # # & & & & & & & & & & & & & & & & = = - - - - & & & & & & & & & & & & & & = = - - - - - - - - - - - - < < < < < < < < < < 3 3 < < - - = = & & & & & & & & & # & & & & & & # # # # # # @ @ O O # # # & @ @ # # & & # # # # # # # # & & & & & & & & & & & & & & & & & & = = = = - - 3 3 0 0 0 0 3 3 < < - < < < - - - - - - - - < - - - - - - - = = = = & & # # & & & & ; ; & & & & & & & & & & & & & & & & & & & & + + + + O O + + + + + + + + + + + + + + + + # # # # # # # # # + & & # # # # # # & & & & * * * * - - * * & & & & # # & & & & & & + + # # # # + + + + + + + + + + + + + + + + + + + + + + + + + + + + + + + + + + + + + + + + + + O O O O O O O O O O O O # # & & # # & & = = - - , , < < - - = = & & & & & & # # # # # # # # # # + + O O O O O O O O O O O O O O O O O O O O O O O O O O O O O O O O O O O O O O O O O O O O O O O O O O O O O O O O O O O O X X X X X X X X X X X X X X X X X X X X . . . . . . . . . . . . . X . .                 . .     ",
"& & = = * * - - - - - - , , , , , , , , , , 4 4 6 4 6 6 6 6 6 6 6 6 6 6 6 6 6 6 6 6 6 6 6 6 5 5 5 5 5 5 5 5 5 5 5 5 5 5 5 5 5 5 5 5 5 5 4 4 4 4 5 5 5 5 5 5 6 6 6 6 9 9 p p p p 9 9 9 9 6 6 6 6 6 6 6 6 6 6 6 6 6 6 4 4 5 5 6 6 < < , , , , , , , , * - - - , , * * - - , , , , , , , , < < < < < < < < - - - - = = & & # # # # # # & & & & & & & & & & & & & & & & & & & & & & & & & & & & & & & & & & & & & & & & & & & & & & & & & & & & & & & & & & & & & & & & & & & & & & * * * * * * & & & & & & & & & & * * & & & & & & & & # # # + & & & & & & & & + + + + + + # # & & & & = = = = = = = & = = - - - - < < - - = = & & & & = = = = = = = = - - - - 3 3 < < < < 3 3 3 3 3 3 w w 3 3 w w p p p p w w < < - - * * = = & & & & & & = = = = & & & & & & & & & & & & & & & & & & & & & & & & & & & & & & & & & & & & & & & & & & & & = = ; ; - - - - - - w w w w p p p p 3 3 3 3 3 3 3 3 3 3 3 3 3 0 3 3 < < - - = = & & = = = = & & & & = = - - - - - - * * = = & & = = - - - - = = & & # # + + + + + + & & & & # # + + + + + + # # & & & & & & & & & & & & & & & & & & & & & & * * * * & & & & & & & & & & & * & & & & & & & & & & + + & & & & & & & & + + # # # # # # + + + + + + + + + + + + # # + + + + # # # # # + # # # # + + # # # # + + # # & & - - - , < < < < 6 6 w w 6 6 , , & & # # + + O O + + # # # # # # # # + + + O + + O O + + + + O O O O O O O O O O O O O O O O O O # # + + O O O O O O O O O O O O O O O O O O O O O O X X X X X X X X X X X X X X X X X X X X X X X X X X X X . . . . X X X X X X X X X X . . . . . . . .     ",
"& & = = * * - - - - - - , , , , , , , , , , 4 4 4 4 6 6 6 6 6 6 6 6 6 6 6 6 6 6 6 6 6 6 6 6 5 5 5 5 5 5 5 5 5 5 5 5 5 5 5 5 5 5 5 5 5 5 , , 4 4 5 5 5 5 5 5 6 6 6 6 9 9 p p p p 9 9 9 9 6 6 6 6 6 6 6 6 6 6 6 6 6 6 4 4 5 5 6 6 < < , , , , - - , , * - - - , , * * - - , , , , , , , , < < < < < < < < - - - - = = & & # # # # & # & & & & & & & & & & & & & & & & & & & & & & & & & & & & & & & & & & & & & & & & & & & & & & & & & & & & & & & & & & & & & & & & & & & & & & * * * * * * & & & & & & & & & & * * & & & & & & & & # # + + & & & & & & & & + + + + + + # # & & & & = & = = = = = & = = * * - - < < - - = = & & & & = = = = = = = = - - - - 3 3 < < < < 3 3 3 3 3 3 w w 3 3 w w p p p p w w < < - - * * = = & & & & & & & = = = & & & & & & & & & & & & & & & & & & & & & & & & & & & & & & & & & & & & & & & & & & & & = = ; ; - - - - - - w w w w p p p p 3 3 3 3 3 3 3 3 3 3 3 0 0 0 3 3 < < - - = = & & = = = = & & & & = = - - - - - - - * = = & & = = - - - - = = & & # # + + + + + + & & & & # # + + + + + + # # & & & & & & & & & & & & & & & & & & & & & & * * * * & & & & & & & & & & & * * * * * & & & & & & $ $ & & & & & & & & # # # # # # # # + + + + + + + + + + + + # # + + + + # # # # # # # # # # + + # # # # + + # # & & - - - - < < < < 6 6 w w 6 6 , , & & # # + + O + + + # # # # # # # # + + + + + + O O + + + + O O O O O O O O O O O O O O O O O O + + + + O O O O O O O O O O O O O O O O O O O O O O X X X X X X X X X X X X X X X X X X X X X X X X X X X X . X . . X X X X X X X X X X . . . . . . . .     ",
"O O + + + + & & & & * * * * - - : : : : , , , , , , 4 4 4 4 6 6 6 6 6 6 6 6 6 6 6 6 6 6 6 6 5 5 5 5 , , - - - - - - - - - - - - - - : : & & & * - - , , , , , , 4 4 6 6 9 9 9 9 9 9 6 6 6 6 9 9 6 6 6 6 6 6 6 6 6 6 6 6 6 6 r r 6 6 < < < < < < , , , , , , 6 6 5 < , , < < < < , , , , 3 3 0 3 3 3 3 3 3 3 3 3 < < - - & & & & & & & & & & & & & & & & & & & & & & & & & & & & & & & & & & & & & & & & & & & & & & * * * * * * * * * * * * * * * * * * * * & & & & * * * * * * * * * * * * & & & & & & & & * * * * * * * * & & & & & & & & & & & & & & & & & & & # # # & & & & * * * * = = - - - - - - , , 3 3 w w < < = = = = - - - - - - - - = = - - - - 3 3 < < 3 3 w w d d d d p p p p d d d d d d d d w w 6 6 3 3 3 3 3 3 3 3 3 3 6 6 3 3 < < - - - - < < - - - < < < < < - - - - - - - - , , - - - - < < - - - - - - < < 3 3 3 3 w w w w 0 0 3 3 3 3 p p d d d d d d d d p p d d d d p p p p w 0 3 3 - - - - = = & & - - - - - - - - - - - - < - < < < < , , - - - - - - - - - - = = * * & & & & & & & & * * & & & & & & & & & & & & & & & & & & & & & * & & & & & & & & & & * * * * & & & & $ $ & & * * * * * * * * * * * * * * * * * * * * * * & & & & & & & & & & & & & & & & & & & & & & & & & & & & & & & & & & & & & & & & & & & & # # & & * * w w w w 3 3 < < 6 6 p p p p w w = = & & & & # # # # # # + O O + # # O O O O O O O O + + + + O O O O O O O O O O O O O O O O O O O O O O O O O O O O O O O O O O X X X X X X X X X X X X X X X X X X X X X X X X X X X X X X X X X X X X X X X X X X X X X X O O O O O O X X X X X X X X X X ",
"O O + + + + & & & & * * * * - - : : : : , , , , , , 4 4 4 4 6 6 6 6 6 6 6 6 6 6 6 6 6 6 6 6 5 5 5 5 , , - - - - - - - - - - - - - - : : & & & & - - , , , , , , 4 4 6 6 9 9 9 9 9 9 6 6 6 6 9 9 6 6 6 6 6 6 6 6 6 6 6 6 6 6 r r 6 6 < < , , < < , , , , , , 6 6 5 5 , , < < < < , , , , 6 6 0 3 3 3 3 3 3 3 3 3 < < - - & & & & & & & & & & & & & & & & & & & & & & & & & & & & & & & & & & & & & & & & & & & & & & * * * * * * * * * * * * * * * * * * * * & & & & * * * * * * * * * * * * & & & & & & & & * * * * * * * * & & & & & & & & & & & & & & & & & & & & # # & & & & * * * * = = - - - - - - , , 3 3 w w < < * * = = - - - - - - - - = = - - - - < < < < 3 3 w w d d d d p p p p d d d d d d d d w w 6 6 3 3 3 3 3 3 3 3 3 3 6 6 3 3 < < - - - - < < - - - - < < < < - - - - - - - - , , - - - - < < - - - - - - < < 3 3 3 3 w w w w 0 0 3 3 3 3 p p d d d d d d d d p p d d d d p p p p w w 3 3 - - - - = = & & - - - - - - - - - - - - < - < < < < , , - - - - - - - - - - = = * * & & & & & & & & * * & & & & & & & & & & & & & & & & & & & & * * & & & & & & & & & & * * * * & & & & $ $ & & * * * * * * * * * * * * * * * * * * * * * * & & & & & & & & & & & & & & & & & & & & & & & & & & & & & & & & & & & & & & & & & & & & # # & & * * w w w w 3 3 < < 3 6 p p p p w w = = & & & & # # # # # # + + + O # # O O O O O O O O # + + + O O O O O O O O O O O O O O O O O O O O O O O O O O O O O O O O O O X X X X X X X X X X X X X X X X X X X X X X X X X X X X X X X X X X X X X X X X X X X X X X O O O O O O X X X X X X X X X X ",
"+ + # # & & * * * - - - , , * * : : : : * * * * * * * * * * * * * * - - , , , , 6 6 6 6 6 6 , , , , * * & & * * & & & & * * # # # # + + + + # # * * * * - - 5 5 6 6 r r p p p p p p p p p p p p r r r r 6 6 r r p p p p p p p p 6 6 6 6 6 6 6 6 6 6 6 6 6 6 p p 6 6 6 6 < < , , - - - - , , w w 3 3 3 3 w w p p w w , , = = & & & & & & & & & & & & & & & & & & & & & & & & & & & & & & & & & & & & & & * * * * * * * * * * * * * * * * * * * * * * * * * * * * * * * * * * * * * * * * * * & & & & & & * * * * * * * * * * * * * * & & & & * * * * * * * * * * = = = = = = * * - - - - * * - - - - - - < < 6 6 w w < < = = - - < < 3 3 < < - - = = - - - - - - - - < < d d d d d d d d p p w w w w w w w w w w 6 6 6 w 0 0 d d d d d d d d d d w w 6 6 3 3 d d p p p p d d d d w 0 3 3 3 3 d d d d d d p p p p w w w w w w w w p p d d d d d d d d w w w w w w p p d d d d p p w w p p d d d d p p 6 6 < < - - - - * * * * < < < < < < < < < < , , < < 3 3 p p 6 6 , , - - , , , , , , * * , , , , * * * * * * * * * * & & & & & & * * * * * * * * * * * * & & & & & & & & & & * * * * * * * * * * * * * & * * * * * * * * * * * * : : * * * * * * * * * * * * * * * * * * * * * * * * & & * * * * * * * * & & & & & & & & = = & & & & & & & & & & = = - - p p w w - - * * - - 3 3 w w 6 6 < < - - * * & & & & # # + + O O O O O O O O O O O O O O O O O O O O O O O O O O O O O O O O O O O O O O O O O O O O X X O O X X X X X X X X X X X X X X X X X X X X X X X X X X X X O O O O O O X X X X X X X X X X O O O O O O O O O O O O O O O O X X X X ",
"+ + # # & & * * * * - - , , * * : : : : * * * * * * * * * * * * * * - - , , , , 6 6 6 6 6 6 , , , , * * & & * * & & & & * * # # # # + + + + # # * * * * - - 5 5 6 6 r r p p p p p p p p p p p p r r r r 6 6 r r p p p p p p p p 6 6 6 6 6 6 6 6 6 6 6 6 6 6 p p 6 6 6 6 < < , , - - - - , , w w 3 3 3 3 w w p p w w , , = = & & & & & & & & & & & & & & & & & & & & & & & & & & & & & & & & & & & & & & * * * * * * * * * * * * * * * * * * * * * * * * * * * * * * * * * * * * * * * * * * & & & & & & * * * * * * * * * * * * * * & & & & * * * * * * * * * * = = = = = = * * - - - - * * - - - - - - < < 6 6 w w < < = = - - < < 3 3 < < - - = = - - - - - - - - < < d d d d d d d d p p w w w w w w w w w w 6 6 6 6 0 0 d d d d d d d d d d w w 6 6 3 3 d d p p p p d d d d w 0 3 3 3 3 d d d d d d p p p p w w w w w w w w p p d d d d d d d d w w w w w w p p d d d d p p w w p p d d d d p p 6 6 < < - - - - * * * * < < < < < < < < < < , , < < 3 3 p p 6 6 , , - - , , , , , , * * , , , , * * * * * * * * * * & & & & & & * * * * * * * * * * * * & & & & & & & & & & * * * * * * * * * * * * & & * * * * * * * * * * * * * : * * * * * * * * * * * * * * * * * * * * * * * * & & * * * * * * * * & & & & & & & & = = & & & & & & & & & & = = - - p p w w - - * * - - 3 3 w w 6 6 < < - - * * & & & & # # + + O O O O O O O O O O O O O O O O O O O O O O O O O O O O O O O O O O O O O O O O O O O O X X O O X X X X X X X X X X X X X X X X X X X X X X X X X X X X O O O O O O X X X X X X X X X X O O O O O O O O O O O O O O O O X X X X ",
"# # # # & & & & * * * * , , - - - - , - - - - - - - - - - - * * - - - * - - , , 6 6 6 6 6 6 6 6 w w w w 6 6 6 6 < < 5 5 < < < < 5 5 , , , , - , - - - - - - , , * * * * * * , , , , , , , , - - < < , , - - 6 6 p p 6 6 6 6 6 6 , , * * * * - - - - - - - - * * & & & & & & & & & & & & * * 6 6 3 3 < < < < < < w w 6 6 < < & & + + + + & & & & & & & & & & & & & & & & & & & & & & & & & & & & & & & & = = * * * * * * * * * * * * * * * * * * * * * * * * * * * * * * * * * * * * * * * * & & & & & & & & = = = = * * * * * * = = & & & & = = * * * * * * * * * * * * * * , , , , , , , , 6 6 6 6 6 6 6 6 5 5 5 5 5 5 < < < < 3 3 6 6 6 6 3 3 < < , , - - - - - , < < 3 3 6 6 3 3 < < , , * * * * * * * * - - , , , , - - & & * * < < w w 6 6 , , - - - - - - - - 3 3 w w p p p p d d d d p p p p w w w w < < - - - - < < 3 3 3 6 w w w w - - & & & & , , < < , , * * * * , , < < 6 6 < < , , , , , , < < < < < < < < < < 6 6 6 6 6 6 6 6 w w r w 6 6 6 6 6 6 6 6 < 5 6 6 6 6 6 6 5 5 , , 6 6 6 6 5 5 , , , , , , , , , , , , , , , , , , , , - - , , , , < < < < < < < , , , , , , , , , < < , , , , , , , , , , , , , , , , , , , , < < < < , , , , * * 5 5 , , , , , , , , - - - - * * * * * * * * : : * * * * * * * * - - - , < < - - - - - - < < w w d d w w - - & & = = , , 6 6 w w p p d d 6 6 # # O O + + # # O O + + + + O O O O + + + + + + + + O O O O O O O O O O O O O O O O O O O O O O O O O O X X O O O O O O O O X X X X X X X X X X X X O O O O O O O O O O O O X X X X X X X X X X O O O O O O O O O O O O O O O O O O O O O O O O ",
"# # # # & & & & * * * * , , - - - - - - - - - - - - - - - - * * - - - * , - , , 6 6 6 6 6 6 6 6 6 w w w 6 6 6 6 < < < 5 < < < < 5 5 , , , , , , - - - - - - , , * * * * * * , , , , , , , , - - < < , , - - 6 6 p p 6 6 6 6 6 6 , , * * * * - - - - - - - - * * & & & & & & & & & & & & * * 6 6 3 3 < < < < < < w w 6 6 < < & & + + + + & & & & & & & & & & & & & & # # & & & & & & & & * * & & & & & & = = = * * * * * * * * * * * * * * * * * * * * * * * * * * * * * * * * * * * * * * * & & & & & & & & = = = = * = * * * * = = & & & & = = * * * * * * * * * * * * * * , , , , , , , , 6 6 6 6 6 6 6 6 5 5 5 5 5 5 < < < < 3 3 6 6 6 6 3 3 < < , , - - - - - - < < 3 3 6 6 3 3 < < , - * * * * * * * * - - , , , , - - & & * * < < w w 6 6 , , - - - - - - - - 3 3 w w p p p p d d d d p p p p w w w w < < - - - - < < 3 3 3 3 w w w w - - & & & & , , < < , , * * * * , , < < 6 6 < < , , , , , , < < < < < < < < < < 6 6 6 6 6 6 6 6 w w r r 6 6 6 6 6 6 6 6 < < 6 6 6 6 6 6 5 5 , , 6 6 6 6 5 5 , , , , , , , , , , , , , , , , , , , , - - , , , , , < < < < < , , , , , , , , , , < < < , , , , , , , , , , , , , , , , , , , < < < < , , , , * * 5 5 , , , , , , , , - - - - : * * : * * * * : : * * * * * * * * - - - - < < - - - - - - < < w w d d w w - - & & = = , , 6 6 w w p p d d 6 6 # # O O + + # # O O + + + + O O O O + + + + + + + + O O O O O O O O O O O O O O O O O O O O O O O O O O X X O O O O O O O O X X X X X X X X X X X X O O O O O O O O O O O O X X X X X X X X X X O O O O O O O O O O O O O O O O O O O O O O O O ",
"& & & & & & * * * * - - - - < < 5 5 5 5 < 5 < < 5 < 5 < < < 6 6 6 6 6 6 6 6 6 6 w w w w 6 6 r r w w r r r r w w w w 6 6 6 6 w w r r r r w w w w w w w w w r r w 6 6 , , < < 6 6 , , , , - - * * , , * * * * , , 6 6 , , , , , , : : * * * * * * * * * * * * * * , , , , , , , , , , , , - - p p 3 3 - - & & * * < < w w p p * * & & # # & & & & & & & & & & + + + + # + & & & & & & & & & & & & & & * * * * * * * * * * * * * * * * - - - - - - - - - - - - * * * * * * * * * * * * * * * * & & & = = = = = * * * * * * * * = = & & & & & & & & = = & & & & * * * * * * * * - - , , , , , , , , , , , , , , , , 5 5 < < < < 6 6 6 6 w w w w w w w w 0 6 3 3 6 3 6 3 6 6 w 6 w 6 < < - - * * - - * * * * * * * * , , , , , , - - , , < < 6 6 , , * * * * * * & & & & - - < < 3 3 3 3 3 3 3 3 3 3 - - & & & & & & = = - - - - - - - - < < 3 3 , , - - - - < < < < , , - - * * - - , , , , , , 6 6 6 6 6 6 6 6 w w w w p p w w w w w w w w p p p p p p p p 6 6 r r 6 6 6 6 6 6 9 9 p p y p 9 9 p p p p 9 9 6 9 6 6 6 6 6 6 6 6 r r 6 6 6 6 6 6 6 6 6 6 6 6 6 6 w w r p 6 6 6 6 6 6 6 6 6 6 6 6 6 6 r r 6 6 6 6 6 6 6 6 6 6 6 6 6 6 6 6 6 6 6 6 6 6 < < , , , , 5 5 4 4 , , , , , , , , 4 4 4 4 4 4 , , : : : : : : * * * * * * , , < < < < < < - - , , w w d d d d d d d d w w - - * * - - 3 3 w w < < * * & & & & & & & & & & & & & & & & & & & & # # + + + + # # # # # # # # + + + + O O O O O O O O + + O O O O O O O O O O O O O O O O O O O O O O O O O O O O O O X X X X O O O O X X X X O O X X X X O O O O O O O O O O O O O O O O O O O O O O O O ",
"& & & & & & * * * * - - - - < < 5 5 5 5 < < < < 5 5 5 5 < < 6 6 6 6 6 6 6 6 6 6 w w w w w w w r w w r r r r w w w w 6 6 6 6 w w r r r r w w w w w w w w w w r r 6 6 , , < < 6 6 , , , , - - * * , , * * * * , , 6 6 , , , , , , : : * * * * * * * * * * * * * * , , , , , , , , , , , , - - p p 3 3 - - & & * * < < w w p p * * & & # # & & & & & & & & & & + + + + # + & & & & & & & & & & & & & & * = * * * * = * * * * * * * * * - - - - - - - - - - - - * * * * * * * * * * * * * * * * & & = = = = = = * * * * * * * * = = & & & & & & & & = = & & & & * * * * * * * * - - , , , , , , , , , , , , , , , , < 5 < < < < 6 6 6 6 w w w w w w w w w w 3 3 w 6 6 6 6 6 w w 6 6 < < - - * * - - * * * * * * * * , , , , , , - - , , < < 6 6 , , * * * * * * & & & & - - < < 3 3 3 3 3 3 3 3 3 3 - - & & & & & & = = - - - - - - - - < < 3 3 , , - - - - < < < < , , - - * * - - , , , , , , 6 6 6 6 6 6 6 6 w w w w p p w w w w w w w w p p p p p p p p 6 6 r r 6 6 6 6 6 6 9 9 y y y p 9 9 p p p p 9 9 6 6 6 6 6 6 6 6 6 6 r r 6 6 6 6 6 6 6 6 6 6 6 6 6 6 w w r w 6 6 6 6 6 6 6 6 6 6 6 6 6 6 w w 6 6 6 6 6 6 3 3 6 6 6 6 6 6 6 6 6 6 6 6 6 6 < < , , , , 5 5 4 4 , , , , , , , , 4 4 4 4 4 4 , , : : : : : : * * * * * * , , < < < < < < - - , , w w d d d d d d d d w w - - * * - - 3 3 w w < < * * & & & & & & & & & & & & & & & & & & & & # # + + + + # # # # # # # # + + + + O O O O O O O O + + O O O O O O O O O O O O O O O O O O O O O O O O O O O O O O X X X X O O O O X X X X X O X X X X O O O O O O O O O O O O O O O O O O O O O O O O ",
"* * * * - - , , , , , , < < 6 6 6 6 6 6 6 6 w w r r w w w w w w 6 6 6 6 6 6 w w r r 6 6 6 6 r r w w r r r r r r w 6 w w w w 6 w w w w w w w w w r r r r r r j j d d p p j j j j p p p p w w , , 6 6 , , & & * * & & & & & & * * , , , : * * * * , , , , - - , , 6 6 6 6 6 6 6 6 6 6 6 6 3 3 3 3 < < - - = = - - < < < < < , - - & & & & & & & & & & & & & & & & & & & & & & * * * * * * * * * * * * * * * * * * * * * * * * * * * * * * * * * * * * * * * * - - * * * * * * - - * * * * * * * * * * * * * * * * * * * * * * * * * * * * * * * * * * * * & & * * * * * * * * * * * * * : * * * * * * * * - - , , , , , , , , , , , , < < 6 6 6 6 6 6 6 6 6 6 6 6 6 6 , , , , , , - - * * & & , , - - * * * * * * , , , , 6 6 , , < < 6 6 6 6 - - & & & & - - - - = = & & & & & & - ; < 3 0 0 - - & & O O # # = = ; - - - * * = = - - - - < < < < < < < < 6 6 6 6 6 6 , < , , 6 6 6 6 6 6 5 5 w w p p p p p p d d d d j j j j p p p p p p p p p p p p p p p p 6 6 6 6 6 6 6 6 9 9 p p g g p p g g g g g g g g g p p p p p p p p p p p r r 6 6 6 6 6 6 6 6 6 6 6 6 6 6 6 6 6 6 6 6 6 6 r r r 6 6 6 w 6 6 6 6 6 6 6 5 5 5 5 4 4 6 6 6 6 6 6 6 6 6 6 6 6 , , , , 6 6 6 6 4 4 4 4 , , , , 4 4 4 4 4 4 4 , , , : : : : : : , , , , * * - * * * = = * * - - w w d d w w l l b b l l 3 3 - - < < p p p p , , * * , , 6 6 * * & & * * & & & & * * * * * * * * * * * * - - - - - - - - * * * * = = = = & & & & & & & & & & & & & & & & # # # # # # # # # # O O + + + + + + O O O O O O O O O O O O O O + + O O O O O O + + + + + + O O + + O O + + O O O O O O O O ",
"* * * * - - , , , , , , < < 6 6 6 6 6 6 6 6 p p w r w w w w w w 6 w 6 6 6 6 w w w r 6 6 6 6 r r w w r r r r r r 6 6 r w w w 6 w w w w w w w w w r r r r r r j j d d p p j j j j p p p p w w , , 6 6 , , & & * * & & & & & & * * , , , , * * * * , , , , - - , , 6 6 6 6 6 6 6 6 6 6 6 6 3 3 3 3 < < - - = = - - < < < < < < - - & & & & & & & & & & & & & & & & & & & & & & * * * * * * * * * * * * * * * * * * * * * * * * * * * * * * * * * * * * * * * * - - * * * * * * - - * * * * * * * * * * * * * * * * * * * * * * * * * * * * * * * * * * * * & & * * * * * * * * * * * * : : * * : * * * * * - - , , , , , , , , , , < < < < 6 6 6 6 6 6 6 6 6 6 6 6 6 6 , , , , , , - - * * & & , , - - * * * * * * , , , , 6 6 , , < < 6 6 6 6 - - & & & & - - - - = = & & & & & & - - < < 0 0 - - & & O O # # = = - - - - = = = = - - - - < < < < < < < < 6 6 6 6 6 6 , < , , 6 6 6 6 6 6 5 5 w w p p p p p p d d d d j j j j p p p p p p p p p p p p p p p p 6 6 6 6 6 6 6 6 9 9 p p g g p p g g g g g g g g p p p p p p p p p p p p r r 6 6 6 6 6 6 6 w 6 6 6 6 6 6 6 6 6 6 6 6 6 6 r r 6 6 6 6 w 6 6 6 6 6 6 6 5 5 5 5 4 4 6 6 6 6 6 6 6 6 6 6 6 6 , , , , 6 6 6 6 4 4 4 4 4 , , , 4 4 4 4 4 4 4 4 , , : : : : : : , , , , * * * * * * = = * * - - w w d d w w l l b b l l 3 3 - - < < p p p p , , * * , , 6 6 * * & & * * & & & & * * * * * * * * * * * * - - - - - - - - * * * * = = = = & & & & & & & & & & & & & & & & # # # # # # # # # # O + + O + + + + O O O O O O O O O O O O O O + + O O O O O O + + + + + + O O + + O + + O O O O O O O O O ",
", , , , , , , , , , , , , , , , , , , , , , < < < < 6 6 6 6 6 6 < < < < 3 3 6 6 6 6 6 6 6 6 5 5 6 6 6 6 w w 6 6 6 6 6 6 6 6 6 6 w w 6 6 6 6 w w w w w w w w p p 6 6 < < 6 6 6 6 < < , , , , < < 6 6 - - & & & & # # + + & & + + * * , , * * * * , , < < , , 6 6 < < 6 6 p p p p 6 6 < < 6 6 - < < < - - - - - - < < < < < < - - & & & & & & * * & & & & * * , , - - * * & & * * - - , , , , * * * * * * * * * * * * * * * * * * * * * * * * * * * * * * * * - - - - - - , , , , , , , , - - * * * * * * * * * * * * * * * * - - * * * * * * * * * * * * * * * * * * * * * * * * * * * * * * * * * * * * : : * * * * : : - - - - - - , , , , < < < < < < < < , , , , , , , , , , , , , , - - 6 6 < < , , , , < < 6 6 6 6 6 6 6 6 6 6 6 6 6 6 , , * * * * , , 3 3 - - ; ; = = = = - - 3 3 p p - - = = ; ; 3 3 0 0 3 3 - - = = - - - - , , 3 3 w w r r 6 6 6 6 r r 6 6 6 6 r r p p p p p p p p r r p p p p p p p p d d d d d d w w 6 6 6 6 w w p p p p p p r r 6 6 6 6 4 4 6 6 6 6 p p p p p p p p g g g g g g g g p p p p p p 6 6 6 6 6 6 6 6 6 6 4 4 5 5 6 6 4 5 5 5 6 6 6 6 6 6 6 6 6 6 6 6 6 6 6 6 4 4 4 4 , , , , , , , , 4 4 , , , , 4 4 , , 4 4 , , , , 6 6 6 6 6 6 5 5 4 4 , , , , , , - - , , , , : - : - , , , , - - - - = = & & & & * * < < p p d d p p d d d d p p 3 3 w w p p d j 6 6 - - , , w w p p < 5 * * * * - - * * * * * * * * , , , , , , , , , , , - , , , , , , , , , , - - - - - - * * & & & & & & & & & & & & & & & & & & & & & & & & & & & & & & & & & & & & # # + + + + # # O O + + # # # # # # # # # # # + # # O O O O O O O O ",
", , , , , , , , , , , , , , , , , , , , , , < < < < 6 6 6 6 6 6 < < < < 6 6 6 6 6 6 6 6 6 6 5 5 6 6 6 6 6 6 6 6 6 6 6 6 6 6 6 6 w w 6 6 6 6 w w w w w w w w p p 6 6 < < 6 6 6 6 < < , , , , < < 6 6 - - & & & & # # + + & & + + * * , , * * * * , , < < , , 6 6 < < 6 6 p p p p 6 6 < < 6 6 - < < < - - - - - - < < < < < < - - & & & & & & & * & & & & * * , , - - * * & & * * - - , , , , * * * * * * * * * * * * * * * * * * * * * * * * * * * * * * * * - - - - - - , , , , , , , , - - * * * * * * * * * * * * * * * * - - * * * * * * * * * * * * * * * * * * * * * * * * : : * * * * * * * * * * * * * * * * : : - - - - - - , , , , < < < < < < < < , , , , , , , , , , , , , , - - 6 6 < < , , , , < < 6 6 6 6 6 6 6 6 6 6 6 6 6 6 , , * * * * , , 3 3 - - ; ; = = = = - - 3 3 p p - - = = ; ; 3 3 0 w 3 3 - - = = * - - - , , 3 3 w w w w 6 6 6 6 w r 6 6 6 6 r r p p p p p p p p r r p p p p p p p p d d d d d d w w 6 6 6 6 w r p p p p p p r r 6 6 6 6 4 4 6 6 6 6 p p p p p p p p g g g g g g g g p p p p p p 6 6 6 6 6 6 6 6 6 6 4 4 5 5 6 6 5 5 5 5 6 6 6 6 6 6 6 6 6 6 6 6 6 6 6 6 4 4 4 4 , , , , , , , , 4 4 , , , , 4 4 , , 4 4 , , , , 6 6 6 6 6 6 5 5 , 4 , , , , , , - - , - , , : : : - , , , , , , - - = = & & & & * * < < p p d d p p d d d d p p 3 6 w w p p d d 6 6 - - , , w w p p < 5 * * * * - - * * * * * * - - , , , , , , , , , , , , , , , , , , , , , , - - - - - - = = & & & & & & & & & & & & & & & & & & & & & & & & & & & & & # & & & & & & # # + + + + # # + O + + # # # # # # # # # # + + # # O O O O O O O O ",
"6 6 < < , , - - * * & & & & & & & & & & & & * * = * * * * * < < < < , , < 5 6 6 6 6 6 6 < < , , , , , , , , , , , , < < 5 5 w w w w r r r r p p p p d p p p p p 6 6 - - * * * * & & # # # # * * * * & & # # & & & & & & * * , , p p j j p p r r d d j j p p p p , , , , w w w w - - = = < < p p p p 3 3 - - * * , , w w d d w w < < - - - - , , , , , , , , , , , , - - - - - - < < < < - - - , , , , , , , , , , , , , , , - , , , , , , , , , , , , , , , , , , , , , , , 5 5 6 6 5 5 , , , , , , , , , , - - , , , , - - - - * * * * * * - - , , , , , , , , , , , , , , 4 4 6 6 4 4 , , , , , , , , , , , , , , , , , , 5 5 6 6 6 6 6 6 6 6 6 6 6 6 6 6 6 6 6 6 6 6 6 6 6 6 p p p p p p p p p p p p p p p p p p p p w w 6 6 6 6 r w 6 w < < * - - - 3 3 : * 3 3 p p d d d d d d p p 3 3 p p p p d d x x d d y y - - * * 3 < < < 3 3 3 3 w w p p p p 6 6 6 6 6 6 6 6 r r p p p p p p 9 9 6 6 6 6 r r r r p p r r r r r r 5 5 < , , , 5 5 6 6 6 6 6 6 6 6 6 6 6 6 4 4 6 6 6 6 p p p p p p p p p p p p p p p p p p 9 9 9 9 6 6 6 6 6 6 6 6 4 4 4 4 4 4 4 4 4 4 4 4 6 6 6 6 6 6 6 6 6 6 6 6 6 6 6 6 4 4 4 4 , , , , , , : : : , : : : : , , , , 4 4 4 , , , 6 6 6 6 6 6 6 6 6 6 6 6 6 3 < < < , 6 6 6 6 6 6 6 6 6 w 6 6 , , p p 0 0 < < - - w w k k l l b b d d 3 3 - - < < d d l l l l d d # # = = < < w w p p d d p p w w w w , , = = & & = = = = & & # # & & & & & & & & = = * * * * - - - - - - - - * * & & & & & & & & # # # # # # & & & & & & & & & & = = = = * * * * * * & & & & + + O O O O O O O O O O O O # # # # # # # # # # # # O O O O + + ",
"6 6 < < , , - - * * & & & & & & & & & & & & * * * * * * * * < < < < , , 5 5 6 6 6 6 6 6 < < , , , , , , , , , , , , < < 5 5 r r w w r r r r p p p p p p p p p p 6 6 - - * * * * & & # # # # * * * * & & # # & & & & & & * * , , p p j j p p r r d d j j p p p p , , , , w w w w - - = = < < p p p p 3 3 - - * * , , w w d d w w < < - - * * , , , , , , , , , , , , - - - - - - < < < < - - , , , , , , , , , , , , , , , , - - , , , , , , , , , , , , , , , , , , , , , , 5 5 6 6 5 5 < , , , , , , , , , - - , , , , - - - - * * * * * * - - , , , , , , , , , , , , , , 4 4 6 6 4 4 , , , , , , , , , , , , , , , , , , 5 5 6 6 6 6 6 6 6 6 6 6 6 6 6 6 6 6 6 6 6 6 6 6 6 6 p p p p p p p p p p p p p p p p p p p p w w 6 6 6 6 w w 6 6 < < - - - - 3 3 : * 3 3 p p d d d d d d p p 3 3 p p p p d d x x d d y y - - * * 3 3 < < 3 3 6 3 w w p p p p 6 6 6 6 6 6 6 6 r r p p p p p p 9 9 6 6 6 6 r r r r p p r r r r r r 5 5 < , , , 5 5 6 6 6 6 6 6 6 6 6 6 6 6 4 4 6 6 6 6 p p p p p p p p p p p p p p p p p p 9 9 9 9 6 6 6 6 6 6 6 6 4 4 4 4 4 4 4 4 4 4 4 4 6 6 6 6 6 6 6 6 6 6 6 6 6 6 6 6 4 4 4 4 , , , , , , , : : : : : : : , : , , 4 4 , , , , 6 6 6 6 3 3 6 6 6 6 6 6 3 3 < < < , 6 6 6 6 6 6 6 6 6 6 6 6 < < p p 0 0 < - - - w w d d l l b b d d 3 3 - - < < d d l l l l d d # # = = < < w w p p d d p p w w w w , , = = & & = = = = & & # # & & & & & & & & = = * * * * - - - - - - - - * * & & # # & & & & # # # # # # & & & & & & & & & & = = = = * * * * * * & & & & + + O O O O O O O O O O O O # # # # # # # # # # # # O O O O + + ",
", , , , , , - - - - * * * * & & * * * * * * * * * * * * * * 6 6 < < , , , , 5 < < < , , , , * * * - - * * * * * * * - - - - 5 5 < < 5 5 6 6 6 6 w w r r r r p p < < * * * * * * & & & & * * & & & & # # + + & & & & & & * * d d c c n n c c j j j j j l j j p p - - * * 6 6 6 6 = = & & & & d d l l k d 3 3 - - = = - - < < c c p p < < < < 6 6 w w p p p p 3 3 p p d d p p d d j j p p < < 6 6 6 6 6 6 6 6 6 6 6 6 6 6 6 4 4 4 4 4 4 4 4 4 4 4 4 4 6 6 6 6 6 6 6 6 6 6 6 6 6 6 r r 6 6 6 6 6 6 6 6 6 6 6 6 3 6 6 6 < < < < < < , , , , < < 6 6 6 6 6 6 6 6 9 9 9 9 9 9 p p p p p p p p p p p p p p p p p p y y 9 9 9 9 9 9 9 9 6 6 6 6 6 6 9 9 r 9 9 9 r r p p p p y y p p p p g g g g g g p p p p p p d d d d p p p p w w 6 6 6 6 6 6 6 6 < < , , - - , , : : 3 3 y p d d x x x x d d p p d d d d d d d d y y - - - - 3 3 3 3 0 0 6 6 6 6 w w p p p p p p 6 6 6 6 6 6 6 6 6 6 6 6 6 6 6 6 6 6 6 6 6 6 6 6 6 6 6 6 6 6 6 6 , , , , , , , , 4 4 6 6 6 6 6 6 6 6 4 4 , , 4 4 6 6 6 6 6 6 6 6 9 9 9 9 9 9 9 9 9 9 9 9 6 6 6 6 6 6 6 6 4 4 4 4 4 4 4 4 5 4 4 4 4 4 4 4 6 6 6 6 6 6 6 6 6 6 6 6 4 4 4 4 4 4 4 4 4 4 4 4 , , , , : : , , , , , , 4 4 6 6 6 6 4 4 < < 6 6 6 6 p p p p p p r r w w l l c c c c l l j j j j d d w w d p p p p p p p p p d d k d l l 3 3 & & O O - - l l S S l l 3 3 X X - * w w 6 6 6 6 d d d d p p 3 3 - - & & & & & & = & & & # # & & & & & & & & * * - - - - - - , , , , , , - - = = & & & & & & & # # & # # & & & & & & & & & & & & & & = = = = & = & & # # + + O O O O O O O O + + # # # # # # & & & & & & & & & & & & & & ",
", , , , , , - - - - * * * * & & * * * * * * * * * * * * * * 6 6 < < , , , , 5 5 < < , , , , * * - - - - * * * * * * - - - - 5 5 < < 5 5 6 6 6 6 w w r r r r p p < < * * * * * * & & & & * * & & & & # # + + & & & & & & * * d d c c n n c c j j j j l l j j p p - - * * 6 6 6 6 = = & & & & d d l l k k 3 3 - - = = - - < < c c p p < < < < 6 6 w w p p p p 3 3 p p d d p p d d j j p p < < 6 6 6 6 6 6 6 6 6 6 6 6 6 6 6 6 4 4 4 4 4 4 4 4 4 4 4 4 6 6 6 6 6 6 6 6 6 6 6 6 6 6 9 9 6 6 6 6 6 6 6 6 6 6 6 6 6 6 6 6 < < < < < < , , , , < < 6 6 6 6 6 6 6 6 9 9 9 9 9 9 p p p p p p p p p p p p p p p p p p p y 9 9 9 9 9 9 9 9 6 6 6 6 6 6 9 9 r r 9 9 r r p p p p p y p p p p g g g g g g p p p p p p d d d d p p p p w w 6 6 6 6 r 6 6 6 < < , , - - , , : : 3 3 p p d d x x x x d d p i d d d d d d d d y y - - - - 3 3 3 3 w 0 6 6 6 6 w w p p p p p p 6 6 6 6 6 6 6 6 6 6 6 6 6 6 6 6 6 6 6 6 6 6 6 6 6 6 6 6 6 6 6 6 , , , , , , , , 4 4 6 6 6 6 6 6 6 6 4 , , , 4 4 6 6 6 6 6 6 6 6 9 9 9 9 9 9 9 9 9 9 9 9 6 6 6 6 6 6 6 6 4 4 4 4 4 4 4 4 4 4 4 4 4 4 4 4 6 6 6 6 6 6 6 6 6 6 6 6 4 4 4 4 4 4 4 4 4 4 4 4 , , , , : : , , , , , , 4 4 6 6 6 6 4 4 < < 6 6 6 6 p p p p p p r r w w l l c c c c l l j j j j d d w w d p p p p p p p p p d d k k l l 3 3 & & O O - - l l S S l l 3 3 X X - - w w 6 6 6 6 d d d d p p 3 3 - - & & & & & & = & & & # # & & & & & & & & * * - - - - - - , , , , , , - - = = & & & & & & # # & & & & & & & & & & & & & & & & & & = = = = = = & & # # + + O O O O O O O O + + # # # # # # & & & & & & & & & & & & & & ",
", , , , < < 6 6 6 6 6 6 w w < < < < < < < < < < < < < < < < 6 6 6 6 < < 6 6 6 6 6 6 6 6 < < , , , , , , , , - - - - , , < < < < , , , , , , , , < < < < 5 5 * * & & & & & & & & * * * * * * , , * * & & & & * * & & # # * * 5 5 6 6 6 6 6 6 < < , , < < < < w w , , , , < < 3 3 - , & & O O - - p p d d w w = = # # & & & & p p < < - - 6 6 d d d d w w < < p p d d k k k k l l b b b b d d 6 6 6 6 p p p p p p p p 9 9 6 6 6 6 6 6 6 6 6 6 6 6 6 6 6 6 6 6 p p p p 9 9 p p p p p p p p r 9 6 6 6 6 6 6 6 6 6 6 6 6 6 6 6 6 r r 6 6 6 w r r r r p p p p p p p p y y p p g g g g g g p p 9 9 9 9 p p p y p p p p p p p p p p 9 9 9 9 9 9 9 9 9 9 9 9 p p p p g g g g y y p p g g g g p p p p p p p p p p p p p p p p w w 6 6 6 6 6 6 6 6 6 6 6 6 < < < < 6 6 6 6 3 3 3 3 3 3 y y i i d d l l d d d d p p y y 3 3 - - - - 6 6 6 6 w 6 6 6 6 6 6 6 w w p p r r 6 6 6 6 6 6 6 6 6 6 6 6 6 6 6 6 6 6 6 9 9 9 9 9 9 9 9 9 9 9 9 9 6 6 6 6 6 6 6 6 6 6 6 6 6 6 6 6 6 6 6 6 4 4 4 4 6 6 6 6 4 4 4 4 6 6 6 6 6 6 6 6 6 6 6 6 6 6 6 6 6 6 4 4 4 4 4 4 4 4 4 4 4 4 4 4 4 4 4 4 4 4 6 6 6 6 6 6 9 9 9 9 6 6 6 6 6 6 6 6 6 6 6 6 6 6 6 6 9 9 9 9 4 4 6 6 9 9 9 9 9 9 6 6 < < 6 3 p p d d d d p p w w w 6 b b B B b b l l d d l l d d p p - - w w l l d d < 3 = = - - - - - - @ @ O O & & p p l l w w = = # # < < p p 6 0 < < 6 6 w w < < - - - - - - - - - - - - - - - - < < , , , , , , , , - , , , , , , , , , , , - - * * = = = = = = & & & & & & & & & & & & & & & & & & & & & & # & & & & & & & # # & & & & # # # # # # & & & & & & & & & & & & & & & & & & & & ",
", , , , < < 6 6 6 6 6 6 w w < 5 < < < < < < < < < < < < < < 6 6 3 3 < < 6 6 6 3 6 6 6 6 < < , , , , , , , , - - - - , , < < , < , , , , , , , , < < < < < < * * & & & & & & & & * * * * * * , , * * & & & & * * & & # # * * 5 5 6 6 6 6 6 6 < < , , < < < < w w , , , , < < 3 3 , , & & O O - - p p d d w w = = # # & & & & p p < < - - 6 6 d d d d w w < < p p d d k k k k l l b b b b d d 6 6 6 6 p p p p p p p p 9 9 6 6 6 6 6 6 6 6 6 6 6 6 6 6 6 6 6 6 p p y y 9 9 p p p p p p p p r r 6 6 6 6 6 6 6 6 6 6 6 6 6 6 6 6 r r 6 6 6 6 6 6 r r p p p p p p p p y y p p g g g g g g p p 9 9 9 9 p p p y p p p p p p p p p p 9 9 9 9 9 9 9 9 9 9 9 9 p p p p g g g g y y p p g g g g p p p p p p p p p p p p p p p p w w 6 6 6 6 6 6 6 6 6 6 6 6 < < < < 6 6 6 6 3 3 3 3 3 3 y y i i d d l l d d d d p p y y 3 3 - - - - 6 6 6 6 w 6 6 6 6 6 6 6 w w p p r r 6 6 6 6 6 6 6 6 6 6 6 6 6 6 6 6 6 6 6 9 9 9 9 9 9 9 9 9 9 9 9 9 6 6 6 6 6 6 6 6 6 6 6 6 6 6 6 6 6 6 6 6 4 4 4 4 6 6 6 6 4 4 4 4 6 6 6 6 6 6 6 6 6 6 6 6 6 6 6 6 6 6 4 4 4 4 4 4 4 4 4 4 4 4 4 4 4 4 4 4 4 4 6 6 6 6 6 6 9 9 9 9 6 6 6 6 6 6 6 6 6 6 6 6 6 6 6 6 9 9 9 9 4 4 6 6 9 9 9 9 9 9 6 6 < < 6 3 p p d d d d p p w w 6 6 b b B B b b l l d d l l d d p p - - w w l l d d 3 3 = = - - - - - - @ @ O O & & p p l l w w = = # # < < p p 3 0 < < 6 6 w w < < - - - - - - - - - - - - - - - - < < , , , , , , , , , , , , , , , , , , , , - - * * = = = = = = & & & & & & & & & & & # & & & & & & & & & & # & & & & & & & # # & & & & # # # # # # & & & & & & & & & & & & & & & & & & & & ",
"d d p p p p p p p p p p d d 6 6 6 6 w w 6 6 6 w w w 6 6 6 6 w w r w r r p p p p d d d d d d d d d d d d p p p p p p d d d d d d p p r r w w 6 6 5 5 < < , , , , - - * * - - , , , , , , , , , , * * & & & & - - * * & & - - , , , , , , 6 6 6 6 < < < < 6 6 6 6 6 6 3 3 , , 6 6 p p - - X X O O & & - - & & O O O O = = 3 3 & & # # & & w w b b l l < < & & 0 0 w 0 3 3 < < 0 0 d d l l d d 6 6 6 6 p p p p p p p p 9 9 6 6 p p p p p p p p p p p p p p p p g g p p p p g g p p p p p p p r 6 6 6 6 6 6 6 6 6 6 6 6 6 6 6 6 6 6 6 6 6 6 6 6 6 6 6 6 6 6 6 6 6 6 6 6 6 6 9 9 9 9 9 9 6 6 4 4 4 4 4 4 4 4 6 6 6 6 6 6 6 6 6 6 9 9 9 9 p p p p y y p p g g g g p p y y p p p p g g g g p p p p r r 6 6 6 6 6 6 6 6 r r w w 6 6 w w < < < , 6 6 w w p p p p p p p p y y 3 3 3 3 3 3 y y d p d d p p y y y y y y 3 3 3 3 6 6 y y 6 6 p p w w < < , , < < 6 6 5 5 , , , , , , 4 4 , 4 4 4 6 6 6 6 p p p p p p p p p p p p p p g g p p p p 9 9 9 9 9 9 p p p p 9 9 p p 9 9 6 6 6 6 9 9 6 6 6 6 4 4 6 6 6 6 4 4 4 4 , , 4 4 4 4 6 6 6 6 6 6 6 6 6 6 6 6 6 6 6 6 9 9 6 6 6 6 6 6 9 9 9 9 9 9 p p p p p g p p p p g g g g g g g g g g g g g g p p p g g g g g g g p p 6 6 w w d p d d d d w w < < , , d d l l d d < < < < w w w w < < & & p p b b l l - - @ @ O O & & 3 3 = = # # & & = = ; ; # # X X & & < < w w 3 3 < < < < 3 3 < < < < 6 6 p p p p 6 6 < < < < 6 w < < < < < < < < , , - - - - - - = = * * * * = = & & & & & & & & & & & & & & & & # & & & # # # # & & # # O O O O # # & & & & & & & & & & # # # # # # & & & & # # & & & & & & & & & & & & = = ",
"d d p p p p p p p p p p d d 6 6 6 6 w w 6 6 6 w w w 6 6 6 6 w w r w w r p p p p d d d d d d d d d d d d p p p p p p d d d d d p p p r r w w 6 6 5 5 < < , , , , - - * * - - , , , , , , , , , , * * & & & & - - * * & & - - , , , , , , 6 6 6 6 5 5 < < 6 6 6 6 6 6 3 3 < - 6 6 p p - - X X O O & & - - & & O O O O = = 3 3 & & # # & & w w b b l l < < & & 0 0 w w 3 3 < < 0 0 d d l l d d 6 6 6 6 p p p p p p p p 9 9 6 6 p p p p p p p p p p p p p p p p g g p p p g g g p p p p p p p p 6 6 6 6 6 6 6 6 6 6 6 6 6 6 6 6 6 6 6 6 6 6 6 6 6 6 6 6 6 6 6 6 6 6 6 6 6 6 9 9 9 9 9 9 6 6 4 4 4 4 4 4 4 4 6 6 6 6 6 6 6 6 6 6 9 9 9 9 p p y y y p p p g g g g p p p p p p p p g g g g p p p p r r 6 6 6 6 6 6 6 6 r r r 6 6 6 w w < < < < 6 6 w w p p p p p p p p y y 3 3 3 3 3 3 y y d p d d p p y y y y y y 3 3 3 3 6 6 y y 6 6 p p w w < < , , < < 6 6 5 5 , , , , , , 4 4 , , 4 4 6 6 6 6 p p p p p p p p p p p p p g g g p p p p 9 9 9 9 9 9 p p p p 9 9 p p 9 9 6 6 6 6 9 9 6 6 6 6 4 4 6 6 6 6 4 4 4 4 , , 4 4 4 4 6 6 6 6 6 6 6 6 6 6 6 6 6 6 6 6 9 9 6 6 6 6 6 6 9 9 9 9 9 9 p p p p p g p p p p g g g g g g g g g g g g g g p p p p g g g g g g p p 6 6 w w p p d d d d w w < < , , d d l l d d < < < < 6 6 w w < < & & p p b b l l - - @ O O O & & 3 3 = = # # & & = = - ; # # X X & & < < w w 3 3 < < < < 3 3 < < < < 6 6 p p p p 6 6 < < < < 6 w < < < < < < < < , , - - - - - - = = * * * * = = & & & & & & & & & & & & & & & & # & & & # # # # & & # # + O O O # # & & & & & & & & & & # # # # # # & & & & & & & & & & & & & & & & & & = = ",
"p p d d d d p p p p p p p p p p p p p p p p p p d d j j j j p p p p d d d d p p p p j j l l j j j j d d d d d d d d d d j j d d d d d d j j l l l l c c c c j j j j j j d d p p p p d d j j 6 6 6 6 6 6 , , - - * * * * * * , , , , , , , , , , < < < < 6 6 , , < < , , - - < < 6 6 < < = = O O O O + + # # # # & & 3 3 l l l l - - O O & & d p d d < < # # ; ; 0 0 0 0 < < ; ; 0 0 d d d d , , 6 6 6 6 6 6 6 6 p p p p 6 6 6 6 6 6 6 6 6 6 6 6 9 9 p p p p p p p p 9 9 9 9 9 9 9 9 9 9 9 9 p p 6 r 6 6 6 6 r 9 p p p p 9 9 4 4 4 4 6 6 6 6 p p 9 y p p p p 6 6 6 6 6 6 9 9 9 9 6 6 6 6 9 9 6 6 6 6 6 6 9 9 p p p p g g g g g g g g g g g g g g g g g g g g g g g g p p p p g g g g p p p p 6 6 6 6 5 5 5 5 6 6 6 6 5 5 , , , , , , , , 6 6 p p j j p p p p y y p p 3 3 - - 3 3 d p d d y y 3 3 3 3 p p y y 3 3 - - 3 3 d d p p p p p p p p p p w w 5 5 , , 4 4 6 6 6 6 6 6 9 9 p p p p p p 9 9 p p p p p p p p p p p p j j p p p p p p g g p p g g g g g g j j g g g g p p y y 9 9 9 9 6 6 6 6 6 6 6 6 p p p p p p p p p p 6 6 9 9 p p p p p p 9 9 6 6 6 6 p p p p p p p p p p p p p p p p p p p p g g p p p p d d p p p p p p j j g g p p g g p p p p j j p p d d d d d d l l l l d d w w p p l l l l w w 3 3 p p d d p p < < - - w w l l k k < < - - w w d d - - # # = = - - - - p d 3 3 d d d d w w w w 6 6 3 3 6 3 p p p p w w 6 6 < < , , - - - - - - - - - - * * - - - - - - * * & & - - & & & & & & & & & & & & & & # # & & # # & & & & & & & & & & # # & & = = & & & & & & = = & & & & & & = = - * - - - - - - - - = = & & & & # # # # & & & & ",
"p p d d d d p p p p p p p p p p p p p p p p p p d d j j j j p p p p d d p p p p p p j j l l j j j j d d d d d d d d d d j j d d d d d d j j l l l l c c c c j j j j j j d d p p p p d d j j 6 6 6 6 6 6 , , - - * * * * * * , - , , , , , , , , < < < < 6 6 , , < < , , - - < < 6 6 < < = = O O O O + + # # # # & & 3 3 l l l l - - O O & & d p d d < < # # ; ; 0 0 0 0 < < ; ; 0 0 d d d d , , 6 6 r 6 6 6 6 6 p p p p 6 6 6 6 6 6 6 6 6 6 6 6 9 9 p p p p p p p p 9 9 9 9 9 9 9 9 9 9 9 9 p p 6 6 6 6 6 6 r r p p p p 9 r 4 4 4 4 6 6 6 6 9 p 9 p y p p p 6 6 6 6 6 6 9 9 9 9 6 6 6 6 9 9 6 6 6 6 6 6 9 9 p p p p g g g g g g g g g g g g g g g g g g g g p p g g p p p p g g g g p p p p 6 6 6 6 5 5 5 5 6 6 6 6 5 5 , , , , , , , , 6 6 p p j j p p p p y y p p 3 3 - - 3 3 d p d d y y 3 3 3 3 p p y y 3 3 - - 3 3 d d p p p p p p p p p p w w 5 5 , , 4 4 6 6 6 6 6 6 9 9 p p p p p p 9 9 p p p p p p p p p p p p j j p p p p p p g g p p g g g g g g j j g g g g p p y y 9 9 9 9 6 6 6 6 6 6 6 6 p p p p p p p p p p 6 6 9 9 p p p p p p 9 9 6 6 6 6 p p p p p p p p p p p p p p p p p p p p g g p p p p d g p p p p p p j j g g p p g g p p p p j j p p d d d d d d l l l l d d w w p p l l l l w w 3 3 p p d d p p < < - - w w l l k k < < - - w w d d - - @ @ = = - - - - p p 3 3 d d p p w w w w w w 3 3 3 3 p p p p w w 6 6 < < < , - - - - - - - - - - * * - - - - - - * * & & - - & & & & & & & & & & & & & & # # & & & & & & & & & & & & & & # # & & = = & & & & & & = = & & & & & & = = * * - - - - - - - - = = & & & & # # # # & & & & ",
"p p d d j j j j j j j j j j j j d d d d j j j j j j l l j j d d d d d d d d j j j j j j c c c c c c c c c c c c c c c c c c j l l l l l c c c c c c c c l l c c l l j j j j d d d d d d j j p p p p p p 6 6 * * & & & & & & - - , , , , 6 6 6 6 6 6 < < , , , , < < < < < < w w d d p p w w < < 3 3 6 6 < < = = & & - - 3 3 3 3 < < - - < < 3 3 - - = = & & 3 3 d d k k d d d d k k l l l l d d d d d d p p p p d d d d p p d d p p p p p p p p p p p p r r 6 6 6 6 6 6 r r r r r r 6 6 6 6 6 6 6 6 6 6 r r p r p p p p p p r r p p p p p p p p p p p p p p p p 9 9 p p p p g g p p p p g g g g g g g g g g j j j j j j j j g g g g j j g j g j j j g g g g j j g g g g g g p g p p 9 9 9 6 9 9 9 9 6 6 9 9 p p p p 9 9 9 9 6 6 6 6 p p g g j j j j g g p p j j x x d d i p p i x x x x d d d d d d d d d d d d p p d d l l p p p p d d j j l l j j d d p p p p p p p p p p p p g g g g g g 9 9 p p p p p p p p p p g g j j j j j j j j j j j j j j j j j j g g g g g g p p p p p p g g g g g g g g j j g g g g p p p p p p p p p p p p p p p p p p d d j j d d p p p p p p p p g g p p p p r r p p g d d d j j j j d d p p p g j j j j j j c c c j j j l l l l b b b b b b b b B B M M b b S S S S B B l l l l b b l l p p < < 3 3 d d b b l l 3 3 - - < < - ; O O X X < < d d b b G G G G b b l l d d p p w w w 3 w w d d p p p p w w w w p p w w 3 3 < < - - - - * * * * - - * * = = & & & & & & & & & & & & & & & & & & & & & & & & & & & & & & & & = = - - - - < < < < < < < < < < , , < < < < 3 3 3 3 6 6 3 3 0 0 6 6 - - - - & & & & & & & & & & ",
"p p d d j j j j j j j j j j j j d d d d j j j j j j l l j j d d d d d d d d j j j j j j c c c c c c c c c c c c c c c c c c j l j j l l c c c c c c c c l l c c l l j j j j d d d d d d j j p p p p p p 6 3 * * & & & & & & - - , , , , 6 6 6 6 6 6 < < , , , , < < < < < < w w d d p p w w < < 3 3 6 6 < < = = & & - - 3 3 3 3 < < - - < < 3 3 - - = = & & 3 3 d d k k d d d d k k l l l l d d d d d d p p p p d d d d p p d d p d p p p p p p p p p p r r 6 6 6 6 6 6 r r r r r r 6 6 6 6 6 6 6 6 6 6 r r p r p p p p p p r r p p p p p p p p p p p p p p p p 9 9 p p p p g g p p p p g g g g g g g g g g j j j j j j j j g g g g j j g g g j j j g g g g j j g g g g g g p p p p 9 9 9 9 9 9 9 9 6 6 9 9 p p p p 9 9 9 9 6 6 6 6 p p g g j j j j g g p p j j x x d d p p p p j x x x d d d d d d d d d d d d p p d d l l p p p p d d j j l l j j d d p p p p p p p p p p p p g g g g g g 9 9 p p p p p p p p p p g g j j j j j j j j j j j j j j j j j j g g g g g g g p p p p p g g g g g g g g j j g g g g p p p p p p p p p p p p p p p p p p d d j j d d p p p p p p p p g g p p p p r r p p d d d d j j j j d d p p g g j j j j j j c c j j j j l l l l b b b b b b b b B B M M b b S S S S B B l l l l b b l l p p < < 3 3 d d b b l l 3 3 - - < < - ; O O X X - - d d b b G G G G b b l l d d p p w w 6 3 w w d d p p p p w w w w p p w w 3 3 < < - - - - * * * * - - * * = = & & & & & & & & & & & & & & & & & & & & & & & & & & & & & & & & = = - - - - < < < < < < < < < < , , < < < < 3 3 3 3 6 6 3 0 0 0 6 6 - - - - & & & & & & & & & & ",
"d d d d p p p p d d d p p p p p p p p p d d j j j j j j j j l l l l l l c c c c c c c b c c c c c c c c c c c c b b b c c c c c c c c c c c c c c c l l l j d d d d p p p p p p p p w w 6 6 p p p p w w , , & & + + & & * * , , 5 5 p p j j j j j j j j d d d d j j j l l l l l l l l l d d d d j j l l d d < < & & & & - - ; ; 3 3 d d d d p p < < < < 3 3 0 3 p p d d w w d d d d l l l l b c l l j l d d j j j j j j j j j j d d p p p p j j d d p p 6 6 6 6 p p p p d d p p p p r r 6 6 6 6 6 6 6 6 w w p p p p p p r r w w p p p p p p p p p p p p p p p p y p p p g g g p p p p p p p j j j j j j j j j j c c c j j j g g g g g g g g j j g g g g g g j j j j g j g g g g g g p p 9 9 p p 9 9 9 9 p p p p p p p p p p p p g g j j c c c c j j p p p p d d x x l l d d d d x x l l l l c l x x d d x x l l x x j j x x p p p p d d j j c c c c c c j j g g g g g g p p g g g g g g g g p p p g g g g g g g j j j j j j j j j j j j j j j j j j j j j j j j j j j j j j j j j j j j j j c c j j j j j j j j j j g g d d p p p p p p p p d d j j j j j j d d d d p p p p p p p p d d d d w w p p j j c c c c M M c c l l j j l l j j j j c c l l d d d d l l N b S S B B b b N B S S S S S B B B l l d d l l b b l l < < 3 3 l l S S N N p p = = & & - - - - # # O O < < l l S S L L L R b b l l d d d d p p w w 3 3 w w w w w w w w p p d d j j d d w w w w 3 3 3 3 3 3 3 3 < < , , - - - - - - - - - - - - - - - - - - * * = = - - - - - - - - - - - - w w p p d d d d d d d d d d d d p p p p d d p p p p d d p p p p < < , , - - = = = = = = * * ",
"d d d d p p p p d d d p p p p p p p p p p d j j j j j j j j l l l l l l c c c c c c c b c c c c c c c c c c c c b b b b b c c c c c c c c c c c c c l l l l d d d d p p p p p p p p w w 6 6 p p p p w w , , & & + + & & * * , , 6 5 p p j j j j l j j j d d d d j j j l l l l l l l l l d d d d j j l l d d < < & & & & - - ; ; 3 3 d d d d p p < < < < 3 3 0 0 p p d d w w d d d d l l l l b c l l j j d d j j j j j j j j j j d d p p p p j j d d p p 6 6 6 6 p p p p d d p p p p w r 6 6 6 6 6 6 6 6 w w p p p p p p r r w w p p p p p p p p p p p p p p p p p p p p g g g g p p p p p p j c j j j j j j c j c c j j j j g g g g g g g g j j g g g g g g c c j j j j g g g g g g p p 9 9 p y 9 9 9 9 p p p p p p p p p p p p g g j j c c c c j j p p p p d d x x l l d d d d x x l l l l l l x x d d x x l l x x j j x x p p p p d d j j c c c c c c j j g g g g g g g p g g g g g g g g p p p p g g g g g g j j j j j j j j j j j j j j j j j j j j j j j j j j j j j j j j j j j j j j c c j j j j j j j j j j g g d d p p p p p p p p d d j j j j j j d d d d p p p p p p p p d d d d w w p p j j c c c c M M c c l l j j l l j j j j c c l l d d d d l l N N S S B S b b N N S S S S S B b M l l d d l l b b l l < < 3 3 l l S S N N p p ; = & & - - - - # # O O < < l l S S L L R R b b l l d d d d p p w w 3 3 w w w w w w w w p p d d j j d d w w w w 3 3 3 3 3 3 3 3 < < , , - - - - - - - - - - - - - - - - - - * * = = - - - - - - - - - - - - w w p p d d d d d d d d d d d d p p p p d d p p p p d d p p p p < < , , - - = = = = = = = = ",
"p p w w 6 6 6 6 6 6 6 6 6 6 6 6 6 6 w w p p d d j j d d p p p p w w w w p p p p d d p p p p d d d d d d d d d d d d d d d d l l l l l l c c c c l l j j j j l l j j j j j j j j j j j j d d j j p p 6 6 * * & & * * < < p p p p j j c c b b M M M M b b b b B B B B b b b b l l l l l l l l d d d d d d d d 3 3 - - & & = = - - - - 3 3 d d k l k k k k k k < < 3 3 < < - - - - 3 3 p p d d j j d d d d d d j j l l j j j j p p 6 6 6 6 6 6 p p d d p p 6 6 d d j j l j l l j j p p p p r r 6 6 6 6 6 6 w w p p p p 6 6 6 6 6 6 r r p p p p p p p p p p p p p p 9 9 9 9 p p p p y y p p p p j j g g g g g g g g g g g g p p g g j j j j c c j j c c j j j j c j j j j j c c c c c c c c g g p p p p p p p p p p g g p p p p p p p p j j j j g g p p 9 9 6 6 6 6 d p d d d d d d l l b c c b b b l l x x l l l l x x d d p d p p p p p p p p d d j j j j g g p p p p p p g g g g g g p g p p j j j j j c j j j j c c c c c c j j j j j j c c j j j j j j j j j j j j j j j j j j g g g g j j j j j j j j j j j j g g g g d d p p d d j j j j j j j j j j j j p p d d d d j j d d j j j j j j d d j j l l c c b b B B M M M M d d j j d d d d j j p p 5 5 , , w w l l B B B B b b l l l l b b b b l l w w w w d d l l d d - - d d F F L L b b = = O O & & - - 3 3 - - & & < < d d S S L L G G l l l l l l l l l l d d w w 3 3 w w w w 3 3 w w d d l l d d w w d d p p p p p p w w w w 3 3 < < , , < < < < < < - - - - - - < , - - - - - - - - - - - - - - - - < < w w d d p p p p d d p p w w 3 3 3 3 w w 6 6 0 3 6 6 6 6 3 3 - - - - - - * * * * * * - - ",
"p p w w 6 6 6 6 6 6 6 6 6 6 6 6 6 6 w w p p d d j j d d p p p p w w w w p p p p d d p p p p d d d d d d d d d d d d d d d d l l l j l l c c c c l l l l j j l l j j j j j j j j j j j j d p j j p p 6 6 * * & & * * < < p p p p j j c c b b M M M M b b b b B B B B b b b b l l l l l l l l d d d d d d d d 3 3 - - & & = = ; ; - - 3 3 d d k l k k k k k k < < 0 3 < < - - - - 0 3 p p d d d j d d d d d d j j l l j j j j p p 6 6 6 6 6 6 p p d d p p 6 6 d d j j l j l l j j p p p p r r 6 6 6 6 6 6 w w p p p p 6 6 6 6 6 6 w r p p p p p p p p p p p p p p 9 9 9 9 p p p p y y p p p g j j g g g g g p g g g g g g p p g g j j j j c c c j c c j j j j j j j j j j j j c c c c j j g g p p p p y y p p p p g g g p p p p p p p j j j j g g p p 9 9 6 6 6 6 d p d d d d d d l l c c c c b b l l x x l l l l x x d d p d p p p p p p p p d d j j j j g g p p p p p p g g g g g g p p p p j j j j j c j j j j c c c c c c j j c j j j c c j j j j j j j j c j j j j j j j j j g g g g j j j j j j j j j j j j g g g g d d p p d d j j j j j j j j j j j j p p d d d d j j d d j j j j j j d d j j l l c c b b B B M M M M d d j j d d d d j j p p 5 5 , , w w l l B B B B b b l l l l b b b b l l w w w w d d l l d d - - d d F F L L b b = = O O & & - - 3 3 - - & & < < d d S S L L G G l l l l l l l l l l d d w w 3 3 w w w w 3 3 w w d d l l d d w w d d p p p p p p w w w w 3 3 < < , , < < < < < < - - - - - - , , - - - - - - - - - - - - - - - - < < w w d d d p p p d d p p w w 3 3 3 3 w w 6 6 6 6 6 6 6 6 3 3 - - - - - - * * * * * * - - ",
"w w w 6 6 6 r w p p p p d d p p p p d p j j j j l l j j j j p p p p w w p p p p d d p p 6 6 p p p p d d d d p p p p p p p p p p d d j j l l l l l l j l j j j j j j j j c c b b n n c c c c M M c c p p p p p p j j l l c c M M M M M M M M c c b b l l l l b b l l l l d d d d d d l l l l l l d d d d d d d d w w < < - - < < = = & & - - 0 0 d d w w 0 0 < < < < - - - - - - < < < < < < - - - - < < w w d d d d d d p p w w < < - - < < w w p p p p w w p p p p p p d d d d p p w w 3 3 3 3 6 6 6 6 w w p p p p p p 6 w p p p p d d j j d d p p p p w w p p 9 9 9 9 p p p p p p p p g g p p p p 9 9 9 9 p p p p p p p p j j j j j j j j c c c j j j j j g g g g g g j j j j c c c c j j j j g g p p p p g g g g p p p p 9 9 p p p p y y 9 9 6 6 6 6 6 6 p p p p 6 6 p p j j c c c c c c b b c c c c c c l l j j p p p p p p p p 6 6 6 6 r 9 p p g g p p p p p p g g g g g g g g g g g g c c c c c c c c c c c c c c c c c c c c c c c c c c c c c c c c j j j j j j g g p p p p p p p p g g g g g g j j j g g g g p p p j j d d d d d d l l l l c c c b d d l l l l b b b b c c c c b b b b l l j j d d d d l l d d d d w w p p w w w w p p < < & & & & 3 3 d d l l l l d d d d d d d d b b l l d d d d k k l l p p < < k k S S S S 0 0 O O O O & & < < < - < < ; ; < < l k L L ....) ) b b b b b b B B b b l l d d p p k k k k d d p p d d l l d d w w w w 6 6 3 3 < < < < < < - - - - * * - - - - - - = = & & = = * * & & & & & & & & & & & & & & & & & & = = = * * * - - - - * * & & * * = = - - - - - - - - - - - - & & & & & & = = = = * * * * ",
"6 w w 6 6 6 r w p p d d d d p p p p d d j j j j l l l j j j p p p p w w p p p p d d p p 6 6 p p p p d d d d p p p p p p p p p p d d j j l l l l c c j j j j j j j j j j c c b b n n c c c c M M c c p p p p p p j j l l c c M M M M M M M M c c c b l l l l b b l l l l d d d d d d l l l l l l d d d d d d d d w w < < - - < < = = & & - - 0 0 d d w w 0 0 < < < < - - - - - - < < < < < < - - - - < < w w d d d d d d p p w w < < - - < < w w p p p p w w p p p p p p d d d d p p w w 3 3 3 3 6 6 6 6 w w p p p p p p 6 w p p p p d d j j d d p p p p w w p p 9 9 9 9 p p p p p p p p g g g g p p 9 9 9 9 p p p p p p p p j j j j j j j j c c j j j j c c g g g g g g j j j j c c c c j j j j g g p p p p g g g g g g p p 9 9 p p p p y y 9 9 6 6 6 6 6 6 p p p p 6 y p p j j c c c c c c b b c c c c c c l l j j p p p p p p p p 6 6 6 6 r r p p g g p p p p g p g g g g g g g g g g g g c c c c c c c c c c c c c c c c c c c c c c c c c c c c c c c c j j j j j j g g p p p p p p g g g g g g g g j d j d g g p p p p j j d d d d d d l l l l c c c b d d l l l l b b b b c c c c b b b b l l j j d d d d l l j j d d w w p p w w w w p p < < & & & & 3 3 d d l l l l d d d d d d d d b b l l d d d d k k l l d d < < k k S S S S 0 0 O O O O & & < < - - < < ; ; < < l k L L ] ] ) ) b N b b b b B B N N l l d d p p k k k k d d p p d d l l d d w w w w 6 6 3 3 < < < < < < - - - - * * - - - - - - = = & & = = * * & & & & & & & & & & & & & & & & & & = = = = * * - - - - * * & & = - = = - - - - - - - - - - - - & & & & & & = = = = = = * * ",
"j j j j j j c c c c c c c c j j j j l l c c c c b M b b c c M M b b c c b b c c b b b c c c c c c c c c b c c c c c c c l l j j l j c c n n b b n n c c c c c c c c c c M M B B S S S S S S G G D D S S S S D D D D S S b b S S S S B B M M b b b b b b b b b b l l d d p p p p d d d d d d l l d d j l b b B B b b b b l l d d 0 0 < < < < ; ; ; ; ; ; - ; - < - - - - < < 3 3 - - = ; & & # # & & ; ; 3 3 w w w w 3 3 3 3 w w < < - - - - , , < < 3 3 < < - - - - - - - - 3 3 w w 6 6 < < p p p p p p d d j j j j j j j j d d d d j j j j p p w w 6 6 < < 6 6 6 6 6 6 p p p p p p p p d d d d p p p p p p p p p p p p p p p p p p g g g g g g j j g g g g g g p p p p g g j j j j g g p p g g p p p p p p p p p p p p p p p p p y 9 9 9 9 p p p p p p p p d d p p 6 6 p p j j l l l l j j c c c c c c c c j j p p p p p p j j g p p p p p p p j j j j j j p p g g p p p p p p g g g g g g j j j j j j g g c c c c c c c c g g g g g g g g g g g g j j j d p p p p g g p p p p p p g g g g j j j j c j j j j j j j g g d d j j p p w w w w d d l l b b B B l l b b b b B B M M M M M M B B S S M M l l d d p p w w < < - - 3 3 w w w w w w w w < < & & & & d d d d d d d d w w w w d d d d d d 3 3 < < 3 3 d d d d p p 0 0 d d d d 0 0 # @ @ O & & < < < < 3 3 p p 0 0 w 0 l l R L ....) ) G G S S b b l b l l d d d d p p S S S S B B l l l l l l d d d d w w w w w w w w w w 6 6 3 3 < < 3 3 3 3 6 6 6 6 3 3 3 3 < < 3 3 < < < < < , < < - - - - - - - - * * - - - - * * * - - - - - = = - - * * - - - - - - - - - - - - - - - - - - - - , , , - , , ",
"j j j j l j c c c c c c c c j j j j l l c c c c n n b b c c M M b b b b b c c c b b b c c c c c c c c c b c c c c c c c l l j j l j c c n b b b n n c c c c c c c c c c M M B B S S S S S S G G D D S S S S D D D D S S b c S S S S B B M M b b b b b b b b b b l l d d p p p p p p d d d d l l d d l l b b B B b b b b l l d d 0 0 < < < < ; ; ; ; ; ; - - < < - - - - < < < 3 - - = ; & & # # & & ; ; 3 3 w w w w 3 3 3 3 w w < < - - - - , , < < 3 3 < < - - - - - - - - 3 3 w w 6 6 < < p p p p p p d d j j j j j j j j d d d d j j j j p p w w 6 6 < < 6 6 6 6 6 6 p p p p p p p p d d d d p p p p p p p p p p p p p p p p p p g g g g g g j j g g g g g g p p p g g g j j j j g g p p g g p p p p p p p p p p p p p p p p p p 9 9 9 9 p p p p p p p p d d p p 6 6 p p j j l l l l j j c c c c c c c c j j p p p p p p j j g g p p p p p p j j j j j j p p p g p g p p p p g g g g g g j j j j j j g g c c c c c c c c g g g g g g g g g g g g j j j j p p p p g g p p p p p p g g g g j j j j j j j j j j j j g g d d j j p p w w w w d d l l b b B B l l b b b b B B M M N B M M B B S S M M l l d d p p w w < < - - 3 3 w w w w w w w w < < & & & & d d d d d d d d w w w w d d d d d d 3 3 < < 3 3 d p d d p p 0 0 d d d d 0 0 # @ O O & & < < - < 3 3 p p 0 0 w 0 l b R L ....) ) G G S S b b l l l l d d d d p p S S S S B B l l k l l l d k d d w w w w w w w w w w 6 6 3 3 < < 3 3 3 3 6 6 6 6 3 3 3 3 < < 3 3 < < < < < < < < - - - - - - - - * * - - - - * * - - - - - - = = - - * * - - - - - - - - - - - - - - - - - - - - , , , , , , ",
"c c c c b b b b b b c c c c b b n n c c b b M M M M M M M M M M M M M M M M c b M M M M B B B B S S S S S S S S S S S S S S B B B B S S S S S S S S S S B B S S F F D D L L L L L L L L Y Y Y Y L L L L L L L Y L L D D S S D D D F S S F F F F F F G G D D S S b b d d p p p p p p d d d d l l l l M M F F G G F F S S S S b b b b k k d d w w 0 0 < < 0 0 d d w w w w w w w w w w < < ; = & & = = < < p p p p 3 3 3 0 0 0 p p w 0 3 3 < < < < 3 3 3 3 3 3 < < - - & & = = < < p p p p w w d d d d d d d d j j l l l l d j p p d d d d d d d d w w 3 3 , , < < , , 6 6 w w p p p p p p j j j j d d p p p p p p p p p p p p r r 9 9 p p p p p p p p p p p p p p g g p p p p p p p p p p 9 9 p p 9 9 9 9 9 9 p p p p 9 9 9 9 p p p p p p p p g g j j g g p p j j d d p p p p p p d d j j j j j j j j j j j j d d p p p p p p j j j j j j j j c c c c j j j j p p y p p p g p g g p p p p p p g g g g g g g g c c c c j j j j g g g g g g g g g g g g g g j j j j g g g g g g g g g g g g d d j j c c c c c c c c c c c c l j p d p p w w w w d d c c b b b b l l l l b b b b l l l l b b b b b b b b b b l l j j d d 3 3 * * < < p p d d d d l l d d w w w w b b b b l l d d d d k k l l b b 0 0 < < - - w w k k l l k k l l b b b b d d 0 0 d d b b b b k k S S S S b b N N B B F F / / R R G G S S b b l l l k d d d d d d S S G G G G S S l l l l l l l l l l l l l l l l l l l l j l d d l l l l l l l l l l l l l l j j d d d d d d d d d d d d d d d d d d d d d d p p p p d d p p w w w w 6 6 0 0 w w w w 6 6 w 0 0 0 6 6 w w w w w w w w w w 3 3 ",
"c c c c b b b b b b c c c c b b n n c c b b M M M M M M M M M M M M M M M M c b M M M M B B B B S S S S S S S S S S S S S S B B B B S S S S S S S S S S B B S S F F D D L L L L L L L L Y Y Y Y L L L L L L L L L L D D S S D D D D S S F F F F F F G G D D S S b b d d d p p p p p d d d d l l l l M M F F G G F F S S S S b b b b k k d d w w 3 3 < < 0 0 d d w w w w w w w w 6 6 < < ; = & & = = < < p p p p 3 0 0 0 0 0 p p w w 3 3 < < < < 3 3 3 3 3 3 < < - - & & = = < < p p p p w w d d d d d d d d j j l l l l d d p p d d d d d d d d w w 3 3 , , < < , , 6 6 w w p p p p p p j d j j d d p p p p p p p p p p p p r r 9 9 p p p p p p p p p p p p p p g g p p p p p p p p p p 9 9 p p 9 9 9 9 9 9 p p p p 9 9 9 9 p p p p p p p p g g j j g g p p j j d d p p p p p p d d j j j j j j j j j j j j d d p p p p p p j j j j j j j j c c c c j j j j p p p p p p g g g g g p p p p p g g g g g g g g c c c c j j j j g g g g g g g g g g g g g g j j j j g g g g g g g g g g g g d g j j c c c c c c c c c c c c j j p p p p w w w w d d c c b b b b l l l l b b b b l l l l b b b b b b b b b b l l j j d d 3 3 * * < < p p d d d d l l d d w w w w b b b b l l d d d d k k l l b b 0 0 < < - - w w k k l l l k l l b b b b d d 0 0 d d b b b b k k S S S S b b N N B B F F / / R R G G S S b b l l l k d d d d d d S S G G G G S S l l l l l l l l l l l l l l l l l l l l l l d d l l l l l l l l l l l l l l j j d d d d d d d d d d d d d d d d d d d d d d p p p p d d p p w w w w 6 6 0 0 w w w w 6 6 w w 6 w 3 3 w w w w w w w w w w 3 3 ",
"j j l l c c b b M M M M M M S S B B M M B B S S S S S S S S B B S S S S S S B B S S S S D D D D D D J J L L L L Y Y Y Y L L J J L L Y Y Y Y Y Y L L D D D D S S S S D D D D D D D D L L L L L L L L D D G G L L L L L L L L L L L L L L L L L L L L L L L L D D b b d d d d d d d d l l l l b b S S G G L L G G S S B B b b S S N N b b N N N N b b l l l l S S M M l l j j l l l l d d k d < < 3 3 d d l l d d w w 0 0 d d d d d d d d d d d d d d d d d d d d < < = = ; - 0 0 d d l l d d d d d d p p p p w w w w w w 3 3 p p p p d d d d j j d d p p r r 6 6 6 6 6 6 p p d d j j j j l l d d p p p p 6 6 6 6 6 6 6 6 6 6 p p p p g g d d d d d d d d d d p p p p p p p p p p p p p p p p p p p p p p p p p p p p p p p p p p p p p p d d j j c c j j p p l l j j j j j j d d d d j j c c j j p p d d d d j j d d p p d d j j j c c c c c c c c c d d p p j j j j j j j j j j j j g g g g j j g g p p g g j j j j j j j j j j j j j j c c c c c c c c c c l l l l j j j j d d p p p p d d d d j j c c M M M M M M b b c c d d d d l l b b B B B B M M b b d d d d d d d d p p p d d d l l d d d d l l b c b b b b d d < < < < d d l l c l b b b b b b b N S S S S N N b b b b B N S S N N S S b b l l B B F F G G F F L L R R / / / / / / R R R R R R L L ) ) / / L L / / L L F F E E / / R R G G S S S S B B N N b b b b N N F F L L S S b b b b b b b b b c b b c c c c b b b b b b b b l l d d d d l l l l l l l l d d d d j j j j l l l l l l l l l l c c b c l l j j j j l l l l d d d d d d d d d d d d d d d d d d p p p p p p p p w w 3 3 < < ",
"j j l l c c b b M M M M M M S S B B M M B B S S S S S S S S B B S S S S S S B B S S S S D D D D D D J J L L Y Y Y Y Y Y L L J J J L Y Y Y Y Y Y L L D D D D S S S S D D D D D D D D L L L L L L L L D D G G L L L L L L L L L L L L L L L L L L L L L L L L D D b b d d d d d d d d k k l l b b S S G G L L G G S S B B b b S S N N b b N N N N b b l l l l S S M M l l j j l l l l d d d d < < 3 3 d d l k d d w w 0 0 d d d d d d d d d d d d d d d d d d d d < < = = ; ; 0 0 d d l l d d d d d d p p p p w w w w w w 3 3 p p p p d d d d j j d d p p w r 6 6 6 6 6 6 p p d d j j j j l l d d p p p p 6 6 6 6 6 6 6 6 6 6 p p p p g g d d d d d d d d d d p p p p p p p p p p p p p p p p p p p p p p p p p p p p p p p p p p p p p p d d j j c c j j p p l l j j j j j j d d d d j j c c j j p d d d d d j j d d p p d d j j j j c c c c c c c c d d p p j j j j j j j j j j j j g g g g j j g g p p g g j j j j j j j j j j j j j j c c c c c c c c c c l l l l j j j j d d p p p p p p d j j j c c M M M M M M b b c c d d d d l l b b B B B B M B b b d d d d d d d d p p d d d d l l d d d d l l b c b b b b d d < < < < d d l l c l b b b b b b N N S S S S N N b b b b B B S S N N S S b b l l B B F F G G F F L L R R / / / / / / R R R R R R R R ) ) / / L L / / L L F F E E / / R R G G S S S S B B N N b b b b N N F F L L S S b b b b b b b b b b b b c c c c b b b b b b c c l l d d d d l l l l l l l l d d d d j j j j l l l l l l l l l l c c c c l l j j j j l l l l d d d d d d d d d d d d d d d d d d p p p p p p p p w w 3 3 < < ",
"c c c c c c c c b b b b n n B B S S D D G G G G G G L L Y Y L L L L L L Y Y Y Y Y Y E E / / Y Y / / / / E E Y Y Y Y E E Y Y D D S S S S L L G G M M c c b b c c n n n n c c b b S S S S S S B B S S B B B B S S S S D D S S S S L L Y Y Y Y Y Y / W / / E E B B l l d d l l l l d d l l S S S S G G G L F F S S S S B B b b F F F F F F F F F F S S S S S S F F F F F F S S S S S S S S N b l l S S F F B B b b b b B B b b F F S S B B l k d d l l k d p p d d < < = = - - w w w w w w d d p p p p p p d d d d 0 w < - - - < < - - - - < < w w d d l l d d d d w w 6 6 d d k d d d d d d d 3 3 w w w w w w 3 3 3 3 p p j d d d j j j j d d d d j j c c c c d d 6 6 6 3 d d M M M M c c p p p p w w < < , , 6 6 d d d p 6 6 p p p p p p p p p d d d j j p p p p j j j j d d p p d d j j l l j j j j d d d d d d j j j d d j p p p p p p j j j j p d j j j j c c g g p p j j c c j j p p w w 6 6 p p d d j j b b S S B B l l l l j d l l b b S S B B M M M B b b S S F F B B l l d d d d d d d d d d w w w w k k B B B B b b p p d d k k b b b b l l k k d d d d d d w w 0 0 p p d d k k b b N b b N b b d d d d p p p p w w - - p p b b S S B B B B S S F F S S R R / / R R L L L L R R ' ' ] ] / / L L L L R R R R L L F F L L / / E E F F L L / / R E L L / / G G F F G G G G G G G G L L L L F F S S B B N N b b b b b b k k b b B B F F S S b b d d k k d d d d l l c c b b b b M M M M b n b b b b b b b b b b b b b b l l l l l l l l l l b b b b b b l l l l l l c c l l l l l l l l d j d d d d d d d d d d p p w w w w w w w w 6 6 3 3 , , * * ",
"c c c c c c c c b b b b n n B B S S D D G G G G G G L L Y Y L L L L L L Y Y Y Y Y Y E E E / Y Y / / / / E E Y Y Y Y E E Y Y D D S S S S L L G G M M c c b b c c n n n n c c b b S S S S S S B B S S B B B B S S S S D D S S S S L L Y Y Y L Y Y W W / / E E S S l l d d l l l l d d b l S S S S G G G L F F S S S S B B b b F F F F F F F F F F S S S S S S F F F F F F S S S S S S S S N N l l S S F F B B b b b b B B b b F F S S B B l l d d l l k k p p d d < < = = - - w w w w w w d d p p p p p p d d d d 0 0 < - - - < - - - - - < < w w d d k k d d d d w w 6 6 d d k k d d d d d d 3 3 w w w w w w 3 3 3 3 p p j d d d j j j j d d d d j j c c c c d d 6 6 6 3 d d M M M M c c p p p p w w < < , , 3 6 d d d p 6 w p p p p d p p p p d d d j j p p p p j j j j d d p p d d j j l l j j j j d d d d d d j j j j j j p p p p p p j j j j p p j j j j c c g g p p j j c c j j p p w w 6 6 p p d d j j b b S S B B l l l l j d l l b b S S B B M M M B b b S S F F B B l l d d d d d d d d d d w w w w k k B N B B b b p p d d k k b b b b l l k k d d d d d d w w 0 0 d d d d k k b b b b b N b b d d d d p p p p w w - - p p b b S S B B B B S S F F S S R R / / R R L L L L R R ' ' ] ] / / L L L L R R R R L L F F L L / / E E F F L L / / R E L L / / L L F F G G G G G G G G L L L L F F S S B B b b b l b b b b k k b b B B F F S S b b d d k k d d d d l l b b b b b b M M M B n n b b b b b b b b b b b b b b l l l l l l l l l l b b b b b b l l l l l l l c l l l l l l l l d d d d d d d d d d d d p p w w w w w w w w 6 6 3 3 , , * * ",
"c c c c c c c c c c c c b c c b M M B B S S S S S S D D D D S S S S S S D D L L L L Y Y E E Y Y E E E E Y Y J J D D D D S S L L D D S S S S M M j j j j c c c c n n n n c c c c M M B B M M M M B B B B B B S S D D J J S S J J E E W W / / / / _ _ / / E E b b j j p p d d p p w w d d l l d d b b b b b b b b l l l l d d S S S S S S B B B B B B B B B B S S S S S S B B B M S B N N b b N N F F L L G G G G G G F F S S F F D D F F b b l l l l l l d d l l p p < < < < - - - - < < 3 3 d d d d d d k k k k d d d d d d w w w w w w w w p p p p 3 0 - - - - - - < < d d l b l l k d d d p p w w 0 0 3 3 w w w w p p p p l l l l l l d d d d l l l l b b d d w w w w d d l l b b c c l l p p p p p p w w d d l l b b b b b b c c l l j j l l b b l l j j p p p p 6 6 6 6 6 6 p p j j j j j j j j l l j j j j p p 6 6 < < < < 6 6 p p l l c c b b b b c c c c j j j j b b B B M M j j w w 3 3 p p l l b b b b N N N N b b w w w w d d l l b b l l d d d d b b N N N N b b k k d d d d k d w 0 0 0 d d b b N N N N N N N N b b d d < < < < 3 3 p p d d l l k k k k l l b b N N N N b b b b b b b b b b l l d d 3 3 w w d d b b S S G L G G S S S S G G L L / / ) ) / / R R ) ) ] ] ' ' ) ) ) ) / / R R R R R R K K F F S A N N S S N N N N S S S S N N N N G G F F S S S S B B l l d d d d b N l l k k d d d d d d k k l l b b b b b b N N b b b b k k d d l l l l b b b b B B B B B B B B S S S S B B B B B B B B B M b b b b b b b b b b c c b c b b b b c c l l l l l l l l d d p p p p w w w w w w w w w w w w 3 3 3 3 3 3 3 3 3 3 3 3 3 3 < < - - ",
"c c c c c c c c c c c c b c c c M M B B S S S S S S D D D D S S S S S S D D L L L L Y Y E E Y Y E E E E Y Y J J D D D D S S L L D S S S S S M M j j j j c c c c n n n n c c c c M M B B n n M M B B M M B B S S S D J J S S J J E E W W / / / / _ _ / / E E b b j j p p d d p p w w d d l l d d b b b N b b l l l l l l d d S S S S S S B B B B B B B B B B S S S S S S B B B M S B N N b b N N F F L L G G G G G G F F S S F F D D F F b b l l l l l l d d l l p p < < < < - - - - < < 3 3 d d d d d d k k k k d d d d d d w w w w w w w w p p p p 3 3 - - - - - - < < d d l l l l d d d d p p w w 0 0 3 3 w w w w p p p p l l l l l l d d d d l l l l b b d d w w w w d d l l b b c c l l p p p p p p w w d p l l b b b b b b c c l l j d l l b b l l j j p p p p 6 6 6 6 6 6 p p j j j j j j j j l l j j j j p p 6 6 < < < < 6 6 p p l l c c b b b b c c c c j j j j b b B B M M j j w w 3 3 p p l l b b b b N N N N b b w w w w d d l l b b l l d d d d b b N N N B b b k k d d d d k k w 0 0 0 d d l l N N N N N N N N b b d d < < < < 3 3 p p d d l l l l l l l l b b N N N N b b b b b b b b b b l l d d 0 3 w w d d b b S S G G G G S S S S G G L L / / ) ) / / R R ) ) ] ] ' ' ) ) ) ) / / R R R R R R K K F F S A N N S S N N N N S S S S N N N N G G F F S S S S B B l l d d d d b N l l k k d d d d d d k d l l b b b b b b N N b b b b k k d d l l l l b b b b B B B B B B B B S S S S B B B B B B B B B B b b b b b b b b b c c c c c b b b b b c l l l l l l l l d d p p p p w w w w w w w w w w w w 3 6 3 3 3 3 3 3 3 3 3 3 3 3 < < - - ",
"c c c c l l l l c c c c c c l l c c c c l l j j d d j j j j c c c c c c c c M M M M B B S S S S D D G D S S S S S S S S S S S S S S S S M M c c c c b b B B B B S S S S B B B B D D J J J J J J I I L L I I Y Y E E E E E E E E W W / / / / / / ) ) E E L L d d d d d d d d w w < < < < 0 0 3 3 w w p p p p p p w w w w d p l l d d d d d p p p p p d d d d p p d d d d l l b b S S B B b b b b S S G G G G G G L L G G F F F F L L L L S S b b b b b b b b G G S S b b l l d d < < < < w w d d d d d d d d l l b b b b S S l l b b N N b b k k d d 3 3 ; ; = = = = < < d d l l l l d d p p < < - - ; ; < < w p d d d d w w d d d d d d w w w w p p d d d d d d d d p p w w w w w w w w w w l l l l d d w w w 6 d d c c M M S B c c d d d d b c B B b b l l w w 3 3 - - - - < < 6 6 w w w w w w p p d d d d p p w w 3 3 < < , < < < w w d d b b B B b b b b j j d d l l M M S S b b p p , < d d l l b b N N l l w w 3 3 3 3 p p d d b b b b l l l l p p 0 0 k k k k k k b b b b b b N N S S d d < < < < d d b b B B S S G G b b w w = = - - p p b b F F L L G G L L L L R R L L L L F F S S N N b b b b N N N N b b b b S S R R ) ) _ _ / / L L L L / / / / ] ] @.@.....) ) ) ) ....] ] ] ] / / / / / / / / / / / / ^ / R R l l d d w w d d k k p p 0 3 d d d d l l l l l l l l l l k d d d k k d d 0 0 w w d d d d k k b b S S S S S S B B F F R R L L B B n n B B B B B B B B B B S S S S S S S S B B B B B B B B M M b b b b c c l l l l j j j j j j l l l l l l l l l l j j d d d d d d d p p p p p p p p p p p w w 3 3 w w w w 6 3 3 3 3 3 < < - - ",
"c c c c l l l l c c c c c c l l c c c c l l j j d d j j j j c c c c c c c c M M M M B B B S S S D D G D S S S S S S S S S S S S S S S S M M c c c l b b B B B B S S S S B B S B D D J J D J J J I I L L I I Y Y E E E E E E E E W W / / / / / / ) ) E E L L d d d d d d d d w w < < < < 3 0 3 3 w w p p p p p p w w w w p p l l d d d d p p p p p p d d d d d d d d d d l l b b S S S S b b b b S S G G G G G G L L G G F F F F L L L L S S b b b b b b b b G G S S b b l l d d < < < < w w d d d d d d d d l l b b b b S S k l b b N N b b k k d d 3 3 ; ; = = = = < < d d l l l l d d p p < < - - ; ; < < p p d d d d w w d d d d d d w w w w p p d d d d d d d d p p w w w w w w w w w w l l l l d d w w w w d d c c M M B B c c d d d d b b B B b b l l w w 3 3 - - - - < < 6 6 w w w w w w p p d d d d p p w w 3 3 < < , < < < w w d d b b B B b b b b l j d d l l M M S S b b p p , < d d l l b b N N l l w w 3 3 3 3 p p d d b b b b l l l l p p 0 3 k k k k k k b b b b b b N N S S d d < < < < d d b b B B S S G G b b w w = = - - p p b b F F L L G G L L L L R R L L L L F F S S N N b b b b N N N N b b b b S S R R ) ) _ _ / / L L L L / / / / ] ] @.@.....) ) ) ) ....] ] ] ] / / / / / / / / / / / / ^ / R R l l d d w w d d k k i i 3 3 d d d d l l l l l l l l l l k k d d k k d d 0 0 w w d d k k k k b b S S S S S S B B F F R R L L B B M M M M B B B B B B B B S S S S S S S S B B B B B B B B M M b b b b c c l l l l j j j j j j l l l l l l l l l l j j d d d d d d d d p p p p p p p p p p w w 6 6 w w w w 6 6 3 3 3 3 < < - - ",
"S S S S S S B B S S S S S S S S S S S S M M c c b c b c n n l l l l j j j j d d d d d d d d j j c c n n c c b b M M M M M M M M S S J J D S S S L L Y Y Y Y Y Y Y Y E E E E E E / / _ _ ) ) / / / / / / E E / / / / / / E E E E E E L L G G J L L L S S b b d d l l b b l l d d d p w w w w d d 0 w 3 3 p p d d w w p p d d p p w w 3 3 < < - - - - - - - - - - - - 3 3 d d b b B B S S B B b b S S B B b b B B S S F F S S S S G G G G F F B B b N B B B B G G G G G G G G S S b b b b b b k k d d d d k k k k b b N N S S N N S S F F S S B N b b l l k k w w w w w w d d l l l l k k d d w w 3 3 0 0 d d b b S S S S S S l l c c l l d d p p p p d d d d b b b b b b l l d d d d d d d d b b l l w w - - - - < < p p l l b b j j w w w w d l b b b b l l d d p p w w w w w w 3 3 < < , , 3 3 3 3 6 6 3 3 3 3 6 6 w w w w d d p p p p d d l l b b b b l l p p d d d d b b M M l l p p < < - - 0 0 d d b b b l d d d d l l B B S S S S B B b b l l l k d d d d b b b b B B F F L L R R R L F F b b 0 0 p p l l N N B B N N l l d d d d b l S S G G L L G G L L R R E E L L G G F F F F L L E R S S B B G G L L S S N N S S S S F F F F S S B B F F L L L L ) ) ..] ) ) L L R R ) ) ) ) ) ) L L F F S S F F R R / / R R L L N N k k d d d d l l d d p d l l b b b b l l d d d d b b b b l l k k d d d d k k b b b b b b l b b b N N b b l k S S / / E E B B B B M M b b b b b b b b B B B B l l l l l l l l l l l l l l l l d d d d p d p p p p p p d d d d d d d d j j d d j j j j j l j j d d d d d d p p p p p p w w 6 6 w w 3 6 3 3 3 3 3 3 3 3 < < ",
"S S S S S S B B S S S S S S S S S S S S M M c c b b b c n n l l l l j j j j d d d p d d d d j j c c n n c c b b M M M M M M M M S S J J D D S S L L Y Y Y Y Y Y Y Y E E E E E E / / _ _ ) ) / / / / / / E E / / / / / / E E E E E E L L G G J L L L S S b b d d l l l l l l d k p p w w w w d d 0 w 3 3 p p d d w w p p d d p p w w 3 3 < < - - - - - - - - - - - - 3 3 d d b b B B S S B B b b B B B B N b B B S S F F S S S S G G G G F F B B b b B B B B G G G G G G G G S S b b b b b b k k d d d d k k k k b b N N S S N N S S F F S S B N N b l l d k w w w w w w d d l l l l k k d d w w 3 3 w 0 d d b b S S S S S S l l c c l l d d p p p p d d d d b b b b b b l l d d d d d d d d b b l l w w - - - - < < p p l j b b j j w w w w d l b b b b l l d d p p w w w w w w 3 3 < < , , 3 3 3 3 6 6 3 3 3 3 6 6 w w w w d p p p d d d d l l b b b b l l p p p p d d b b M M l l p p < < - - 0 0 d d b b l l d d d d l l B B S S S S B B b b l l l l d d d d b b N b B B F F L L R R L L F F b b w w p p l l N N B B N N l l d d d d b l S S G G L L G L L L R R E E R R G G F F F F L L E E S S B B G G L L S S N N S S S S F F F F S S B B F F L L L L ) ) ....) ) L L R R ) ) ) ) ) ) L L F F S S F F R R / / R R L L N N k k d d k d l l d d p d l l b b b b l l d d d d b b b b l l k k d d d d k k b b b b b b b b b b N N b b l k S S / / E E B B N B M M b b b b b b b b B B B B l l l l l l l l l l l l l l l l d d d d d d p p p p p p d d d d d d d d j j j j j j j j j l j j d d d d d d p p p p p p w w 6 6 w w 3 3 3 3 3 3 3 3 3 3 < < ",
"D D S S S S S S S S D D D D D G D G G G D D D D G G J J J J G G G G D D D D D D D D D D D D S S S S S S S S B B B S S S B B S S L L E E Y Y Y Y / / ) ) / / / / / / ) ) / / / / ) ) / / / / Y Y Y Y Y Y L L L L L L L L J J L L G G S S B B S S S S c c w w d d l l b b l l l l l l l b b b b l d d p p d d k k d d d d k k d d d d d d p p w w w 0 3 3 3 0 w w w 0 p p d d l l b b b b b b S S b b l l d d d d l l b b b b l l b b B B N B b b b b b b b b b b b b b b S S S S S S S S S S N N b b b b l l k k d d k k b b b b N N S S S S N N N N N N N N l l l l b b N N S S S S N N l l k k k k b b N N F F G G G G G G N N b b b b l l d d d d d d d d b b b b b b b b b b B B B B b b l l d d w w w w d d l l l l b b b b l l d d p p k k b b B B B M B B b b c b l l d d w w w w d d d d d d d d d d p p p p p p p p l l b b b b b b B B S S S S b b j j l l b b B B S S B B b b b b d d d d d d b b B B S S F F L L S S G G G G S S b b l l l l l l b b S S F F F F G G E E / / L R F F F F S S b b b b S S F F S S F F G G G G G G S S b b d d w w b b S S F F S S b b k k b b S S R R F F L L / / R R B B k k l k l l d d < < - < 0 0 l l N N S S / / / / F F S S / / ] ] _ _ R R F F N N k k N N / / %.%.$.$.] ] B B S S N N N N F F F F S S G G F F F F S S b b b b S S b b k k < < - - < < p p l k k k d d 0 0 d d d d 0 0 - - d d F F F F l l b l l l l l d d d d d d d d l l d d d d d d d d d d d d d d d d p p p p p p p p p p p p d d d d d d d d d d d d d d p p p p p p w w w w w w w w w w w w 6 6 3 3 w w w w 3 3 w w p p p p d d ",
"D D S S S S S S S S D D D D D G D D G G D D D D G G J J J J G G G G D D D D D D D D D D D D S S S S S S B B B B S S S S B B S S L L E E Y Y Y Y / / ) ) / / / / / ) ) ) / / / / ) ) / / / / Y Y Y Y Y Y L L L L L L L L J J L L G G S S B B S S S S c c w w d d l l b b l l l l l l b b b b b l d d p p d d k k d d d d k k d d d d d d p p w w 0 0 0 0 3 3 w w w w p p d d l b b b b b b b S S b b l l d d d d l l b b b b l l b b B B N N b b b b b b b b b b b b b b S S S S S S S S S S N N b b b b l l k k d d k k b b b b N N S S S S N N N N N N N N l l l l b b N N S S S S N b l l k k k k b b N N F F G G G G G G N N b b b b l l d d d d d d d d b b b b b b b b b b B B B B b b l l d d w w w w d d l l l l b b b b l l d d p p k k b b B B B M B B b b b b l l d d w w w w d d d d d d d d d d p p p p p p p p l l b b b b b b B B S S S S b b j j l l b b B B S S B B b b b b d d d d d d b b B S S S F F L L S S G G G G S S b b l l l l l l b b S S F F F F G G E E / / L R F F F F S S b b b b S S F F S S F F G G G G G G S S b b d d w w b b S S F F S S b b k k b b S S R R F F L L / / R R B B k k k k l l d d < < - < 0 0 l l N N S S / / / / F F S S / / ..] _ _ R R F F N N k k N N / / %.%.$.$.] ] B B S S N N N N F F F F S S G G F F F F S S b b b b S S N b k k < < - - < < p p l k k k d d 0 0 d d d d 0 0 - - d d F F F F l l l l l l l l d d d d d d d k l l d d d d d d d d d d d d d d d d p p p p p p p p p p p p d d d d d d d d d d d d d d p p p p p p w w w w w w w w w w w w 6 6 3 3 w w w w 3 3 w w p p p p d d ",
"D D G G D D G G G G G G D D D D D D G D J G J J L L L L L L / / / / / / E / E E E E E E E E L L Y Y L L J J G J J J J J D D G G L L L L D D S S J G J J J J D D J G J J J J J J J J D D D D S S D D D D S S D D J J D D S S S S S S S S D D G G S S n n l l l l l l l l l l l l l l l l b b v v d d d d d d d d d d d d k k k d d d l l l l l l d k d d d d d d p p d d k k l l l l d d d d d k d d d d p p d d d d d d k k l l l l b b b b b b B B b b b b l l d d d d d d l l b b b b N N b b b b k k k k k k d d d d k k d d k k k k d d d d k k l l l l k k b b N N S S G G F F S S b b b b b b N N S S S S S S S S B B S S S S N N b l l l k l l l k k b b S S S S S S F F G G F F S S b b l l b b S S F F G G F G F F F F S S b b l l b b B B S F S S F F B B b b l l d d p p d d b b l l b b b b b b c b l l d j d d j j b b S S S S G G L L G G B B b b b b B B S S G G G G L L L L L L S S b b b b B B F F G G L L S S F F G G G G S S b b b b N N N N b b b b N N S S F F F F S S b b G L L L b b 0 0 k k S S G G L L L L L L B B p p - - = = = = l l S S L L F F l l 0 0 w w k k k k b b L L ) ) R R S S N N F F G G k k - - & & - - p d l k N N L L F F S S B N L L / / L L S S b N k k 0 0 d d R R -.,.%.%.) ) b b F F G G F F L L L L G G F F S S S S S S S S S S b b l l w w < < ; ; < < k k S S L L F F F F b b k k 0 0 ; ; 0 3 b b S S N N l l l l d d d d d d d d d d k k c b l l l l l l l l l l j l d d l j l j j j d d d d d d d d d d d d j j j j l l l l l l l l l l l l l l l l l l l l l l l l j l l l l l l j d d d d d d d d ",
"G D G G D D D G G G G G D D D D D D D D G G J J L L L L L L / / / / / / E E E E E E E E E E L Y Y Y L L J J G J J J J J D D G G L L L L D D S S G G J J J J D D J D J J J J J J J J D D D D S S D D D D S S D D J J D D S S S S S S S S D D G G S S n n l l l l l l l l l l l l l l l l b b v v d d d d d d d d d d d d k k k d d d l l l l l l d d d d d d d d p p d d k k l l l l d d d d d d d d d d p p d d d d d d k k l l l l b b b b b b B N b b b b l l d d d d d d l l b b b b N N b b b b k k k k k d d d d d k k d d k k k k d d d d k k l l l l k k b b N N S S G G F F S S b b b b b b N N S S S S S S S S B B S S S S N N l l l l k k l l k k b b S S S S S S F F G G F F S S b b l l b b S S F F G G F G F F F F S S b b l l b b B B S S S S F F B B b b l l d d p p d d b b l l b b b b b b l b l l j j d d j l b b S S S S G G L L G G B B b b b b B B S F G G G G L L L L L L S S b b b b B B F F G G L L S S F F G G G G S S b b b b N N N N b b b b N N S S F F F F S S b b G L L L b b 0 0 k k S S G G L L L L L L N B p p - - = = = = l l S S L L F F l l 0 0 w w k k k k b b L L ) ) R R S S N N F F G G k k - - & & - - p p l l N N L L F F S S B N L L / / L L S S b b k k 0 0 d d R R -.,.%.%.) ) b b F F G G F F L L L L G G F F S S S S S S S S S S b N l l w w < < ; ; < < k k S S G L G G F F b b k k 0 0 ; ; 0 0 b b S S N N l l l l d d d d d d d d d d k k c c l l l l l l l l l l j l d d j j j j l l d d d d d d d d d d d d j j j j l l l l l l l l l l l l l l l l l l l l l l l l j l l l l l l l d d d d d d d d ",
"Y Y Y Y Y Y L L L L L L L J G G G G G G J J L L L L J L L L J J L L J J J J J J G G D D S S D D D D D D S S S S S S G G D D L L J J S S S B B B B B B B M M n n n n M M B B S S B B B B B B S S S S D D D D J J J J D D S S n n B B S S G G S S S S F F G G F F S S S S F F S S l l f f d d p p l l b b b b l l l l b b b b l l l l l l b b l l l l d k d d p p p p d d l l b b l l l l l l d d d d d d d d k k k k l l l l b b b b B B S S S S S S N N N B b b b b l l l l b b b b b b b b k k k k k k k k k k k k k k b b d d k k k k k k k k k k k k d k d d l l N N S S F F F F S S b b N N N N S S F F G G L L F F S F F F F F S F B B b b b b b b b b S S G G G G F F F F G G F G S S S S b b b b S S S S S S S S F F F F S S b b l l b b S S S S S S S S b b l l l l d d p p p p d d p p k k l l l l l l k k d d d d d d l l N N B B S S G G F F S S b b b b b b S S G G G G G G F F B B b b d d k k b b D D G G F G B B B B F F G G S S b b B B G G G G d d < < k k N N l l k k b b S S L L G F d d # # @ @ < < d d B B S S B B p d = = & & ; ; < < l l F S R R L L N N d d 0 0 p p > > 0 0 b b S S S S N N F F / / R R v v ; ; ; ; < < - - 3 3 d d k k b l l l b b S S N N d d 0 0 F F G G b N b b R R %.%.#.@.F F b b S S F F S S S S B B N N S S G G F F S S b b l l d d d d k k G G N N b b S S R R ] ] @.@.@.@.L L F F b b d d 0 0 0 0 k k b b l l k k d d d d d d k k l l l l b b b b b b c c c c b b b b l l b b b b b b b b b b b b c c l l b b b b M M B B S S S S F F F F S S S S B B B B M M b b l l l l l l j j d d p p w w 6 6 < < ",
"Y Y Y Y Y Y L L L L L L J J G G G G G G L J L L L L J J L L J J L L J J L J J J G G D D S S D D D D D D S S S S S S G G D D L L J J S S S S B B B B B B M M n n n n M M B B S S B B B B B B S S S S D D D D J J J J D D S S n n B B S S G G S S S S F F G G F F S S S S F F S S l l f f d d p p l l b b b b l l l l b b b b l l l l b l b b l l l l d k d d p p d d d d l l b b l l l l l l d d d d d d d d k k k k l l l l b b b b B B S S S S S S N B B B b b b b l l l l b b b b b b b b k k k k k k k k k k k k k k N b d d k k k k k k k k k k k k d d d d k k N N S S F F F F S S b b N N N N S S F F G G G L F F S S F F F F F F B B b b b b b b b b F S G G G G F F F F G G G G F F S S b b b b S S S S S S S S F F F F S S b b l l b b S S S S S S S S b b l l l l d d p p p p d d p p k k l l l l l l d k d d d d d d l l N N B B S S G G F F S S b b b b b b S S G G G G G G F F B B b b d d k k N N G G G G G G B B B B F F G G S S b b B B G G G G d d < < k k N N l l k k b b S S L L G F d d # # @ @ < < d d B B S S B B p p = = & & = ; < < l l F F R R L L N N d d 0 0 p p > > 0 0 b b S S S S N N F F / / R R v v ; ; ; ; < < - - 3 3 d d k k b b l l b b S S N N d d 0 0 F F G G b b b b R R %.%.#.@.F F b b S S F F S S S S B B N N S S G G S F S S N b l l d d d d k k G G N N b b S S R R ] ] @.@.@.@.L L F F b b d d 0 0 0 0 k k b b l l k k d d d d d d k k l l l l b b b b b b c c c c b b b b l l b b b b b b b b b b b b c c l l b b b b M M B B S S S S F F F F S S S S B B B B M M b b l l l l l l j j d d p p w w 6 6 < < ",
"S S S S S S S S S S B B M M n n n n B B S B S S S S S S S S J J L L L L Y Y Y Y Y Y L L L L Y Y Y Y L L L L L L L L L L L L E E L L J J L L L L J J D D S S S S S S D D J J D D S S S S S S M M B B S B S S S S S S B B b b l l n n B B n M l l l l S S / / / / / / ) ) ] ] ) ) A A p p 3 3 d d B B G G F F B B S S F F G G S S S S B B N N b b l l l l k k l l l l b b B B b b l l b b b b S S B N b b b b l l l l b l b b b b B B S S S S S S B B b b B S b b N b S S S S G G G G F F S S B B N N N N b b b b l v b b N N N N S S F F F F F F S S A A N N b b b b b b b b N N S S N N l l d d d d l l S S G G L L L L G G b b b b b l k k d d d d l l l l l l B B B B b b l l b b b b b b N N l l p p 0 0 3 3 w w d d b b B B b b d d p p d d b b B B b b b b l l l l b b l l d d 3 3 3 3 0 0 w w p p w w 3 3 < < 3 3 w w k k l l b b l l l l B B S S B B b b l l l l b b F F S S b b l l p p d d d d d d N N S S S S l l b b b b B B S S B B l l S S / / ] ] k k ; ; b l S S w w < < k k d d k k k k 0 0 & & @ @ & & - - d d l l l l < < # # O O = = - - 3 3 l l S S S S l l d d p p d d d d 0 0 ; ; < < 0 0 d d N N F F S S d d ; ; 0 0 d d 0 0 0 0 k k k k d d d d N N L L F F k k < < d d b b k k d d F F $.$.....N N b b B B N N b b l l b b N N F G S S b b l l k d d d b b L L ...._ _ F G l l k k N N G G R R / / @.@.] ] ) ) L L l l < < < < 0 w d d d d d d d d d d d d l l l l b b l l b b b b b b b b b b b b M M B B S S S S S S S S S S B B F F F F D D G G G G G G G G G G S S B B b b c c j j p p 3 3 < < - - * * = = * * - - = = & & ",
"S S S S S S S S S S B B M M n n n n B B S B S S S S S S S S J J L L L L Y Y Y Y Y Y L L L L Y Y Y Y L L L L L L L L L L L L E E L L L J L L L L J J D D S S S S S S D D J J D D S S S S S S M M B B S S S S S S S S B B b b l l n b B B n n l l l l S S / / / / / / ) ) ] ] ) ) A A p p 3 3 d d B B G G F F B B S S F F G G S S B S B B N b b b l l l l l k l l l l b b B B b b l l b b b b S S B B b b b b l l l l b l b b b N B B S S S S S S B B b b B B b b N N S S S S G G G G F F S S B B N N N N b b b b v v b b N N N N S S F F F F F F S S A A N N b b b b b b b b N N S S N N l l d d k d l l S S G G L L L L G G b b b b l l k l d d k d l l l l l l B B B B b b l l b b b b b b N N l l p p 0 0 3 3 w w d d b b B B b b d d p p d d b b B B b b b b l l l l b b l l d d 3 3 3 3 0 w w w p p w w 3 3 < < 3 3 w w k k l l b b l l l l B B S S B B b b l l l l b b F F S S b b l l p p d d d d d d N N S S S S l l b b b c B B S S B B l l S S / / ] ] k k ; ; l l S S w w < < k k d d k k k k 0 0 & & @ @ & & - - d d l l l l < < # # O O = = - - 3 3 l l S S S S l l d d p p d d d d 0 0 ; ; < < 0 0 d d N N F F S S d d ; ; 0 0 d d 0 0 0 0 k k k k d d d d N N L L G F k k < < d d b b k k d d F F $.$.....N N b b B B N N b b l l b b N N F F S S b b l l k d d d b b L L ...._ _ F F l l k k N N G G R R / / @.@.] ] ) ) L L l l < < < < 0 w d d d d d d d d d d d d l l l l b b l l b b b b b b b b b b b b M M B B S S S S S S S S S S B B F F F F D D G G G G G G G G G G S S B B b b c c j j p p 3 3 < < - - * * * * * * - - = = & & ",
"r r w w 6 6 r r r r r r r r 6 6 w w d d n n S S L L Y Y Y Y ) ) _ _ _ _ ) ) / / E E E E / / Y E L L S S G G Y Y Y Y Y Y Y Y E E E E Y Y G G G G J J G G S S J J L L Y Y E E E E Y Y J J S S S S J J J J S S M M n n b b c c d d l l B B S S B B b b l l b b F F F H / / @.@.$.$./ / S S S S L L ] ] _ _ G G S S S S G G _ _ ) ) S S L L ] ] / / L L / / L L ) / L L L L G G F F F F G G L L / / / / E E L L G G B B B B G G G G B B b b S S G G S S G F E E / / L L S F B B b b b b b b N N b b b b b b b b N N F F F F S S G G G G F F S S N N b b b b k k 0 0 d d k k b b b b b b l l k k 0 0 0 0 0 0 k k N N S S S S S S b b b b l l d d 0 0 3 3 p p d d B B b b b b l l d d p p d d d d b b l b d d < < - - w w d d k l B B l l d d p d d d b b b b b b l l d d w w < < < < < < 6 6 w w w w p p d d d d d d p p w w w w 6 6 w w d d b b S S F F B B l l d d w w d d S S L L L L G G S S l l < < - - l l G G G G l l 3 3 d d b b B B b b l b l l b b b b / / N N < < ; ; < < 0 0 < < < < & & & & 0 0 S S N N < < O O # # w w w w w w 3 3 - - & & X X     O O & & - - d d b N S S b b k k d d 0 0 0 0 < < d d k k k k d d < < ; ; - - d d d d < < ; ; < < d d k k b b S S L L L L G G F F S S N N w w ; ; k k L L R R S S l l k k d d p p l l S S F F S S d d l l d d 3 3 l l E E ] ] X.X.) ) L L d d < < b b b b d d b b / / @.@.@.@.] ] R R p p = = k k b b k k d d k k b b N N B B b b b b l l l l j l j j j j d d d d j j l l c c b b b b b b b b b b F S F F D D S S b b l l l l b b d d d d p p 6 6 < - - - - - - - < < < < < < 3 3 3 3 < < - - ",
"r r w w 6 6 r r r r r r r r 6 6 w w j d n n S S L L Y Y Y Y ) ) _ _ _ _ ) ) / / E E E E / / Y E L L D S G J Y Y Y Y Y Y Y Y E E E E L Y G D G G J J G G S S J J L L Y Y E E E E Y Y J J S S S S J J J J S S M M n n b b c c d d l l B B S S B B b b l l b b F F F F / / @.@.$.$./ / S S S S L L ] ] _ _ G G S S S S G G _ _ ) ) S S L L ] ] / / L L / / L L / / L L L L G G F F F F G G L L / / / / E E L L G G B B B B G G G G B B b b S S G G S S G F E E / / L L S F B B b b b b b b N N b b b b b b b b N N F F F F S S G G G G F F S S N N b b b b k k 0 0 d d l k b b b b b b l l k k 0 0 0 0 0 0 k k N N S S S S S S b b b b l l d d 3 3 3 0 p p d d N N b b b b l l d d p p d d d d b b l l d d < < - - w w d d l l B B l l d d d d d d b b b b b b l l d d w w < < < < < < 6 6 w w w w p p d d d d d d p p w w w w 6 6 w w d d b b S S F F B B l l d d w w d d S S L L L L G G S S l l < < - - l l G G G G l l 3 3 d d b b B B b b l l l l b b b b / / N N < < ; ; < < 0 0 < < < < & & & & 0 0 S S N N < < O O # # w w w w w w 3 3 - - & & X X     O O & & - < d d N N S S b b k k d d 0 0 0 3 < < d d k k k k d d < < ; ; - - p p d d < < ; ; < < d d k k b b S S L L L L F G F F S S N N w w ; ; k k L L R R S S l l k k d d p p l l S S F F S S d d l l d d 3 3 l l E E ] ] X.X.) ) L L p d < < b b b b d d b b / / @.@.@.@.] ] L L p p = = k k b b k k d d k k b b N N B B b b b b l l l l l l j j j j d d d d j j l l c c b b b b b b b b b b F F F F D D S S b b l l l l b b d d d d p p 6 6 , - - - - - - - < < < < < < 3 3 3 3 < < - - ",
"p p w w 6 6 6 6 5 5 5 5 < < < < 5 5 w w d d c c B B S S S S S S S S J J Y Y Y Y Y Y E E / / L L D D D D L L Y Y E E Y Y Y L Y Y L L L L D D S S S S S S S S Y Y L L J J D D S S B B n n c c c c c n n n c c c c c c c c c c d d l l B B S S S S b b l l l l p p d d A A / / $.$.@.$.] ] ' ' @.@.%.%.#.#./ / L L S S F F / / G G b c / / <.<.%.%.] ] X.X.] ] L L F F F F G G L G L L G G S S F F G G L L L L L L G G N B B B S S b b b b B B S S b b b b B B l l d d 3 0 < < 3 3 0 0 p p p p 0 0 d d d d b b B B F F F F S S N N B N N N b b d d w 0 - - & & 0 3 d d l l N N N N b b k k d d w w w w 0 0 p p d d d d d d d d b b b b l l l l d d l l b b b b l l k d d d d d l l l l l l d k k k k k p p 3 3 0 0 k k b b B B S S b b b b l l b b b b b b b b c c l l d d w w w w w w p p d d l l l l c c b b b b l l l l d d w w w w p p l l B B B B b b l l l l d d d d B B G G G G S S S S l l 6 6 , , d d b b M M l l d d l l b b c c d d 6 6 w w d d l l L L b b w w d p k k k k d d d d ; ; & & < < l l b b 0 0 ; ; - - < < 3 3 p p d d w w - - # # O O X X # # - - w w k k l l k k d d p p d p w w d d k k b b k k p p = = # & # # ; ; ; ; & & @ @ & & w w d d k k N N G G R R / / / / / / L L N N d d b b G G R R F F l l k k k k d d d d k k b b b b l l l l d d d d B B E E / / E E R R N N < < < < b b B B k k d d / / _ _ / / E E R R b b 0 0 k d 0 0 0 0 d d d d k k k l b b b b d d d d d d k k l l l l c c b b j j l l l l l l l l l l l l j l l l l l c c l l d d d d d d d d d d d d d d d d w w w w w w w w w w w w w w w w w w 6 6 < < ",
"p p w w 6 6 6 6 5 5 5 5 < < < < 5 5 w w d d c c B B S S S S S S S S L L Y Y Y Y Y Y E E / / L L D D D D L L E E E E Y Y L L Y Y L Y L L D D S S S S S S S S Y Y L L J J D D S S B B n n c c c c c n n n c c c c c c c c c c d d l l B B S S S S b b l l l l d p d d A A / / $.$.@.$.] ] ' ' @.@.%.%.#.#./ / G L S S F F / / G G b c / / <.<.%.%.] ] X.X.] ] L L F F F F G G L G L L G G S S F F G G L L L L L L G G N N N B S S b b b b B B S S b b b b B B l l d d 3 3 < < 3 3 0 0 p p p p 0 0 d d d d b b B B F F F F S S N N B B N N b b d d w w - - & & 0 0 d d b l N N N N b b k k d d w w w 0 0 0 p p d d d d d d d d b b b b l l l l d d l l b b b b l l k k d d d d l l l l l l d d k k k k d d 3 3 0 w k k b b B B S S b b b b l l b b b b b b b b c c l l d d w w w w w w p d d d l l l l c c b b b b l l l l d d w w w w p p l l B B B B b b l l l l d d d d B B G G G G S S S S l l 6 6 , , d d b b M M l l d d l l b b c c d d 6 6 w w d d l l L L b b w w p p k k k k d d d d = ; & & < < l l b b 0 0 ; ; - - < < 3 0 p p d d w w - - # # O O O X # # - - w w k k l l k k d d p d d p w w d d k k b b k k p p = = # & & & ; ; ; ; & & @ @ & & w w d d k k N N G G R R / / / / / / L L N N d d b b G G R R F F l l k k k k d d d d k k b b b b l l l l d d d d B B E E / / E E R R N N < < < < b b B B k k d d / / _ _ / / E E R R b b 0 0 k k 0 0 0 0 d d d d k k l l b b b b d d d d d d k k l l l l c c c c j j l l l l l l l l l l l l l l l l l l c c l l d d d d d d d d d d d d d d d d w w w w w w w w w w w w w w w w w w 6 6 < < ",
"S S S S B B B B B B B B B B c c j j d d p p d d d d d d d d d d d d j j c c c c n n n n M M M n b c n n S S L L J J G G S S S S S S B B B B n n c c c c n b n n n n c c c c d d d d d d d d g g d d d d d d d d c c c c j j d d d d l l b N B B b b l l l l 3 3 f f l l F F ) ) ] ] ' ) / ) ) ) _ _ _ _ ) ) / / E E / / ] ] / / B B E E %.%._ _ S S S S L G b b l l b b B B G G E E L L B B b b S S S S F F L L G G b b d d d d d d l l b b b b l l d d p p < < < < < < < < p w l l l l l l b b b b l l l l d d d d w w < < 3 3 p p d d d d d d d d w w < < < < i p l l b b B B l l d d w w d d d d k k d d d d d d l l b b B B b b b c c c b b b b B B B B b b l l d d l l B B S S S S M M d d d d p p w w p p d d l l c c b b b b b b l l c c b b c c l l c c c c j j j j d d j j j j l l c c b c b b M M M M c b c c l l p p p p d d l l c c c c c c l l c c j j d d c c M M M M b b M M j j p p 6 6 p p j j j j j j l l S S S S M M j j p p p p j j b b B B l l d d c c M M b b c b l l w w - - < < p p d d w w , , < , 3 3 w w d d l l d d w w - - & & - - 0 0 d p p p w w 3 3 < < - - 3 3 3 3 w w p i d d l l d d 3 3 w w < 3 < < - - - - - - = = & & 0 0 d p d d l l N N S S L L L L R R L L F F N N S S F F G G F F F F S S N b N N S S S S S S S S B B N N B B S S G G L L G G F F L L S S N N S S F F F F F F F F R R E R F F F F G G N N d d d d f f k k k k d d d d d d p p 0 0 l l l l l l l l l l l l l l j l l l l l l l l l l l j d d d d d d p d d p p w w w w 6 6 3 3 3 3 6 6 w w w w w w 3 6 w w 6 6 6 6 < < < < < < 3 3 3 3 < < - - ",
"S S S S B B B B B B B B B B c c j j d d p p d d d d d d d d d d d d j j c c c c n n n n M M M n b b n n S S L L J J G G S S S S S S B B B B n n c c c c b b n n n n c c c c d d d d d d d d g g d d d d d d d d c c c c j j d d d d l l N N B B b b l l l l 3 3 f f l l F F ) ) ] ] ) ) ) ) ) ) _ _ _ _ ) ) / / E / / / ] ] / / B B E E %.%._ _ S S S S G G b b l l b b B B G G E E L L B B N N S S S S F F L L G G b b d d d d d d l l b b b b l l d d p p < < < < < < < < w w l l l l l l b b b b l l l l d d d d w w < < 3 3 p p d d d d k d d d w w < < < < p p l l b b B B l l d d w w d d d d k k d d d d d d l l b b B B b b b c c c b b b b B B B B b b l l d d l l B B S S S S M M d d d d p p w w p p d d l l l c b b b b b b l l c c b b b b l l c c c c j j j j d d j j j j l l c c b b b b M M M M c c c c l c p p p p d d l l c c c c c c l l c c j j d d c c M M M M n b M M j j p p 6 6 p p j j j j j j l l S S S S M M l j p p p p j j b b B B l l d d c c M M b b c c l l w w - - < < p p d d w w , , < , 3 3 w w d d l l d d w w - - & & - - 0 0 d p p p w w 0 0 < < - - 0 0 3 3 w w p p d d l l d d 3 3 w w 3 3 < < - - - - - - = = & & 0 0 d d d d l l N N S S L L L L R R L L F F B B S S F F G G F F F F S S N N N N S S S S S S S S B B N N B B S S G G L L G G F F L L S S N N S S F F F F F F F F R R E R F F F F G G N N d d d d f f k k k k d d d d d d p p 0 0 l l l l l l l l l l l l l l l l l l l l l l l l l l j j d d d d d p d p p p w w w w 6 6 3 3 3 3 6 6 w w w w w w 3 6 w 6 6 6 6 6 < < < < < < 3 3 3 3 < < - - ",
"D D D D G G L L Y L Y Y Y Y E E L L D D S S S S B B B B n n c c c c d d p p d d d d p p r r j j d d p p j j n n M M b b b b b b l c d d j j d d p p r r p p p p p p d d d d g g d p j j c c c c j j d d d d d d j j d d p p d d w w w p k d b b b b b b b b < < d d b b F F ^ ^ ^ ^ / / _ _ / / L L L L / / / / E E E E _ _ / / B B G G _ _ G G d d b b S S S S b b l l l l B B L L / / G G b b b b l l l l F F G G B B l l d d d d l l l l b b l l p p - - - - w 0 p p p p d d l l l l k k b b l l d d 0 w 3 3 < < < < < < < < w w d d k k b b b b b b l l w w d d l l b b b b l b d d p p 0 0 p p p p p p p p d d b b B B b b b b l l l l l l b b c c c c l l d d p p d d b b B B b b l l d d d j d d d p p p d d d d d d d d d d d d j j j j l l l l l l b b c c c c l l l l l l c c c c c c c c c c b c b b c c l l j j j j j j l l c c c c b b c c c c b b j j j j j j j j j j j j l l d d p p d d j j j j p p d d j j c c c b b c l j d d d d j j j j j j d d l l c c b b b c l l l l l l d d w w w w w w w w 3 3 < < d d d j j j d d d d p p w w < < d d k k d d p p w w 0 0 < < - - 3 3 < < < < < < 3 3 w w 0 0 3 3 w w w w w w 3 3 0 0 w w < < = = w w d d d d k k l l k k k k k k S S N N b b b b b b b b b b N N F F l l d d k k S S S S S S B B S S G G / / / / L L G G G G L L L L L L / / / / L L G G L L / / F F R R R R F F S S b b v l A N A A A A N N S S F F G G G G F F b b S S S S M S b b l l d d d d d d d d d d d d l l d d d d d d p p w w 3 3 6 6 w w 6 6 < < < < , , < < < < < < < < < < - - - - < < < < < < < < < < , , - - ",
"D D D D G G L L Y L Y Y Y Y E E L L D D S S S S B B B B n n c c c c d d p p d d d d d p r r j d p d p p j j n n M M n n b b b b l l d d j j d d p p r r p p p p g g d d p p g d p p j j c c c c j j d d d d d d j j d d p p d d w w w p k k b b b b b b b b < < d d b b F F ^ ^ ^ ^ / / _ _ / / E L L L / / / / E E E E _ _ / / B B G G _ _ G G d d b b S S S S b b l l l l B B L L / / G G b b b b l l l l S F G G B B l l d d d d l l l l b b l l d p - - - - w 0 p p p p d d l l l l k k b b l l d d 0 0 3 3 < < < < < < < < 0 w d d l k b b b b b b l l w w d d l l b b b b b b d d p i 0 0 p p p p p p p p d d b b B B b b b b l l l l l l b b c c c c l l d d p p d d b b B B b b l l d d j j d d p p p p d d d d d d d d d d d d l j j j l l l l l l b b c c c c l l l l l l c c c c c c c c c c b b b b c c l l j j j j j j l l c c c c b b c c c c c b j j j j j j j j j j j j l j d d p p d d j j j j p p d d j j c c c b b b l j d d d d j j j j j j d d l l b c b b b c l l l l l l d d w w w w w w w w 3 3 < < d d d j j j d d d d p p w 6 < < d d k k d d p p w w 0 0 < < - - 3 3 < < < < < < 3 3 w w 0 0 3 3 w w w w w w 3 3 0 0 w w < < = & w w d d d k k k l l k k k k k k S S N N b b b b b b b b b b N N F F l l d d k k S S S S S S N N S S G G / / / / L L G G G G G G L L L L / / / / L L G G L L / ^ F F R R R R F F S S b b v l N N A A A A N N S S F F G G G G F F b b S S S S S S c c l l d d d d d d d d d d d d l l d d d d d d p p w w 3 6 6 6 6 w w 0 < < < < , , < < < < < < < < < < - - - - < < < < < < < < < < , , - - ",
"B B B B S S S S D D D D D D L L J J G G G G J J L L L L L L D D S S S S S V V V B B B B B B n n j j w w 6 w p p d d j j l j M M c c l l c c n n n n b b b b M n M M M M M M n n n n n n n n M M n n n n c c n n n n c c c c B B k k w w p p d d l l b b b b d p d d b N G G R L H H S S L L L L F F F F L L L L F F F F G G b N b b F F E E F F b b b b B B b b b b l l w w 0 0 b b S S b N d d l l d d d d b b S S N N b b l l l l l l k k d d d d < 3 = = < < d d l l d d d d d d d d w w d d d d w w w w p p d d d d j j l l l l l l d d d d d d d d p p d d l l l l c c b b b b b b c b d d p p p p w w w w p p d d d d j j j j d d d d j j j j j j d d d d p p p p d d j j j j j j p p p p j j j j d d j j l j j j j j p p d d j j j j j j l l c c c c n n b c c c c c c c c c c c c c c c c c n n n n n n c c c c l l c c c c c c b c n n n n n c c c M M c c c c c c c c j j j j j j d d d d d d j j j j d d p p d d g p j j j j j j j j j j j j d d j j j j j j j j j j d d j j l l p p p p p p w w w w p p d d j j c c c c l l d d d d p p w w w w < < < < < < < < p p d k l l d d w w w w 3 3 w w w w w w w w w w 3 3 p p d d d d j j l l p p - - < < w w d d d d d d d d d d p p l l d d w w w w w w 3 3 p p d d l b 0 0 - - < < d p d d d d k k l l b b S S S S b b l l l l b b S S A A S S S S A A A A S S S S A A L L / / L L S S b b A A L L S S H H L L ^ ^ ^ ^ L L H H H H b b S S S S F F F F S S S S S S b b b b c c b b b b b b b b c c l l l j d d d d l j l l d d d d d d d d d d d d d d d d w w w w p p p p w w 6 6 3 0 3 3 < < ",
"B B B B S S S S D D D D D D L L J J G G G G J J L L L L L L D D S S S S S S V V B B B B B B n n j j w w 6 w p p d d j j j j M M c c l l c c n n n n b b b b n n M M M M M M n n n n n n n n M M n n n n c c n n n n n c c l B B k k w w p p d d l l b b b b p p d d b b H G R R H H S S L L L L F F F F L L L L F F F F G G b N b l F F E E F F b b b b B B b b b b l l w w 0 0 b l S S b N d d l l d d d d b b S S N N b b l l l l l l k k d d d d < < & & < < d d l l d d d d d d d d w w d d d d w w w w p p d d d d j j l l l l l l d d d d d d d d p p d d l l l l c c b b b b b b c b d d p p p p w w w w p p d d d d j j j j d d d d j j j j j j d d d d p p p p d d j j j j j j p p p p j j j j d d j j j j j j j j p p d d j j j j j j l l c c c c n n b c c c c c c c c c c c c c c c c c b b n n n n c c c c l l c c c c c c b c n n n n c c n c M M c c c c c c c c j j j j j j d d d d d d j j j j d d p p d d g g j j c j j j j j j j j j d d j j j j j j j j j j d d j j l l p p p p p p w w w w p p d d j j c c c c l l d d d d p p w w w w < < < < < < < < p p d k l l d d w w w w 6 3 w w w w w w w w w w 3 3 p p d d d d j j l l p p - - < < w w d d d d d d d d d d p p l l p d w w w w w w 3 3 p p k k l l 0 0 < < < < i p d d d d k k l l b b S S S S b b l l l l b b S S A A S S S S A A A A S S S S A A L L / / L L S S b b A A L L S S H H L L ^ ^ ^ ^ L L H H H H b b S S S S F F F F S S S S S S b b b b c c b b b b b b b b c c l l j j d d d d l j l l d d d d d d d d d d d d d d d d w w w w p p p p w w 6 6 3 3 3 3 < < ",
"B B B B B B B B S S B B B B B B n B n n B B V V S S S S V V S S D D J J J J D D D D V V B B V B c c w w < < < < 5 5 6 6 w w d d d d j j j j c c n n n n c c n n M M B B S S S S S S S S D D D D D S D D L L I I L L Y L L L L L B B d d w w p p d d v v b b A A b b b b H H ^ ^ S S b b b b b b d d d d b b l l d d l l d d p p d d b b b b l l d d d d w w w w 3 3 3 3 - - & & < < d d p p 0 0 d d p p w w d d d d w w w w d d d d d d p p w w 3 3 - - = = 0 w d d b b b b l l b b b b l l b b b b b b b b c c j j d d d d b b b b l j w w < < 3 3 3 3 3 3 p p d d d d d d l l l l b b b b c c l l d d d d d d d d d d p p d d d d p p d d j j j j j j j j j j j j j j j j j j j j j j j j p p d d j j d d j j j j j j j j j j l l l l j j j j c l c c c b c c c c c c c c c c j j j j j j c c c c c c b c n n c c c c c c j j c c c c c c c c c c c c c c c c c c c c c c c c j j j j j j c j j j p p p p g g g g j j j j c c c c c c j j j j c c c c c c c c l l j j j j d d d d j j l l p p d d j j p p p p d d j j j j c c c c c c l l j j d d w w w w 3 6 3 3 < < < < p p l l b b l l d d d d l l c c c b l l d d d d l l b c b b c b l l l l w w - - - - - - < - < < 3 3 w w p p d d - - - - < < p p d d w w 3 0 0 3 d d d d d d 0 0 ; ; & & - < d d 0 0 w w w w w w p p d d 0 3 - - p p f f d d d d k k v v l l b b k k b b S S S S b b v v b b A A b b H H ' ' ] ] L L v v d f k k S S S S F F G G L L L L ! ! ! ! Y L L L L L L L L L Y Y L L L L L L G G D D F F S S S S S S B B S S B B B B M M b b b b l l l l d d p p w w 3 3 < < , , - - ",
"B B B B B B B B S S B B B B B B n B n n B B V V S S S S V V S S D D J J J J D D D S V V B B B B c c w w < < < < 5 5 6 6 w w d d d d j d j j c c n n n n c c n n M M B B S S S S D D S S D D D D D S D D L L Y I L L L L L L L L B B d d w w p p d d v v b b A A b b b b H H ^ ^ S S b b b b b b d d d d b b l l d d l l d d p p d d b b b b l l d d d d w w w w 3 0 3 3 - - & & < < d d p p 0 0 d d p p w w d d d d w w w w d d d d d d p p w w 3 3 - - = = w w d d b b b b l l b b b b l l b b b b b b b b c c j j d d d d b b b b j j w w < < 3 3 3 3 3 3 p p d d d d d d l l l l b b b b c c l l d d d d d d d d d d p p d d d d p p d d j j j j j j j j j j j j j j j j j j j j j j j j p p d d j j d d j j j j j j j j j j l l l c j j j j l l c c b b c c c c c c c c c c j j j j j j c c c c c c b c c c c c c c c c j j c c c c c c c c c c c c c c c c c c c c c c c c j j j j j j c j j j p p p p g g g g j j j j c c c c c c c j j j c c c c c c c c l l j j j j d d d d j j j l p p d d j j p p p p d d j j j j c c c c c c l l j j d d w w w w 6 6 3 3 < < < < p p l l b b l l d d d d l l c c c b l l d d d d l l c c b b b b l l l l w w - - - - - - < - < < 3 3 w w p p d d - - - - < < p p d d w w 3 0 3 3 d d d d d d 0 0 ; ; & & - < d d 0 0 w w w w 0 w p p d d 0 3 - - p p f f d d d d d k v v v l b b k k b b S S S S b b v v b b S S b b F F ' ' ] ] L L v v d d k k S S S S F F G G L L L L ! Q ! ! Y Y L L L L L L L L L Y L L L L L L G G F D F F S S S S S S B B S S B B B B M M b b b b l l l l d d p p w w 3 3 < < , , - - ",
"b b b b n n n n M M b b n n V V B B B B B V V V V V B B n n c c b b b b b b j j d d d d d d c c p p < < , , , , , , - - - - - - 6 6 r r < < 5 5 r r d d w w j j d d d d j j c c M M S S S S S S S S S S L L I I L L Y Y Y Y G L B B d d p p p p d d v v b l N A N N N N H H / / ^ ^ H H S S l l p p p p p p - - = = - - & & < < 3 3 w w w w p p p p d d d d < < = = = = - - < < p p l l d d 3 3 p p w w w w p p < < = = - - w w 0 0 0 0 w 0 0 3 < < 3 3 0 0 0 0 3 3 p p d d l l b b b b b b c c b b b b B B B B b c l c c c l l l l d d w w w w p p d d p p p p p p p p d d j j j j j j j j d d p p p p p p p p d d d d p d j j j j j j j j j j j j j j c c p p d d j j j j j j j j j j j j j j j j j j d d d d j j j j p p c c c c c c j j j j l l j j j j c c c c j j j j j j j j j j j j c c c c n n M M M M M M c c n n c c j j j j j j j j j j j j j j j j j j j j j j j j j j j j j j c c c c j j g g g g j j c c c c c c c c c c j j c c c c n n c c c c c c c c c c c c c c c c c c c c c c j j j j j j d d d d g g j j j j l l c c l l j j d d p d l l l l d d p p d d d d d d d d l l l l b b b b b b l l l l l l l l l l l l d d w w 3 3 < < - - 3 0 < < - - - - 3 3 0 0 i p p p = = < < d d l l l l d d p p p p k d l l k k 0 3 & & & & ; ; < < p p d d k k k l b b N N d d - - - - d d f f f f b b b b b b S S p d d d v v b b k k < < < < < < u u v v ^ ^ ] ] / / b b d d N N S S b b b b S S F F G G G G F F L L L L L L L L L L E E L L L L E E L L L L G G D D S S S S S S b b b b l l l l l l l l d d d d 6 3 3 3 < < - - - - - - - - ",
"b b b b n n n n M M b b n n B V B B B B V V V V V V B B n n c c b b b b b b j j d d d d d d c c p p < < , , , , , , - - - - - - 6 6 r r < < 5 5 r r d p w w j j d d d d j j c c M M S S S S S S S S S S L L I I Y L Y Y Y Y G G B B d d p p p p d d v v b l N N N N N N H H / / ^ ^ H H S S l l p p p p p p - - = = - - & & < < 3 3 w w w w p p p d d d d d < < ; ; = = - - < < p p l l d d 3 3 p p w w w w p p < < = = ; - w w w 0 0 w w w 3 3 < < 3 3 0 0 0 0 3 3 p p d d l l b b b b b b c c b b b b B B B B b b c c c c l l l l d d w w w w p p d d p p p p p p p p d d j j j j j j j j d d p p p p p p p p d d d d p p j j j j j j j j j j j j j j c c p g d d j j j j j j j j j j j j j j j j j j d d d d j j j j p p c c c c c c j j j j l l j j j j c c j c j j j j j j j j j j j j c c c c n c M M M M M M c c n n c c j c j j j j j j j j j j j j j j j j j j j j j j j j j j j j c c c c j j g g g g j j c c c c c c c c c c j j c c c c n n c c c c c c c c c c c c c c c c c c c c c c j j j j j j d d d d g g j j j j l l c c l l j j d d p p k l k k d d p p d d d d d d d d l l l l b b b b b b l l l l l l l l l l l l d d w w 3 3 < < - - 0 0 < < - - - - 3 3 0 0 p p p p = = < < d d l l l l d d p p p p k d l l d k 0 0 & & & & ; ; < < p p d d k k k l b b N N d d - - - - f d d f f f b b b b b b S S p d d d v v b b k d < < < < < < u u v v R ^ ..../ / b b d d A A S S b b b b S S F F G G G G F F L L L L L L L L L L Y Y L L L L E E L L L L G G D D S S S S S S b b b b l l l l l l l l d d d d 3 3 3 3 < < - - - - - - - - ",
"l l l l c c n n M M M M n n B B B B B B B B B B B B b b l l r r w w w w , , - - , , w w d d 5 5 , , - - , , 5 5 , , - - & & j j S S D D b b j j b b M M c c c c d d 6 6 < , , , 6 6 r r r r d d j j c c n n n n n c n n S S S S l l p p p p d d v v b b b b d d b b A A A A H H H H S S N N l l w w d d p p - - - - 3 3 - - - - - - < < 0 0 p p p p 3 3 < < - - O O O O & & - - p p d d w w w w w w w w p p d d w w < < w w p p p p p p p p w w < < 3 3 p p d d 6 6 < < 3 3 d d d d d d d d c c l l l l c c c c l l l l n n l l c c j j d d p p d d d d p p j j j j l c c c c c j j p p p p p p p p j j j j j j j j j j c c c c c c c c c c c c j j j j c c n n c c c c n n c c c c c c c c c j c c c c j j j l c c c c c c j j j j j j j j c c c c j j p p j j j j j j j j j j j j j j j j M M M M M M M M S S S S M M M M c c j j d d g g d d j j j j d d j j j j j j j j j j c c c c c c j j c c c c c c c c c c c c c c n c n n n n M n M M C C M M n n c c c c c c n n M M M M M M c c M M c c j j j j c c j j d d g p p p d d j j j j j j l l l l l l p p p p d d p p d d d d l l l l b b c c l l l l j j d d j j c c d d d d p p p p 6 6 w w d d l l l l d d d d d d l l l l l l d d l l l l l l d d w w w w d d l l b b b b k k w w 0 0 d d w w < < ; - d d b b b b b b b b d d = = 0 0 p p > > < < F F L L A A A A l l d k N N S S d d = & % % % % 0 0 0 0 N N ^ ^ R R b b u u d d d d p p 3 3 p p d d l l x x d d d d d d d d d d l l b b b b b b b b b b b b b b b b b b b b b b p p w w 3 3 < < 3 3 3 3 < < - , 3 3 < < < < < < 3 3 w w p p ",
"j l l l c c M M M M M M n n B B B B B B B B B B B B b b l l r r w w w 5 , , - - , , w w d d 5 5 , , - - , , 5 5 , , - - & & j j S S D D b b j j b b M M c c c c d d 6 6 4 , , , 6 6 r r r r d d j j c c n n n n n c n n S S S S l l p p p p d d v v b b b b d d b b A A A A H H H H S S N N l l w w d d p p - - - - 3 3 - - - - - - < < 0 0 p p p p 3 3 < < - - O O O O & & - - p p d d w w w w w w w w p p d d w w < < w w p p p p p p p p w w < < 3 3 p p d d 6 6 < < 3 6 d d d d d d d d c c l l l l c c c c j j l l b b l l c c j j d d p p d d d d p p j j j j c c c c c c j j p p p p p p p p j j j j j j j j j j c c c c c c c c c c c c j j j j c c n n c c c c n n c c c c c c c c c c c c c c j j j l c c c c c c j j j j j j j j c c c j j j p p j j j j j j j j j j j j j j j j M M M M M M M M S S B B M B M M c c c j d d g p d d j j j j d d j j j j j j j j j j c c c c c c j j c c n n c c c c c c c c c c n n n n n n M M M M C C M M n n c c c c c c n n M M B M M M c c M M c c j j j j c c j j d d p p p p d d j j j j j j l l l l l l p p p p d d p p d d d d l l l l b b c c l l l l j j d d j j c c d d d d p p p p 6 6 w w d d l l l l d d d d d d l l l l l l d d l l l l l l d d w w w w d d l l b b b b k k w w 0 0 d d w w < < ; ; d d b b b b b b b b d d = = 0 0 p p > > < < F F L L A A A A l l d d N N S S d d & & % % % % 0 0 0 0 b b ^ ^ R L v v u p d d d d p p 3 3 p p d d l l x x d d d d d d d d d d l l b b b b b b b b b b b b b b b b b b b b b b p p w w 3 3 < < 3 3 3 3 < < - , 3 3 < < < < < < 3 3 w w p p ",
"p p d d j j c c b b M M B B B B B B B B S S B B c c r r w w , , - - & & # # & & 5 5 w w - - * * - - , , 5 5 , , , - < < w w L L E E E E L J D D L L Y Y Y Y E E B B 6 6 * * , , 6 6 6 6 6 6 < , < < 6 6 p p p p p p p p p p > > 3 3 i i v v l l x x x x d x b b d d d d d d y y t t t t > > 3 3 3 3 w w d d l l k k d d d d p p 3 3 < < < < 3 3 w w w w 0 0 w w < < - - < < p p d d l j d d l l d k w w - - , , p p j j p p d d j j l l c c b b b n c c j j c c j j p p w w p p p p p p p p p p p p p p p p p p d d d d g g p p p p p g p g p p p g p p p p g g g g j j g g g g g g g g g g p p p p g g d d c c c c c c c c c n M M M M M M b b n n c c c c c c c c n n c c c c c c c c c c j j j j j j j j j j j j j j d d j j j j j j j j j j j j d d p p d d w w p p d d l l l l l l b b b b B B N b b b b b N N B B B B b b b b c c l j l l p p w w p p p p p p p p l l c c l l j j j j j j j j d d d d j j j j c c c c c c c c c c n n n n n M M M M M c c c c b b b M M M M M b b c c b b b b c c c c l l j j j j j j c c c c c c c c c c l l j j c l j j j j j j j j j j j j j j c l c c c c c c c c j j j j j j d d c c j j j j j j j j j j j j c c c c c c M M B B M M M M c c j j j j j j l l c c M M S S S S S S b b b b b b b b B S b b d d 6 3 - - S S B B c b G G B B < < - - k k - < & & 0 0 b b S S A A A A N N N N N N k k > > @ @ ; ; f f v v f f u u f f l l k k 3 3 = = O O = = 3 3 3 3 > > - - 3 3 p u p p 3 3 - - - - = = ; - < < 3 3 6 6 w w p p d d j d b b b b b b k k p p < < , , < < w w w w w w p p w w 6 6 6 6 w w w w w w ",
"p p d d j j c c b b M B B B B B B B B B S S B B c c r r w w , , - - & & # # & & 5 5 w w - - * * - - , , 5 5 , , , - < < w w L L E E E E L L D D L L Y Y Y Y E E B B 6 6 * * , , 6 6 6 6 6 6 < < < < 6 6 p p p p p p p p p p > > 3 3 i i v v l l x x x x x x b b d d d d i i y y t t t t > > 3 3 3 3 w w d d l l l k d d d d p p 3 3 < < < < 3 3 w w w w 0 0 w w < < - - < < p p d d j j d d l l d d w w - - , , p p j j p p d d j j l l c c b b b b c c j j c c j j p p w w p p p p p p p p p p p p p p p p p p d d d d g g p p p p p g p g p p p g p p p p g g g g j j g g g g g g g g g g p p p p g g d d c c c c c c c c c n M n M M M M c b n n c c c c c c c c n n n c c c c c c c c c j j j j j j j j j j j j j j d d j j j j j j j j j j j j d d p p d d w w p p d d l l l l l l b b b b B B N b b b b b b N B B B B b b b b c c j j l l p p w w p p p p p p p p l l c c l l j j j j j j j j d d d d j j j j c c c c c c c c c c n n M n n n M M M M c c c c b b b b M M M M b b c c b b b b c c c c l l l j j j j j c c c c c c c c c c l l j j c j j j j j j j j j j j j j j j c c c c c c c c c c j j j j j j d d c j j j j j j j j j j j j j c c c c c c M M B B B M M M c c j j j j j j l l c c M M S S S S S S b b b b b b b b B B b b d d 6 6 - - S S B B c c G G B B < < - - k k - - & & 0 0 b b S S A A A A N N N N N N k k > > @ @ ; ; f f v v f f u u f f l l k k 3 3 = = O O = = 3 3 3 3 > > - - 3 3 p p p p 3 3 - - - - = = ; - < < 3 3 6 6 w w p p d d j d b b b b b M d k p p < < , , < < w w w w w w p p w w 6 6 6 6 w w w w w w ",
"- - 5 5 w w p p j j j j c c c c l l c c c c c c r r 5 5 , , , , 5 5 - - * * , , r r r r , , , , - - - - , , , - 5 5 d d b b D D L L L L S S B B B B B B M M n n d j < < - - , , 6 6 p p p p r r w w w w p p d d p p y y 3 3 < < < < t t i i x x d d x x x x S S A A b b d d > > 3 3 i i p p d d d d d d d d l l l l b b l l d d d d p p 3 3 3 3 w w d d d d l l l l l l l l b b B B B B b b l l j j p p 6 6 w w j j l l d d j j l l c c b b M M M M b b c c c c j j p p p p g g j j j j g g j j g g g p p p g g j j j j g g j j j j j j j j j j j j j j j j g g g g j j j j j j c j c c c c j j c c c c c c c c c c c c c c c c c c c c n n c c c c c c c c c c c c c c c c c c c c j j c c j j j j j j j j j j j j d d p p j j j j j j j j c c c c c c c c j j d d p p d d d d l l k k l l k k l l l l k k l l b b b b l l b b b b d d d d j d d d w w d d d d j j c c b b c c l l l l l l j j j j d d d d j j j j j j j j j j c c c c c c c c n n n n n n M n b b c b b b M M M M b b c c M M M M b b c c c c c c c c c c M M c c c c c c c c c c c c c c c c c c c c c c c c c c c c c c c c c c c n c c c c c c c c c c j j j j j j j j j j j j j c c c j j c c c c c c c c c c j j g g c c c c c c M M S S S S S S B B c c l l l l c c b b l l d d p p w w B B l l p p M M B B d d d d d d p p 0 0 d d d d d d v v N N A A b b v l d d < < > > f f S S S S d d 3 3 u u u u - - = = & & & & - > 3 3 > 3 - - - - 3 3 p p 3 3 3 3 3 3 w w w w 0 0 w w w w d d d d d d j j l l l l c c b b d d w w , , - - - - - - - - - - - - - - - - - - - - - - - - ",
"- - < 5 w w p p j j j j c l c c l l c c c c c c r r 5 5 , , , , 5 5 - - * * , , r r r r , , - - - - - - , , , , 5 5 d d b b D D L L L L S S B B B B B B M M n n d j < < - - , , w w p p p p r r w w w w p p d d p p y y 3 3 3 3 < < t t i i x x d d x x x x F S S S b b d d > > 3 3 i i p p d d d d d d d d l l l l b b l l d d d d p p 3 3 3 3 w p d d d d l l l l l l l l b b B B B B b b l l j l p p 6 6 w w j j l l d d j j l l c c b b M M M M n b c c c c j j p p p p g g j j j j g g j j g g g p p p g g j j j j g g j j j j j j j j j j j j j j j j g g g g j j j j j j c c c c c c j j c c c c c c c c c c c c c c c c c c c c n n c c c c c c c c c c c c c c c c c c c c j j c c j j j j j j j j j j j j d d p p j j j j j j j j c c c c c c c c j j d d p p d d d d l l k k l l k k l l l l k k l l b b b b l l b b b b d d d d d d d d w w d d d d j j c c b b c c l l l l l l j j j j d d d d j j j j j j j j j j c c c c c c c c n n n n n n M n b b c b b b M M b b b b c c M M n n b b b c c c c c c c c c M M c c c c c c c c c c c c c c c c c c c c c c c c c c c c c c c n c c c c c c c c c c c c c c j j j j j j j j j j j j j c c c j j c c c c c c c c c c j j g g c c c c c c M M S S S S S S B B c c l l l l c c b b l l d d p p w w B B l l p p M M B B d d k d d d p p 0 0 d d d d d d v v N N A A b b v v d d < < > > f f S S S S d d 3 3 u u u u - - = = & & & & - - 3 3 > > - - - - 3 3 p p 3 3 3 3 3 3 0 w w w 0 0 w w w w d d d d d d j j l l l l c c b b d d w w , , - - - - - - - - - - - - - - - - - - - - - - - - ",
"w w p d d d d d p p r r r r r r 6 6 6 6 w w 6 6 < < * * * * * * - - - - - - 5 5 6 6 5 5 & & - - - - - - * * * * - - r r c c p p p p p p p d p p r r w w 6 6 p p p p r r r r p p j j l l c c l l l l l l d j d d d d y y 3 3 3 3 > > > > > > t t t t t t i i N N b b l l i i 3 3 y y x x x x b b d d d d d d l b b b b b c c d d l l l l l l d d p p d d d d l l l l l l b b b b b b c b l l j l j j d d p p d d c c l l d d w w p p p p d d j j j j j j d d d d p p p p p p g g j j j j g g j j j j g g g g g g j j j j g g j j j j j j j j j j j j j j j j g g j j c j c c c c c c c c n n c c c c c c c c c c c c c c c c c c c c c c n n n c n c c c c c c c c c c c c c j j j j j j j j j j j j j j j j j j j j j j d d c c l l j j l l c c M M M M B B b b k d d d l l b b B B b b b b b b b b b b N N S S S S B B b b l l b b l l b b S S b b d d d d l l b b S S S S b b l l l l l l l l j j j j j j j j j j j j j j g g j j j j c c c c c c c c c c n M b b c c c c n n M M M M n n M M M M M M M M b b n n n n n c M M M M n n c c c c c c n n c c c c n c c n c c c c n n c c c c c c c c c c c c c c j j j j j j j j j j c c c c j j j j j j j j p p j j j j j j c c j j j j j j c c c c c c M M M M n n c c j j p p d d d d d d d d d d p p p p w w j j p p < < d d b b b b b b d d k k b b b b d d < < d d b b b b k k p p 0 0 0 0 0 w l l S S S S d d u u p p 3 3 = = & & ; - - - 3 3 3 3 3 3 3 3 3 3 p p d d d d d d k k l l l l l l l l k k b c b c l l l l j j d d d d d d d d w w , , - - - - - - - - = = = = & & & & & & & & & & & & ",
"w w p p d d d d p p r r r r w r 6 6 6 6 w w 6 6 < < * * * * * * - - - - - - 5 5 6 6 5 5 & & - - - - - - * * * * - - r r c c p p p p p p p p p p r r w w 6 6 p p p p r r r r p p j j l l c c l l l l l l d d d d d d y y 3 3 3 3 > > > > > > < t t t y t i i N N b b l l i f 3 3 y y x x x x b b d d d d d d l l b b b b b b d d l l l l l l d d p d d d d d l l l l l l b b b b b b c c l l j l j j d d p p d d c c l l d d w w p p p p d d j j j j j j d d d d p p p p p p g g j j j j g g j j j j g g g g g g j j j j g g j j j j j j j j j j j j j j j j g g j j c c c c c c c c c c n n c c c c c c c c c c c c c c c c c c c c c c n n c c c c c c c c c c c c c c c c j j j j j j j j j j j j j j j j j j j j j j d d c c l l j j l l c c M M B B B B b b d d d d l l b b B B b b b b b b b b b b N N S S S S B B b b l l b b l l b b S S b b d d d d l l b b S S S S b b l l l l l l l l j j j j j j j j j j j j j j g g j j j j c c c c c c c c c c M M c b c c c c n n M M M M n n M M M M M M M M b b n n n n n n M M M M n n c c c c c c c n c c c c n n c c c c c c c c c c c n c c c c c c c c c c j j j j j j j j j j j c c c j j j j j j j j p p j j j j j j c c j j j j j j c c c c c c M M M M n n c c j j p p d d d d d d d d d d p d p p w w j j p p < < d d b b b b b b d d k k b b b b d d < < d d b b b b k k p p 0 0 0 0 0 w l l S S S S d d u u p p 3 3 = = & & ; > - - 3 3 3 3 3 3 3 3 3 3 p p d d d p d d d d l l l l l l l l k k l c b b l l l l j j d d d d d d d d w w , - - - - - - - - - = = = = & & & & & & & & & & & & ",
"c c c c b b c c j j p p w w 6 6 5 5 < < 5 5 5 5 < , - - - - - - , , , , , , , , , , - - & & & & * * - - , , , , - - 5 5 p p w w 5 5 6 6 p p j j d d d d j j d d d d j j l l c c c c c c c c c c l l l l l l d d d d y y 3 3 t t 3 < < < > - ; ; = ; - - t t > > ; ; > > f f d d i i y y 3 3 p p w w 0 0 d d b b S S l b d d < 3 d d S S S S b b d d p p p p p p p p p p d d d d p p p p w w d d d d p p p p d d j j j j p p d d d d d d j j j j j j j j j j p p p p p p p p g g j j g g p p g g p p p p p p p p g g g g p p j j j j g g g g g g g g g g g g g g j j j j j g g g g g g g j j g g j j j j c c c c c c c c c c c c c c c c n n c c c c c c c c c c c c c c j j j j j j j j j j j j d d d d d d j j j j j j j j l l j j j j j j l l b b B B B B B B l l d d b l B B S S b b l l k k k k b b b b N N B B N N l l d d l l l l b b S S B B j j d d b b B B S S B B c c j j d j j j j j j j l l c c c c j j j j j j g p g g j j j j c c c c c c c c c c c c c c c c c c M M M M M M n n M M n n n c M M M M M M n n n n c c c c c c c c c c c c c c c c c c c c c c c c c c c c c c j j j j j j j j j j j j g g g g j j j j j j j j j j g g p p g g p p g p j j j j c c c c c c c c j j j j c j c c j c j j p p 6 6 w w w w w w w w w w w w w w w w 3 3 3 3 6 6 w w k j M M B B l l < < 0 0 l l N N b b w w < < < < d d 0 0 < < < < 0 0 0 0 < < < < p p 3 3 > < 3 3 - - & & & & - - - - > > 3 3 t t p p i f v l l l l l l l l l l l l l l l l l l k l l j l d d d d p p w w w w 6 6 6 6 < < - - - - < < , , - - - - * * = = & & & & & & & & & & ",
"c c c c b b c c j j p p w w 6 6 5 5 < < 5 5 5 5 < < - - - - - - , , , , , , , , , , - - & & & & * * - - , , , , - - 5 5 p p w w 5 5 6 6 p p j j d d d d j j d d d d j j l l c c c c c c c c c c l l l l l l d d d d y y 3 3 t t 3 3 < < > > ; ; ; ; - - t t > > ; ; > > f f d d i i y y 3 3 p p w 0 0 0 d d b b S S b b d d , 3 d d S S S S b b d d p p p p p p p p p p d d d d p p p p w w d d d d p p p p d d j j j j p p d d d d d d j j j j j j j j j j p p p p p p p p g g j j g g p p g g p p p p p p p p g g g g p p j j j j g g g g g g g g g g g g g g j j j j j g g g g g g g j j g g j j j j c c c c c c c c c c c c c c c c n n c c c c c c c c c c c c j j j j j j j j j j j j j j d d d d d d j j j j j j j j l l j j j j j j l l b b B B B B B B l l d d b b S B S S b b l l d k k k b b b b N N B B b b l l d d l l l l b b S S B B j j d d b b B B S S B B c c j j d d j j j j j j l l c c c c j j j j j j g p g g j j j j c c c c c c c c c c c c c c c c n c M M M M M M n n M n n n M M M M M M M M n n n c c c c c c c c c c c c c c c c c c c c c c c c c c c c c c c j j j j j j j j j j j j g g g g j j j j j j j j j j g g p p p g p p p p j j j j c c c c c c c c j j j j c j c c j c j j p p 6 6 r r w w w w w w w w w w w w w w 3 3 3 3 6 6 w w k l M M B B l l < < 0 0 l l N N b b w w < < < < d d 0 0 < < < < 0 0 0 0 < < < < p p 3 3 > > 3 3 - - & & & & - - - - > > 3 3 t t p p f f v v l l l l l l l l l l l l l l l l l l l l j l d d d d p p w w w w 6 6 6 6 < < - - - - < < , , - - * - * * = = & & & & & & & & & & ",
"l l l l c c c c l l j j j j l l j j d d d d d d d d d d d d d d d d d d p p p p w w 5 5 , , , , , , 6 6 6 6 6 6 6 6 6 6 p p j j p p w w j j l l j j j j j j p p p p r r p p p p d d p p w w d d d d d d p p p p 3 3 - , - - u u u u u u < < = = & & & & < < % % O O - - l l l l - - & = = = - - - - p p l l S S S S d d - - = = p p S S F F S S d d y y 3 3 3 3 w w w w 6 6 6 6 3 3 w w w w r r w w 6 6 6 6 w w p p p p p p j j j j d d j j j j d j j j d d p p p p p p p p p p p p p p p p p p 9 9 6 6 9 9 p p p p p p p p p p p p y y p p p p 9 9 9 9 9 9 p p p p p p p p 9 9 6 6 6 6 6 6 p p p p g g j j j j j c j j j j c c c c c c c c c c j j j j j j c c j j j j j j j j g g g g g g d d p p p p p p g p p p p p g p d d p p 6 6 6 6 p p j j c c c c B B b b l l l l l l l l w w - - w w d d d d k k k k k k k k d d k k d d 3 3 3 3 d d l l k k b b b b B B b b l l d d d d p p w w p p p p j j j j j j j j g g g g g g g g j j c c c c c c c c c c c c c c c c j j c c c c c c c c c c c c c c c c c c c c c c c c j j j j g g p p p p p p g g j j j j j j j j j j j j j j g g g g j j j j j j j j j j g g g g p p p g g g g g g g g g p p p p p p p p p p p p g g j j j j j j j j j j j j g g p p p p p p 6 6 6 6 p p 6 6 < < < < 3 3 6 6 3 3 < < 6 3 , , 3 3 d d l l B B M M w w & & - - d d b b l l w w - - & & - - = = & & - ; < < - - # # X X O O & & & & O O O O % % & & = = & & = = - : - - 3 3 p p d f d d d d p p p p p p p p w w 0 3 3 3 6 6 3 3 3 3 < < < < < < , , - - - - - - * * * * - - - - - - = = * * & = & & & & & & & & & & ",
"l l l l c c c c l l j j j j l l j j d d d d d d d d d d p d d d d d d d p p p p w w 5 5 , , , , , , 6 6 6 6 6 6 6 6 6 6 p p j j p p w w j j l l j j j j j j p p p p r r p p p p d d p p w w d d d d d d p p p p t t - , - - u u u u u u < < = = & & & & < < % % O O - - l l l l - - & = = = - - - - p p l l S S S S d d , - = = p p S S F F S S d d y y < < 3 3 w w w w 6 6 6 6 3 3 w w w w r r w w 6 6 6 6 w w p p p p p p j j j j d d j j j j d j j j d d p p p p p p p p p p p p p p p p p p 9 9 6 6 9 9 p p p p p p p p p p p p y y p p p p 9 y 9 9 9 9 p p p p p p p p 9 p 6 6 6 6 6 6 p p p p g g j j j j j c j j j j c c c c c c c c c c j j j j j j c c j j j j j j j j g g g g g g d d p p p p p p p p p p p p p p d d p p 6 6 6 6 p p j j c c c c B B b b l l l l l l l l w w - - w 0 d d d d k k k k k k k k d d k k d d 3 3 3 3 d d l l k k b b b b B B b b l l d d d d p p w w p p p p j j j j j j j j g g g g g g g g j j c c c c c c c c c c c c c c j j j j c c c c c c c c c c c c c c c c c c c c c c c c j j j j g g p p p p p p g g j j j j j j j j j j j j j j g g g g j j j j j j j j j j g g g g p p p p g g g g g g g g p p p p p p p p p p p p g g j j j j j j j j j j j j g g p p p p p p 6 6 6 6 r r 6 6 < < < < 3 3 6 6 3 3 < < 6 3 , , 3 3 d d l l B B B B w w & & - - d d b b l l w w - - & & - - = = & & ; ; < < - - # # X X O O & & & & O O O O % % & & = = = = = = - - > > 3 3 p p d f d d d d p p p p p p p p w w 3 3 3 3 6 6 3 3 3 3 < < < < < < , , - - - - - - * * * * - - - - - - = = * * & & & & & & & & & & & & ",
"l l l l c c c c c c c c c c B B B B M M n b n n M M M M b b b b b b c c c c j j d d d d d d p p 6 6 , , - - * * * * , , < < 6 6 , , - - , , 6 6 , , , , 6 6 w w < < - - , , < < 6 6 < < , , w w w w w w p p p p t t 3 3 - - 3 3 0 0 u u < < & & @ @ & & > > O O % % u u b N i i & & & & - - = = , , d d b b C C b b y y : = : : p p l l b b l l i p 6 6 3 3 3 3 3 3 < < < < < < < < 3 3 6 6 6 6 6 6 < < < < 6 6 6 6 w 6 6 6 w w 6 6 w r 6 6 6 6 6 6 6 6 6 6 6 6 6 6 6 6 6 6 6 6 6 6 6 6 6 6 6 6 6 6 6 6 6 6 9 9 p y p p y y 9 9 9 9 6 6 6 6 6 6 6 6 6 6 6 6 6 6 6 6 6 6 6 6 6 6 6 6 6 6 6 6 6 6 6 6 9 9 p p p p g g g g g g g g j j j j j j g g g g p p p g j j j j j j j j j j j j j j j j j j p p p p 9 9 9 9 9 9 6 6 9 9 9 9 6 6 , , , , 4 5 6 6 p p p p b b l b l l l l l l d d 0 0 - - p d d d k k k k d d d d d d d d d d p p 3 3 3 3 d d d d d d l l l l l l d d w w w w p p w w < < 6 6 6 6 p p p p p p p p p p p p g g j j j c c c c c n c c c c c n n c c c c j j j j j j j j j j j j j j j j j j j j j j j j j j p p p p 9 9 6 6 6 6 p p p p p p p p p p p p g g p p p p p p p p g p g g g g p p p p p p p p p p p p p p g g g g p p p p p p p p p p p p p p y y p p p p p p p p p g p p y 9 6 6 6 6 6 6 6 6 6 6 r r 3 3 < < < < 3 3 6 6 < < < < w w , , < < w w d d l l j l < < * * 6 6 d d l l d p < < - - - - = = & & # # & & - - - - & & @ O O % & & & & O O O O & & ; > = = & & & & = = - - - - 3 3 3 3 t t - - - - - < < < 3 3 < < - - & & - - - - - - - - - - - - - - - - * * & & = = = = * * * * & & & & & & & & # # # # & & & & & & ",
"l l l l c c c c c c c c c c B B B B M M b b n n M M M M b b b b n b c c c c j j d d d d d d p p 6 6 , , - - * * * * , , < < 6 6 , , - - , , 6 6 , , , , 6 6 w w < < - - , , < < 6 6 < < , , w w w w w w p p p p t t 3 3 - - 3 3 0 0 u u < < & & @ @ & & > > O O % % u u b N i i & & & & - - = = , , d d b b C C b b y y : = : : p p b l b b l l d p 3 3 3 3 3 3 3 3 < < < < < < < < 3 3 6 6 6 6 6 6 < < < < 6 6 6 6 w w 6 6 w w 6 6 w r 6 6 6 6 6 6 6 6 6 6 6 6 6 6 6 6 6 6 6 6 6 6 6 6 6 6 6 6 6 6 6 6 6 6 9 9 y y p p p p 9 9 9 9 6 6 6 6 6 6 6 6 6 6 6 6 6 6 6 6 6 6 6 6 6 6 6 6 6 6 6 6 6 6 6 6 9 9 p p p p g g g g g g g g j j j j j j g g g g p p g g j j j j j j j j j j j j j j j j j j p p p p 9 9 9 9 9 9 6 6 9 9 9 9 6 6 , , , , 4 4 6 6 p p p p b b b b l l l l l l d d 0 0 - - p d d k k k d d d d d d d d d d d d p p 3 3 3 3 d d d d d d l l l b l l d d w w 0 0 p p w w < < 6 6 6 6 p p p p p p p p p p p p g g j j c c c c c c n c c c c c n n c c c c j j j j j j j j j j j j j j j j j j j j j j j j j j p p p p 9 9 6 6 6 6 p p p p p p p p p p p g g g p p p p p p p p g g g g g g p p p p p p p p p p p p p p p p g g p p p p p p p p p p p p p p y p p p p p p p p p p g p p y y 6 6 6 6 6 6 6 6 6 6 r r 3 3 < < < < 3 3 6 6 < < < < w w , , < < w w d d l l j j < < = * r r d d l l d d < < - - - - = = & & # # & & - - - - & & @ @ O O & & & & O O O O & & ; ; = = & & & & = = - - - - < 3 3 3 t t - - - - - < < < 3 3 < < - - & & - - - - - - - - - - - - - - - - * * = & = = = = * * * * & & & & & & & & # # # # & & & & & & ",
"n n n n n b b n b b b b c c B B B B M M c c c c n n n n c c j j l l c c j j d d d d d d d j j j 6 6 & & # # # # & & & & * * , , , , < < 6 6 6 6 6 6 6 6 6 6 r r < < - - , , < < 6 6 6 6 < < w w w w p p p p p p p p y y 3 3 < < < < - - > > & & % % & & = = & % & & f f l l 3 3 & & = ; > > : - 3 3 p p d d d d d d y 3 3 3 6 6 p p d d d d p p y y 6 3 y y 3 3 3 3 < < , , < < < < < < < < 6 6 < < < < 6 6 6 6 6 6 6 6 6 6 p p r r r r p p p p p p p p 6 r 6 6 6 6 6 6 6 6 6 6 6 6 6 6 6 6 9 9 6 6 6 6 6 6 9 9 y y p p p p p p p p p p 9 9 9 9 6 6 6 6 6 6 6 6 6 6 6 6 6 6 6 6 6 6 6 6 6 6 6 6 6 6 6 6 9 9 9 9 p p p p p p p p p p p p p p g g g g g p g g j j j j j j j j c c j j j j j j j j g g p p p p p p p p y y p p p p 9 9 6 6 6 6 6 6 p p p p p p d d k k l l d d d d l l d d d d 0 0 p d d d d d d d k k d d d d p p d d d d d d l l d d p p d d d d k k d d 0 0 w w d d d d 3 6 w w p p p p g p p p p p g g j j d g j j c c c c c c n n c c c c n n c c c c c c c c c c j j g g j j j j j j j j j j g g g g g g p p p p 9 9 9 9 6 6 p p p p p g g g g g g g g g g g p p p p g g g g g g g g p p p p p p p p 9 9 p p p p g g p p p p g g p p p g p p p p p p p p p p p p y y y y p p 9 9 6 6 6 6 6 6 6 6 6 6 6 6 6 6 3 3 3 3 3 3 3 3 3 3 3 3 < < w w 6 6 3 3 < < 6 3 w w w w 3 3 6 6 p p p p p p 6 6 < < < < 5 5 * * * * & & & & - - , , , , : : : : - - = = = = = = : : ; ; = = & & = = : : - - - - > > - - 3 3 - - - - - - - - < < < < - - - - * * - - - - - - - - - - - - - - - - * * * * * = = * = = = = = = & & & & & & & & & & & & & & ",
"n n b n n n b b b b b c c c B B B B M M c c c c n n n n c c j j l l c c j j d d d d d d d j j j 6 6 & & # # # # & & & & - - , , , , < < 6 6 6 6 6 6 6 6 6 6 r r < < - - , , < 5 6 6 6 6 < < w r w w p p p p p p p p y y 3 3 < < < < > - > > & & % % & & = = % % & & f f l l 3 3 & & ; ; > > : - 3 3 p p d d x x d d 6 3 3 3 y 3 p p d d d d p p y y y y y y 3 3 3 3 < < , , < < < < < < < < 6 6 < < < < 6 6 6 6 6 6 6 6 6 6 p p r r r r p p p p p p p p 6 6 6 6 6 6 6 6 6 6 6 6 6 6 6 6 6 6 9 9 6 6 6 6 6 6 9 9 y y p p p y p p p y p p 9 9 9 9 6 6 6 6 6 6 6 6 6 6 6 6 6 6 6 6 6 6 6 6 6 6 6 6 6 6 6 6 9 9 9 9 p p p p p p p p p p p p p p g g g g g p g g j j j j j j j j c c j j j j j j j j g g p p y y p p p p y y p p p p 9 9 6 6 6 6 6 6 p p p p p p d d k k l l d d d d l l d d d d 0 0 p p d d d d d d k k d k d d p p d d d d d d l l d d p p d d d d k k d d 0 0 w w d d d d 3 6 w w p p p p g p p p p p g g j j d g j j c c c c c c n n c c c c n n c c c c c c c c c c j j g g j j j j j j j j j j g g g g g g p p p p 9 9 9 9 6 6 p p p p p p g g g g g g g g g g p p p p g p g g g g g g p p p p p p p p 9 9 p p p p g g p p p p p p p p g g g g p p p p p p p p p p y y y y p p 9 9 6 6 6 6 6 6 6 6 6 6 6 6 6 6 3 3 3 3 3 3 3 3 3 3 3 3 < < w w 6 6 3 3 < < 6 3 w w w w 3 3 6 6 p p p p p p 6 6 < < < < 5 5 * * * * & & & & - - , , , , : : : : - - = = = = = = : : ; ; = = & & = = : : : - - - > > - - 3 3 - - - - - - - - < < < < - - - - * - - - - - - - - - - - - - - - - - * * * * * * * * * = = = = = & & & & & & # & & & & & & & ",
"c c c c b b b b c c c c c c c c c c l l d d d d l l j j d d 5 5 6 6 r r p p p p r r p p d d w w * * # # # # & & - - < < 6 6 p p d d j j j j j j d d p p 6 6 w r 6 6 5 5 5 5 6 6 6 6 w r p p 3 3 3 3 w w p p p p p p p p 3 3 u u < < > > > > > > > > > > - - > > < < p p p p 3 3 - - > > & & - : 3 3 3 3 3 3 3 3 3 3 y y p p d d p d d i i i y y 3 t y y 6 6 p p w w 6 6 6 w w w w w 6 6 6 6 < < < < 6 6 w w r r 6 6 6 6 6 6 6 6 6 6 6 6 p p p p p p p p r 6 p p p p p p p p p p p p p p p p p p p p 9 9 9 9 p y p p p p p p p p p p p p p p p p p p p p 9 9 9 9 9 9 p p 6 6 6 6 6 6 6 6 6 6 9 9 9 9 p p p p p p p p p p p p p p p p p p d d j j j j j j j j j j j j j j c c c c j j j c j j j j g g g g p p g g j j j j j j j j g g p p g g j j j j j j j j p p d d d d d p 0 w i i d d d d d d d d k k l l N N S S N B b b d d d d p p w w d d p p 3 3 d d p p d d d d d d d d l l l l d d j j j j c c c c j j j j c c c c j j g g j j c c c c c c n c n c c c c c c c c c c c c c c c j j j j j j j j j j g g g g g g g g j j d d p p p p p p p p d d j j j j j j j j j j j j j j j j j j j j j j c c j j j j g g p p p p g g g g p g p p p p p p g g j j p g g g g p g g j j j j j j j j g g p p p p p p p p p p p p r r , , 3 3 w w w w 3 3 < < 3 3 w w w w d d d d w w w w 3 3 3 3 p p p p 6 6 , , , , 6 6 6 6 , , * * , , , , - - * * - - , , , , , , * * = = = = - - - - = = O % O O & & = = ; = = = = = = = - - 3 3 3 3 - - = = = = - - < < < < < < - - - - , , , , - - - - - - - - & & & & & & = = * * * * * * * * * * = = & & & & = = = = * * ",
"c c c c c b b b c c c c c c c c c c l l d d d d l l j j d d 5 5 6 6 r r p p p p r r p p d d w w * * # # # # & & - - < < 6 6 p p d d j j j j j j d d p p 6 6 r r 6 6 5 5 5 5 6 6 6 6 w w p p 3 3 3 3 w w p p p p p p p p 3 3 u u < < > > > > > > ; > > > - - - - < < p u p p 3 3 - - > > & & - : 3 3 3 3 3 3 3 3 3 3 y y d d d d d d d d y y y y 3 t y y 6 6 p p w w 6 6 6 6 w w w w 6 6 6 6 < < < < 6 6 w r r w 6 6 6 6 6 6 r 6 6 6 6 6 p p p p p p p p r r p p p p p p p p p p p p p p p p p p p p 9 9 9 9 p p p p p p p p p p p p p p p p p p p p p p 9 9 9 9 9 9 p p 6 6 6 6 6 6 6 6 6 6 9 9 9 9 p p p p p p p p p p p p p p p p p p d d j j j j j j j j j j j j j j c c c c j j j c j j j j g g g g g g g g j j j j j j j j g g p p g g j j j j j j j j p p d d d d d p w w i p d d d d d d d d k k b l N N S S N N b b d d d d p p w w d d p p 0 0 d d d p d d d d d d d d l l l l d d j j j j c c c c j j j j c c c c j j g g j j c c c c c c n n n c c c c c c c c c c c c c c c j j j j j j j j j j g g g g g g g g j j d d p p p p p p p p d d j j j j j j j j j j j j j j j j j j j j j j c c j j j j g g g p p p g g g g g g p p p p p p g g j j p p g g g g g g j j j j j j j j g g p p p p p p p p p p p p r r , , 3 3 w w w w 3 3 < < 3 3 w w w w d d d d w w w w 3 3 3 3 p p p p 6 6 , , , , 6 6 6 6 , , * * , , , , - - * * - - , , , , , , * : & = = = - - - - = = O O O O & & = = ; = = = = = = = - - 3 3 3 3 - - ; ; = = - - < < < < < < - - - - , , , , - - - - - - * * & & & & & & = = * * * * * * * * * * = = & & & & = = = = = * ",
"d d p p d d d d j j l l c c c c l j j j d d d d p p p p d d d d p p p p p p d d d d p p r r & & & & # # & & * * < < 6 6 p p p p j j c c b b b c c c c c b b M M M M n n b b b b b b b b M M b b l l d d d d d d d d d d i p u u < < < < < < 3 3 3 3 3 3 3 3 u u 0 0 3 3 3 3 3 3 < < > > - - - - , , 3 3 3 3 3 3 6 6 6 3 3 3 y y y y 6 6 y y p p p p p p y y p p w w w w r r r r w w r r 6 6 6 6 6 6 6 6 6 6 r r r r r w w w 6 6 w w p p p p p p p p p p p p p p p p p y y y p p p p p p p p p p p p g g g p p p p p p p p p j j g g p p p p g g j j g g p p g g g g p p p p g g g g g p p p j j j j j j g g g g g g g g d d d d j j j j j j j j j j j j j j l l c c c c c c c c j j j j c c c c c c c c j j c c c c c c j j c c j j j j j c c c c c j j j j d d d d p d w w 3 3 3 3 w w p p b b N N S S S S S S S S S S S S B B S S B B b b d d w w d d k l d d p p p p d d l l l l l l b b j j c c c c b c c c c c b c n n c c c c c c c c c c c c c c c c n n n n n c c c n n c c c c c c j j c c c c c c c c c c j j j j d d j j j j j j j j j j j j j j l l l l c c c c c c c c l l j j c c c c j j j j j j g g p p p p g g g g g g g g g g g g g g g g g g g g g g g g g g j j j j j j j j p p p p p y y y p p p p r r 6 6 w w p p w w 6 6 6 6 6 6 6 6 6 6 6 6 6 6 6 6 w w 6 6 6 6 < < < < , , , , - - - - - - , , , , , , , , , , , , , , , , , , , , , , : : & & & & & & & & O O X X O O & & = = = = = = = = - - - - - - < < 3 < < < 3 3 p p l l b b l j d d d d p p p p p p w w w w 3 3 < < - - = = = = & = = = = = & & = = * * = = & & & & * * ",
"d d p p d d d d j j l l c c c c l l j j d d d d p p p p d d d d p p p p p p d d d d p p r r & & & & # # & & * * < < 6 6 p p p p j j c b b b b c c c c c b b M M M M n n b b b b b b b b M M b b l l d d d d d d d d d d p p u u < < < < < < 3 3 3 3 3 3 3 3 u u u u 3 3 3 3 3 3 < < > > - - - - - , 3 3 3 3 3 3 6 6 6 6 3 3 y y y 6 6 6 y y p p p p p p y y p p w w w w r r r r 6 w w r 6 6 6 6 6 6 6 6 6 6 r r r r r r 6 w 6 6 w w p p p p p p p p p p p p p p p p p p y y p p p p p p p p p p p p g g p p p p p p p p p p j j g g p p p p g g j j g g p p g g g g p p p p g g g g p p p p j j j j j j g g g g g g g g d d d d j j j j j j j j j j j j j j l l c c c c c c c c l l j j c c c c c c c c j j j j c c c c j j c c j j j j j j c c c c j j j j d d d d p p w w 3 0 3 3 w w d d b b N N S S S S S S S S S S S S B B S S B B b b d d w w d d k l d d p p p p d d l l l l l l b b j j c c c c c c c c c c c c n n c c c c c c c c c c c c c c c c n n n n n c c c n n c c c c c c j j c c c c c c c c c c j j j j d d j j j j j j j j j j j j j j l l l l c c c c c c c c l l j j c c c c j j j j j j g g p p p p g g g g g g g g g g g g g g g g g g g g g g g p p g j j j j j j j j p p p p p p y y p p p p r r 6 6 w w p p w w 6 6 6 6 6 6 6 6 6 6 6 6 6 6 6 6 w w 6 6 6 6 < < < < , , , , - - - - - - , , , , , , , , , , , , , , , , , , , , , , : : & & & & & & & & O O X X O O & & = = = = = = = = - - - - - - < < < < < < 3 3 p p l l b b j j d d d d d d p p p p w w w w 3 3 < < - - = = = = = = = = = = & & = = * * = = & & & & * - ",
"j j c c c c b b c c l l j j l l j j d d d d d d p p d d j j j j p p w w r r d d p p , , & & & & & & * * , , 6 6 p p d d j j c c n b B B B B M M M M M M S S B B B B M M n n b b M M b b c c b b b b c c l l l l d d d d p p p p u u u u u u 3 3 3 3 u u u u u u 3 3 3 3 < < < < 3 3 < < 3 3 3 3 3 3 3 3 3 3 3 3 6 3 6 6 y y 3 3 3 6 3 6 6 6 y y p p p p p p p p w w 6 6 r r 6 6 6 6 r r 6 6 6 6 6 6 6 6 6 6 6 6 6 w 6 6 6 6 w w p p p p p p p d p p p p p p p p p p p p y y y p y y y y p p 6 6 6 6 9 9 9 9 9 9 9 9 9 9 9 9 p p p p p y p p p p g g g g p p j j g g g g p p p p p p p p p p p p p p p p p p p p p p p p p p p p p p p p d d j j j j j j j j d d j j j j j j j j j j l l l l j j j j j j j j j j c c c c j j j j p p p p p p p p p p d d j j d d p p w w 0 3 3 3 3 3 w w w w p p d d l l b b N N N N N N b b b b k k d d p p w w 3 3 < < 3 3 3 3 3 3 w w d k l l l l k k d d d d d d j j j j l l l l l l l l c c c c c c c c c c c c c c c c c c c c j j j j l j j j j j j j j j j j c c j j j j j j d d p p j j j j j j d d d d d d d d p p d d j j j j j j j l j j j j j j j j j j g g g g p p p p p p p p p p p p 9 9 9 9 9 9 6 6 6 6 6 6 9 9 9 9 9 9 9 9 p p p p y y p p p p p p 9 9 6 6 6 6 9 9 9 9 6 6 , < 6 6 6 6 6 6 , , , , , , < < , , , , , , , < , , , , - - * * * * * * & & * * * * * * , , , , , , - - , , , , , , - , , , , , * * : * * * & & $ $ O O O O O O O O & & & & = = = = = = : : ; ; - - < < 3 3 3 3 w w d d l l l b l l j j d d d d p p w w 3 3 < < 6 6 3 3 , - , , , , , , < < < < * * * * * * = = & & & & & & ",
"j j c c c c c b c c l l j j l l j j d d d d d d p p d d j j j j p d w w r r d d p p , , & & & & & & * * , , 6 6 p p d d j j c c b b B B B B M M M M M M S S B B M B M M n n b b n M b c c c b b b b c c l l l l d d d d p p p p u u u u u u 3 3 3 3 u u u u u u 3 3 3 3 < < < < 3 < < < 3 3 3 3 3 3 3 3 3 3 3 3 6 6 6 6 y y 3 3 6 6 3 3 6 6 y y p p p p p p p p w w w w w r 6 6 6 6 r r r 6 6 6 6 6 6 6 6 6 6 6 6 6 6 6 6 6 w w p p p p p p p d p p p p p p p p p p p p y y p p y y y y p p 9 6 6 6 9 9 9 9 9 9 9 9 9 9 9 9 p p p p p p p p p p g g g g p p j j g g g g p p p p p p p p p p p p p p p p p p p p p p p p g p p p p p p p d d j j j j j j j j d d j j j j j j j j j j l l l l j j j j j j j j j j c c j j j j j j g p p p p p p p p p d d j j d d p p w w 3 3 3 3 3 3 w w w w p p d d l l b b N N N N N N b b b b k l d d p p w w 3 3 < < 3 3 3 3 3 3 w w k k l l l l k k k k d d d d j j j j l l l l l l l l c c c c c c c c c c c c c c c c c c c c j j j j l l c c j j j j j j j c c c j j j j j j d d p p j j j j j j d d d d d d d d p p d d j j j j j j j j j j j j j d j j j j g g g g p p p p p p p p p p p p 9 9 9 9 9 9 6 6 6 6 6 6 9 9 9 9 9 9 9 9 p p p p y y y p p p p p 9 9 6 6 6 6 9 9 9 9 6 6 , , 6 6 6 6 6 6 , , , , , , < < , , , , , , , , , , - , - - * * * * * * & & * * * * * * , , , , , , - - , , , , , , , , , , , , * * : : * * & & $ $ O O O O O O O O & & & & = = = = = = : : ; ; - - < < 3 3 3 3 w w d d l l l l l l j j d d d d p p w w 3 3 < < 3 6 3 3 , - , , , , , , < < < < * * * * * * = = & & & & & & ",
"r r d d c c b b c c c c j j c c d d d d j j j j j j c c c c c c j j p p d d c c j j 6 6 & & , , 6 6 p p j j j j c c b b M M b b c b c c c c c c c c c c c c d d d d d d p p p p r r 6 6 6 6 < < w w d d d d d d i i p p p p f f f f f f u u 3 3 3 3 t t p p 3 3 3 3 3 3 - - , , 3 3 3 3 y y 3 3 6 6 , , : : : : : : 3 3 6 6 6 6 3 3 3 3 6 6 y y y y y y y y 6 6 6 6 6 6 6 6 6 6 6 6 6 6 6 6 6 6 6 6 6 6 6 6 6 6 6 6 6 6 6 6 6 6 6 6 6 6 6 6 w w 6 6 6 6 6 6 6 6 6 6 6 6 6 6 6 6 6 6 6 6 6 6 , , , , , , 4 4 4 4 6 6 6 6 5 5 6 6 6 6 6 6 6 6 9 9 p p p p 9 9 9 9 9 9 9 9 6 6 6 6 6 6 6 6 6 6 9 9 9 9 9 9 p p p p p p p p p p p p p p p p p p p p p p p p p p p p p p p p p p p p p p p p p p p p w w w w p p d d d d p p p p p p p p 6 6 6 6 6 6 w w d d j j p p w w 3 < < < < < 3 3 3 3 < < < < < < 0 0 d d l l b b b b k k d d p p 3 3 3 3 < < < < 3 3 w 0 3 3 3 3 w w k k l l l l d d p p p p p p p p d d d d d d d d d d p p d d d d j j j j j j j j d d d d p p p p p p p d d d d d p p j j j j j j j j j j j j d d p d d d p p p p p p p p w w w w w w 6 6 6 6 w w p p p p p p p p p p r r 9 9 6 6 6 6 6 6 6 6 6 6 9 9 6 6 6 6 6 6 4 4 4 4 , , , , 4 , 6 6 6 6 6 6 6 6 6 6 6 6 6 6 6 6 6 6 4 4 , , , 4 4 4 6 6 6 6 5 5 , , , , , , , , , , , , , , , , * * - - * * * * * * = = & & & & # # & & & & & & * * * * * * - - , , , , , , - - * * * * * * * * & & * * : : & & O O X X O O O O & & & & & & = = = = - - - - ; ; = = - - - - < < w w d d d d p p w w 6 6 < < - - - - * * & & & & * * = = & & & & & & = & & & & & & & & & & & # # O O O O O O ",
"r r d d c c b b c c c c j j c c j j d d j j j j j j c c c c c c j j p p d d c c j j 6 6 & & , , 6 6 p p j j j j c c b b M M b b c c c c c c c c c c c c c c d d d d d d p p p p r r 6 6 6 6 < < w w d d d d d d i i p p p p f f f f f f u u 3 3 3 3 t t p p 3 3 3 3 3 3 - - , , 3 3 3 3 y y 3 3 6 6 , , : : : : : : 3 3 6 6 6 6 3 3 3 3 6 6 y y y y y y y y 6 6 6 6 6 6 6 6 6 6 6 6 6 6 6 6 6 6 6 6 6 6 6 6 6 6 6 6 6 6 6 6 6 6 6 6 6 6 6 6 r r 6 6 6 6 6 6 6 6 6 6 6 6 6 6 6 6 6 6 6 6 6 6 , , , , , , 4 4 4 4 6 6 6 6 5 5 6 6 6 6 6 6 6 6 9 9 p p p p 9 9 9 9 9 9 9 9 6 6 6 6 6 6 6 6 6 6 9 9 9 9 9 9 p p p p p p p p p p p p p p p p p p p p p p p p p p p p p p p p p p p p p p p p p p p p w w w w p p d d d d p p p p p p p p 6 6 6 6 6 6 w w d d j j p p w w 3 3 < < < < 3 3 3 3 < < < < < < 0 0 d d l l b b b b k k d d p p 3 3 3 3 < < < < 3 3 0 0 3 3 3 3 w w k k l l l l d d p p p p p p p p d d d d d d d d d d p p d d d d j j j j j j j j j j d d p p p p p p p p d d d d p p j j j j j j j j j j j j d d p d d d p p p p p p p p w w w w w w 6 6 6 6 w w p p p p p p p p p p r r 9 9 6 6 6 6 6 6 6 6 6 6 9 9 6 6 6 6 6 6 4 4 4 4 , , , , 4 4 6 6 6 6 6 6 6 6 6 6 6 6 6 6 6 6 6 6 4 4 , , , , 4 4 6 6 6 6 5 5 , , , , , , , , , , , , , , , , * * - - * * * * * * * * & & & & # # & & & & & & * * * * * * - - , , , , , , - - * * * * * * * * & & * * : : & & O + O O O O O O & & & & & & = = = ; - - - - ; ; = = - - - - < < w w d d d d p p w w 3 6 < < - - - - * * & & & & - * = = & & & & & & = & & & & & & & & & & & # # O O O O O O ",
"< < < < 6 6 p p d d j j l l j d d d p p d d j j l l c c b b n b c c l l b b S S S S c c d d c c c c b b M M b b M M M M B B c c c c j j j j d d d d p p r w 6 6 6 6 6 6 6 6 6 6 < < , , , , - - - - < < p p p p y y p p p p d d k d d d p p 3 3 > > > > 3 3 - - - - - - - - 3 3 3 3 t 3 y 6 6 6 6 6 , , : : : : : : , , 6 6 3 3 3 3 3 3 6 6 6 6 y y y y 6 6 6 6 6 6 6 6 6 6 6 6 6 6 6 6 6 6 6 6 6 6 6 6 6 6 6 6 6 6 6 6 3 6 , , , , , , , , < < < < , , < < 5 5 4 4 4 4 4 4 4 4 , 4 4 , , , : : : : , , , , , , , , , , , , , , : , , , , , 4 4 4 4 4 4 4 4 , , , , , , , , , , , , 4 4 6 6 6 6 6 6 6 6 6 6 r r r r p p p p p p p p p p r r 6 6 6 6 < < < < < < 5 < < < < 5 5 < < < 6 6 6 6 5 5 , , , < 6 6 6 6 6 6 6 6 , , 6 6 r w w w 6 6 6 6 w w p p d d p p 3 3 - - - - 3 3 w w 3 3 < < - - ; ; ; ; < < d d l l k k d d w w 3 3 3 3 < < - - - - p p l l 3 3 3 3 0 0 p p d d d d p p w w p p w w w w p p p p w w w w p p w w w w p p p p p p w w w w w w w w 6 6 6 6 6 6 6 6 w w p p w w p p p p p p d d d d d d p p p p w w 6 6 6 6 r w w 6 6 3 6 6 6 6 , , , , , , , , , , , , < < 6 6 6 6 4 4 4 4 4 4 4 4 4 4 6 6 6 6 , , , , , , , , , , , , , , , , 4 4 4 4 4 4 4 4 4 4 4 4 4 4 4 4 4 4 , , , , , , , , 4 4 4 4 , , , , , , , , , , , , , , , , , , * * * * * * * * * * * * & & & & & & & & & & * * * * * * * * * * - - - * * * * * * * * * & & = = & & & & & & & & O O O O O O $ $ & & = = = = : ; - - 3 3 > > > > = = - - - - < < w w p p w 0 < < - - - - = = & & & & & & & & & & & & & & & & # # # # + # + + O O + # O + O O O O O O O O O O ",
", , < < 6 6 p p d d j j l l j j d d p p d d j j l l c c n b b b c c l l b b S B S S c c d d c c c c b b M M b b M M M M B B c c c c j j j j d d d d p p r r 6 6 6 6 6 6 6 6 6 6 3 < , , , , - - - - < < p p p p y y p p p p d d d d d d p p 3 3 3 > > > < 3 > - - - - - - - 3 3 3 3 t t y 6 6 6 6 6 , , : : : : : , , , 6 6 3 3 3 3 3 3 6 6 6 6 y y y y 6 6 6 6 6 6 6 6 6 6 6 6 6 6 6 6 6 6 6 6 6 6 3 3 6 6 6 6 6 6 6 6 6 6 , , , , , , , , < < < < < < < , 5 5 4 4 4 4 4 4 4 4 , , 4 4 , , : : : : , , , , , , , , , , , , , , , , , , , , 4 4 4 4 4 4 4 4 , , , , , , , , , , , , 4 4 6 6 6 6 6 6 6 6 6 6 r r r r p p p p p p p p p p r r 6 6 6 6 < < < < < < 5 5 < < < 5 5 5 < < 6 6 6 6 < 5 , , , < 6 6 6 6 6 6 6 6 , , 6 6 r r w w 6 6 6 6 w w p p d d p p 3 3 - - - - 3 3 w w 3 3 < < - - ; ; ; ; < < d d l l k k d d w w 3 3 3 3 < < - - - - p p l l 3 3 3 3 3 0 d d d d d d p p w w p p w w w w p p p p w w w w p p w w w w p p p p p p w w w w w w w w 6 6 6 6 6 6 6 6 w w p p w w p p p p p p d d d d d d p p p p w w 6 6 6 6 r r w 6 3 3 6 6 6 6 , , , , , , , , , , , , < < 6 6 6 6 4 4 4 4 4 4 4 4 4 4 6 6 6 6 , , , , , , , 4 , , , , , , , , 4 4 4 4 4 4 4 4 4 4 4 4 4 4 4 4 4 4 , , , , , , , , 4 4 4 4 , , , , , , , , , , , , , , , , , , * * * * * * * * * * * * & & & & & & & & & & * * * * * * * * * * - - - * * * * * * * * * & & = & & & & & & = & & O O O O O O $ $ & & = = = = : : - - 3 3 < < > > = = ; ; - - < < w w p p w w < < - - - - = = & & & & & & & & & & & & & & & & # # # # # # + + O O + # O O O O O O O O O O O O ",
"p p r r r r p p j j j j l l d j d d d d j j c c c c c c M M B B M M B B S S D D D D S S S S S S S S M M n n n b n n n M n n M M M n b c b n n n c c c c d j c c c c b b n n M M M M M M n M b b l l p p d p p d p p p p p p p p d d d d p p 3 3 - - = = = = - - - - - - , , 3 3 6 6 3 3 , , 6 6 6 6 6 6 6 6 6 6 6 6 6 6 6 6 6 6 , , 4 4 4 4 6 6 6 6 6 6 6 6 6 6 6 6 6 6 6 6 6 6 6 6 6 6 6 6 6 6 6 6 6 3 6 6 6 6 6 6 6 6 6 6 6 6 6 6 5 5 < < < < < < 5 5 5 < 6 6 6 6 6 6 4 4 4 4 4 4 4 4 4 4 : : : : : : : : : : : : : : : : : : : : , , : : : : , , , , , , : : * * * * * * - - , , , , , , , , , , , , < < 6 6 6 6 6 6 6 6 p p p p w w 6 6 6 6 < < < < , , , , - - , , , , , , 6 6 6 6 6 6 , , < < 3 3 3 3 3 3 < < < < < < < < w w d d p p w w p p d d p p p p < < - - - - w w p p w w < < ; ; & & & & = = 3 3 d d k k d d < < ; ; & & & & ; = - - p w k k 0 0 < < < < < < 0 0 d d k d d d d d d d d d d d w w 3 3 3 3 w w w w w w p p p p w w 6 3 3 0 0 0 6 6 3 3 < < 3 3 6 w w w w w w w w w w w p p d d p p p p w w 6 6 6 6 < < 6 6 6 6 6 6 , , < < 6 6 < < , , , , , , , , , , , , , , 5 5 4 4 , , 4 4 , , , , , , , , : : : : , , , , : : - - , , , , , , , , , , , , , , , , , , , , , , , , , , , 4 4 4 4 6 6 6 5 5 , , , , , , , , , , , , , , , , - - , , , , * * * * * * * * * * * * * * * * * * * * * * * * * * * * * * * * * * & & & & & & & & & & & & & & $ $ + + O O O O + + & & = = = = - - 3 3 p p < < ; > > > - - < < 0 0 p p d d p p 3 3 w w 6 6 3 3 < < < < 3 3 < < < < 3 3 3 3 < < < < < < - - - - * * = = & & & & & & & & & & & & ",
"p p r r r r p p j j j j l l j j d d d d j j c c c c c c M M B B M M B B S S D D G D S S S S S S S S M M n n n n n n M M n n M M n n b b b b n n c c c c j j c c c c b b n n M M M M M M M M b b l l p p d d p i p p p p p p p p d d d d p p 3 3 - - = * = = - - - - - - , , 3 3 6 6 3 3 , , 6 6 6 6 6 6 6 6 6 6 6 6 6 6 6 6 6 6 , , 4 4 4 4 6 6 6 6 6 6 6 6 6 6 6 6 6 6 6 6 6 6 6 6 6 6 6 6 6 6 6 6 3 3 6 6 6 6 6 6 3 6 6 6 6 6 6 6 < 5 < < < < 3 < 5 5 < < 6 6 6 6 6 6 4 4 4 4 4 4 4 4 4 4 : : : : : : : : : : : : : : : : : : : : , , : : : : : , , , , , * * * * * * * * - - , , , , , , , , , , , , < < 6 6 6 6 6 6 6 6 p p p p w w 6 6 6 6 < < < < , , , , - - - , , , , , 6 6 6 6 6 6 , , < < 3 3 3 3 3 3 < < < < < < < < w w d d p p w w p p d d p p p p < < - - - - w w p p w w < < ; ; & & & & = = 3 3 d d k k d d < < ; ; & & & & ; = - - p p k k 0 0 < < < < < < 0 0 d d k d d d d d d d d d d d w w 3 3 3 3 w w w w w w p p p p w w 6 6 3 0 3 0 6 6 3 3 < < 3 3 w w w w w w w w w w w w p p d d p p p p w w 6 6 6 6 < < 6 6 6 6 6 6 , , < < 6 6 5 5 , , , , , , , , , , , , , , 5 5 4 4 , , 4 , , , , , , , , 4 : : : : , , , , : : - - , , , , , , , , , , , , , , , , , , , , , , , , , , , , 4 4 6 6 6 6 5 5 , , , , , , , , , , , , , , , , , - , , , , * * * * * * * * * * * * * * * * * * * * * * * * * * * * * * * * * & & & & & & & & & & & & & & & $ $ + + O O O O + + & & = = = = - - 3 3 p p < < ; ; - ; - - < < 3 3 p p d d p p 3 3 w w 6 6 3 3 < < < < 3 3 < < < < 6 6 3 3 < < < < < < - - - - * * = = & & & & & & & & & & & & ",
"B B B B S S S S S S S S S S M M n n n n B B B B B B S S D D D D G G G J G G D D G G G J J J J J S S B B M M M M S S S S B B B B B B B B S S S S S S S S B B S S S S S S D D J J L L L L L L G G M M d d d d p p p p p p d d p p 0 0 w 0 6 6 < < - - & & # # = = * * - - , , < < < < , , - - , , , , 4 4 6 6 6 6 6 6 6 6 6 6 4 4 , , , 4 , , 4 4 6 6 6 6 4 4 6 6 6 6 6 6 6 6 6 6 6 6 6 6 6 6 6 6 5 < < < < < 5 5 < < < < < < 6 6 6 6 5 5 5 5 , , < < 3 5 < < , , 4 4 4 4 , , , , , , , , , , * * : : : : : : : : : : : : * * , , , , , , , , , , : : , , , , , , , , - - , , , , < < , , - - , , , , , , < < < < 6 6 6 6 6 6 r r 6 6 w w r w w w p p p p p p p p 6 6 6 6 6 6 6 6 6 6 < < < < 3 3 w w p p w w 6 6 3 3 3 3 w w p p d d d k d d d d j j j j d d 3 3 - - & & = = < < 3 3 < < = = & & & & @ # & & < < p d d d k k 0 0 & & O O @ @ ; ; < < 0 0 < < < < < < ; ; ; ; < < d d l l k k k k d d d d k l k k p p w w d d 0 0 p p d d d d w w w w 6 6 w w p p w w w w p p d d d d d d d d j j j j j j l l d d d d p p w w 6 6 < < 6 6 r r 6 6 , , < < p p p p 6 6 , , , , 6 6 6 6 6 6 < < 5 5 , , , , , , : : : : : : , , * * * * * * * * * * : : : : : : : : : : : : : : : * * * * * : * * * * * * * : : , , , , , , , , - - - - * * - - , , , , - , - - , , , , , , * * * * * * * * * * & & & & * * * * * * * * * * * * & & & & & & & & & & & & & & & & & & $ $ $ $ $ $ $ $ $ $ + + + + $ $ & & & & = = - - < 3 - > & & = = - - - - < < w w d d d d d d l l d d d d p p d d d p p p w w p p p p w w w w w w w w w w 6 6 3 3 < < , , - - - - - - - - ",
"B B B B S S S S S S S S S S M M M n n n B B B B B B S S D D G G G G G J G G D D D G G G J J J J S S B B M M M M S S S S B B B B B B B B S S S S S S S S B B S S S S S S D D G J L L L L L L G G M M d d d d p p p p p p d d w p 0 0 w w 6 6 < < - - & & # # = = * * - - , , < < < < , , - - , , , , 4 4 6 6 6 6 6 6 6 6 6 6 4 4 , , , , , , 4 4 6 6 6 6 4 4 6 6 6 6 6 6 6 6 6 6 6 6 6 6 6 6 6 6 5 < < < 5 5 5 5 < < < < < < 6 6 6 6 5 5 5 5 , , < < < 5 < < , , 4 4 4 4 , , , , , , , , , , * * : : : : : : : : : : : : * * , , , , , , , , , , : : , , , , , , , , - - , , , , < < , , - - , , , , , , , , < < 6 6 6 6 6 6 r r 6 6 w w w w w w p p p p p p p p 6 6 6 6 6 6 6 6 6 6 < < < < 3 3 w w p p w w 6 6 3 3 3 3 6 w p p d d d d d d d d j j j j d d 3 3 - - & & = = < < 3 3 < < = = & & & & # # & & < < d d d d k k 0 0 & & O O @ @ ; ; < < 0 0 < < < < < < ; ; ; ; < < d d l l k k k k d d d d k l k k p p w w p p 0 0 p p d d d d w w w w 6 6 w w p p w w w w p p d d d d d d d d j j j j j j l l d d d d p p w w 6 6 < < 6 6 r r 6 6 , , < < p p p p 6 6 , , , , 6 6 6 6 6 6 < < 5 5 , , , , , , : : : : : : , , * * * * * * * * * * : : : : : : : : : : : : : : * * * * * * * * * * * * * * : : , , , , , , , , - - - - * * - - , , , , , , - - , , , , , , * * * * * * * * * * & & & & * * * * * * * * * * * * & & & & & & & & & & & & & & & & & & & & $ $ $ $ $ $ $ $ + + + + $ $ & & & & ; ; - - < < > > & & = = - - - - < < w w d d d d d d l l d d d d p p d d d d p p w w p p p p w w w w w w w w w w 6 6 3 3 < < , , - - - - - - - - ",
"S S S S J J L L L L J J D D B B M M M M B S S S S S S S S S D D G J J J D D D D S S S S D D S S S S S S S S S S D D S S S S S S S S S S S S S S S S S S S S B B B B B B S S S S S S D D D D B B j j w w p p y y 3 3 y y d d p p 3 3 < < , , , , - - * * & & * * * * * * - - , , , , - - * * : : : : , , , , , 4 , , , , , , , , , , , , , , 6 6 6 6 6 6 6 6 6 6 6 6 6 6 6 6 6 6 6 6 6 6 6 6 4 4 5 5 < < < < 5 5 , , , , , , , , , , , , , , - - - - , , , , - - : : : : : * * * * * * * * * * * * * : : : : : : : : : : : : 4 4 , , , 4 , , , , , , 4 4 6 6 r r < < , , < < w w p p 6 6 - - < < < < 6 6 6 6 6 6 w w w w p p p p p p p p p p j j j j j j j j l l j j d d p p w w 6 6 , , - - < < 0 0 p p w w < < < < 3 3 p p d d l l d d w w w w d d k k d d 3 3 - - = = - - < < < < - - & & = = ; ; < < 0 < 0 w d d d s k k d d < < ; ; - - < < < < < < < < 3 3 < < - - - - 0 0 k k k k k d d f 0 0 0 0 k k l l k k d d p p < < w w p p p p w w 0 0 w w w w d d d d d d j d l l l l l l l l l l c c b b b b l l l l l l l l p p p p p p d d p p < < 6 6 p p j j p p , , , , w w p p w w 3 3 , , , , , , , , : : : : , , , - * * * * * * * * : : : : : : : : : : : : * * * * * * * * * * * * * * * * * * * * * * * * * * * * * * * * * * * * - - - - - * * * , , - - - - * - * * * * * * * * & & & & & & * * & & & & & & & & & & & & & & & & & & & & & & & & $ $ & $ $ $ $ $ & & & & & & $ $ $ $ & & & & & & = = = = & & & & & & & & = = - - < - w w d d d d d d d d p d p p p p p p w w w w < < < < < < < < < < 3 3 < < < < < < , , - - - - - - - - - - ",
"S S S S J J L L L L J J D D B B M M M M B B S S S S S S S S G D G G J J D D D D S S S S D D S S S S S S S S S S S D S S S S S S S S S S S S S S S S S S S S B B B B B B S S S S S S D D D D B B l j w w p p y y 3 3 y y d d w w 3 3 < < , , , , - - * * & & * * * * * * - - , , , , - - * * : : : : , , , , , , , , , , , , , , , , , , , , 6 6 6 6 6 6 6 6 6 6 6 6 6 6 6 6 6 6 6 6 6 6 6 6 4 4 5 5 < < < < 5 5 , , , , , , , , , , , , , , - - - * , , , , - - : : : : : * * * * * * * * * * * * * : : : : : : : : : : : : 4 4 4 , 4 4 , , , , , , 4 4 6 6 r r < < , , < < w w p p 6 6 - - < < < < 6 6 6 6 6 6 w w w w p p p p p p p p p d j j j j j j j j l l j j d d p p w w 6 6 , , - - < < 0 0 p p w w < < < < 3 3 p p d d l l d d w w w w d d k k d d 3 3 - - = = ; - < < < < - - & & = = ; ; < < 3 3 0 0 d d d s k k d d < < ; ; - - < < < < < < < < 0 3 < < - - - - 0 0 k k k k k k d d 0 0 0 0 d d l l k k d d i p < < 0 w p p p p w w 0 0 0 w w w d d d d d d d d l l l l l l l l l l c c b b b b l l l l l l l l p p p p p p d d p p < < 6 6 p p j j p p , , , , w w p p w w 3 6 , , , , , , : , : : , : , , : : * * * * * * * * : : : : : : : : : : : : * * * * * * * * * * * * * * * * * * * * * * * * * * * * * * * * * * * * - - - - - * * * , , - - - - * - * * * * * * * * & & & & & & * * & & & & & & & & & & & & & & & & & & & & & & & & $ $ & & $ $ $ $ & & & & & & $ $ $ $ & & & & & & = = = = & & & & & & & & = = - - < - w w d d d d d d d d d d p p p p p p w w w w < < < < < < < < < < 3 3 < < < < < < , , - - - - - - - - - - ",
"B B M M B B B B B B n n c c j d d d d d l l c c j j j j l l B B B M B B S S S S B B B B B B M M S S D D G J G D S S S S S S J J D D S S S S B B B B S S S S M M M M M M M M M M M M B B B B l l d d p p p p 6 6 3 3 6 6 p d y 6 < < - - * * , , , , - - * * * * * * * * * * * : * : * * * * , , , , , , : : : : , , , , , , , , , , , , , , 6 6 6 6 6 6 6 6 6 6 6 6 6 6 6 6 6 6 6 6 6 6 6 6 4 4 5 5 5 5 < < , , , , , , , , , , , , - - - - - - - - - - - - , , - - - - - - * * * * * * * * * * & & * * * * : : - - - - , , , , , , , , - - - - , , 6 6 6 6 r w < < , , 6 6 p p j j 6 6 - , w w w w p p p p p p d d d d j d d d j j j j j j l l c c c c c c d d p p p p p p p p p p 6 6 3 3 - - < < w w 3 3 - - - - < < w w d d d d 0 0 - - - - 0 0 d d w w d d w w < < 3 3 w w w w < < - - < < 0 0 k d l k k k d d d d k k s d k k l l k k 0 0 ; ; - - 0 0 d d w w 0 0 0 0 d d l l k k d d 3 3 ; ; & & < 0 k d d d 0 0 < < - - < < w w p p 0 0 3 3 3 3 0 w p p d p d d d d l l l l l l l l l l l l l l l l b c l c l l l l l l j j j j j j p p < < < < p p j j w w , , , , w w d d p p 3 3 , , , , , , , , , , , , , , , , * * : : : : : : : : : : : : : : : : : : * * : : * * * * * * * * * * * * * * * * , - , , : : * * - - * * * * * * - - , , - - * * , , - - - - * * * * * * * * * * * * * * * * * * & & & & & & & & # # # # # # + # + + + + & & & & $ $ $ & & & & & & & & & & & & & & & & & & & & & & & & & & & & & & & & & = = = = ; ; 3 3 i p d d d d d d d d p p p p p p p p w w < < < < , , , , < < < < < < < < * * = = & & = = - - - - - - ",
"B B M M B B B B B B n n c c j d d d j d l c c c j j j l c l B M B B B B S S S S B B B B B B M M S S D D J J G G S S S S S S J J D D S S S S B B B B S S S S M M M M M M M M M M M M B B B B l l d d p p p p 6 6 3 3 6 6 p p y y < < - - * * , , , , - - * * - * * * * * * * * * * : * * * * , , , , , , : : : : , , , , , , , , , , , , , , 6 6 6 6 6 6 6 6 6 6 6 6 6 6 6 6 6 6 6 6 6 6 6 6 4 4 5 5 5 5 < < , , , , , , , , , , , , - - - - - - - - - - - - , , - - - - - - * * * * * * * * * * & & * * * * : : - - - - , , , , , , , , - - - - , , 6 6 6 6 w w < < , , 6 6 p p j j 6 6 - - w w w w p p p p p p d d d d j d d d j j j j j j l l c c c c c c d d p d p p p p p p p p 6 6 3 3 - - < < w w 3 3 - - - - < < w w d d d d 0 0 - - - - w 0 d d w w d d w w < < 3 3 w w w w < < - - < < 0 0 k k k k k k d d d d k k d d k k l l k k 0 0 ; ; - - 0 0 d d w w 0 0 0 0 d d l k k k d d 3 3 ; ; & & 0 0 k k d d 0 0 < < - - < < w w p p 0 0 3 3 3 3 w w p p p p d d d d l l l l l l l l l l l l l l l l b c l l l l l l l l j j j j j j p p < < < < p p j j w w , , , , w w d d p p 3 3 , , , , , , , , , , , , , , , , * * : : : * : : : : : : : : : : : : : : * * * : * * * * * * * * * * * * * * * * , , , , : : * * - - * * * * * * - - , , - - * * , , - - - - * * * * * * * * * * * * * * * * * * & & & & & & & & # # + # # # + + + + + + & & & & $ $ $ $ & & & & & & & & & & & & & & & & & & & & & & & & & & & & & & & & = = = = ; ; 3 3 p p d d d d d d d d p p p p p p p p w w < < < < , , , , < < < < < < < < - * = = & & = = - - - - - - ",
"M M c c M M S S M M j d p p d d d d j j c c l l d d r r p p c c c c c c c c c c c c l l j j d d l l n n M M M M M M B B S S S S D D J J J J G G D D D D D D G G F F S S D D D D D D B B c c p d p p p p 6 6 , , : : , , , , * * * * * * * * - - - - : : * * * * * * : : : : : : : : * * * * : : : : : : : : , , : : : : , , , , 4 4 4 4 6 6 6 6 6 6 6 6 6 6 6 4 4 4 6 6 6 6 6 6 6 6 4 4 4 4 4 4 4 4 , , , , 5 5 5 5 5 5 < < < , , , , , - - , , , , - - - - - - - - , , , , , , , , , , , , * * * * - * , - , , , , , , , , , , , , * * * - , , , , , , , , , , < < < < w w d d d j p d w w p p p p p p d d d d l l b b b b l l d d d d l l l l d d d d j j 3 3 p p d d w w < < 3 3 p p d d - - - - < < 3 < 0 0 0 0 < < < < 0 0 3 3 < < & & & & ; ; < < 0 0 d d d d p p 0 0 < < < < < < 3 3 w w d d d d l l d d d d d d d d k d d d d d d d d d d d p p p p < < - - - - w w k d k k p p < < ; ; & & & & - - 3 3 p p p p 3 3 3 3 w w p p 3 3 - - < < w w d d w w 3 3 3 3 p p d d p p p p w w d d l l l l d d d d l l b b b b b b j j d d d d d d d d d d l l b b l l l l l l d d w w w w w w w w < < , , - - , , , , , , , , , , , , , , , , , , - - - - - - , , - - * * * * * * * * * * * * * * * * * * * * , , , , , , - - - - * * * * * * * * - - - - * * - - - - - - * * * * * * * * * * * * * * = = * * * * & & * * & & & & & & & & & & & & & & & & & & & & & & & & & & & & & & & & & & + + + + + + + + + + + + + + # # # # # # & & & & = = - - , , < < w w w w 3 3 3 3 p p l l d d p p w w w w 3 3 3 3 w w w w 3 3 3 3 - - - - - - , , < < < < , , ",
"M M c c M M S S M M j d p p d d d d j j c c l l d d r r p p c c c c c c c c c c c c l l j j d d l l n n M M M M M M B B S S S S D D L J J J G G D D D D D D G G F F S S D D D D D D B B c c d d p p p p 6 6 , , : : , , , , * * * * * * * * - - - - : : * * * * * * : : : : : : : : * * * * : : : : : : : : , , : : : : , , , , 4 4 4 4 6 6 6 6 6 6 6 6 6 6 4 4 4 4 6 6 6 6 6 6 6 6 4 4 , , 4 4 , 4 , , , , 5 5 5 5 5 5 < < < , , , , , - - , , , , - * - - - - - - , , , , , , , , , , , , * * * * - * , - , , , , , , , , , , , , * * * - , , , , , , , , , , < < < < w w d d d d p p w w p p p p p p d d d d l l b b b b l l d d d d l l l l d d d d j j 3 3 p p d d w w < < 3 3 p p d d - - < - < < < < 0 0 0 0 < < < < 0 0 3 3 < < & & & & - - < < 0 0 d d d d d d 0 0 < < < < < < 3 3 w w d d d k l l d d d d d d d d k d d d d d d d d d d d p p p p < < - - - - w w k k k k p p < < ; ; & & & & - - 3 3 p p p p 3 3 < 3 w w p p 3 3 - - < < w w d d w w 3 3 3 3 p p d d p p p p w w d d k l l l k d d d l l b b b b b l j j d d d d d d d d d d l l l b l l l l l l d d w w w w w w w w < < , , - - , , , , , , , , , , , , , , , , , , - - - - - - , , - - * * * * * * * * * * * * * * * * * * * * , , , , , , , - - - * * * * * * * * - - - - * * - - - * - - * * * * * * * * * * * * * * = = * * * * & & & & & & & & & & & & & & & & & & & & & & & & & & & & & & & & & & & & & & + + + + + + + + + + + + + + # # # # # # & & & & = = - - , , < < w w w w 3 3 3 3 p p l l d d p p w w w w 3 3 3 3 w w w w 3 3 3 3 - - - - - - , , < < < < , , ",
"M M M M B B B B b b d d w w p p d d l l c c j j r r r r d d j j l l l l l l j j j j j j j j c c b b M M B B M M B B S S S S D G G G L L L L L L L L L L L L L L L L L L L L L L D D B B c c p p p p w w 5 5 , , * * : : , , : : : : * : : : : : , , , , : : : : , , , , , , , , - - : : : : , , , , , , , , , , , , , , , , 4 4 4 4 6 6 6 6 6 6 6 6 6 6 6 6 9 9 9 9 p p p p p p p p 9 9 9 9 6 6 4 4 , , , , 6 6 6 6 6 6 6 6 6 6 6 6 < < , , , , , , , , , , * * - - , , , , , , , , , , , , , , , , - - , , , , , , , , < < < < , , , , , , 6 6 p p d d j j p p p p p p p p d d j j d d d d d p d d d d d d d d l l l l l b l l k d d d k d d d 3 3 < < w w d d l l l l d d p p p p d d d d 3 3 < < < < 3 3 0 0 d d 0 0 0 0 p p d p 0 0 0 0 < < d d d d d d l l d d d d w w w w w w w w w w d d l l b b B B S S S S B B b b b b B B B B b b b b l l k d d d < < < < 3 3 d d l l l l l l l l d d p p w w p p d d d d d d d d d d k k d d w w 3 3 w w d k l l d d d d d d d d d d d d d d 3 3 3 3 i p d d d d p p d d l l k d d d p p p p d p d d d d d d p p d d p p p p d d d d d d d d d d p p w w 3 3 < < < < < < < < < < , , , , - - - - - - , , , , < < < < , , , , - - - - - - * * * * * * * * * * * * - - , , , , * - , - * * * * * * * * - - - - * * , , , , , , , , - - - - - - - - * * * * * * * * * * * * & & & & & & & & & & & & & & & & & & & & & & & & & & & & & & & # & & # & + + + + + + + + + + + + + + + + # # # # & & & & & & * * - - - - 6 6 w w p p p p p p d d d d p p p p w w w w w w w w w w w w 3 3 3 6 3 3 < < < < 3 3 < < < < ",
"B M M M B B B B b b d d w w p p d d l l c c j j r r r r d d j j l l l l l l j j j j j j l l c c b b M M B B M M B B S S S S D D G G L L L L L L L L L L L L L L L L L L L L L L D D B B c c p p p p w w < < - , : : : : , , : : : : : : : : , : , , , , : : : : , , , , , , , , - - : : : : , , , , , , , , , , , , , , , , 4 4 4 4 6 6 6 6 6 6 6 6 6 6 6 6 9 9 9 9 p p p p p p p p 9 9 9 9 6 6 4 4 , , , , 6 6 6 6 6 6 6 6 6 6 6 6 < < , , , , , , , , , , * * - - , , , , , , , , , , , , , , , , - - - , , , , , , , < < < , , , , , , , 6 6 p p d d j j p p p p p p p p d d j j d d d d d p d d d d d d d d l l l l l l l l k d d d k d d d 3 3 < < w w d d l l l l d d p p p p d d d d 3 3 < < < < 3 3 0 0 d d 0 0 0 0 p p p p 0 0 0 0 0 < d d d d d d l l d d d d w w w w w w w w w w d d l l b b N N S S S S B B b b b b B B B B b b b b l l d d d d < < < < 3 3 d d l l l l l l l l d d p p 0 0 p p d d k d d d d d d d k k d d w w 3 3 w w d k l l d d d d d d d d d d k d d d 3 3 3 3 p p d d d d p p d d l l d d d d p p p p d d d d d d d d p d d d p p p p d d d d d d d d d d p p w w 3 3 < < < < < < < < < < , , , , - - - - - - , , , , < < < < , , , , - - - - - - * * * * * * * * * * * * - * , , , , - - , , * * * * * * * * - - - - * * , , , , , , , , - - - - - - - - * * * * * * * * * * * * & & & & & & & & & & & & & & & & & & & & & & & & & & & & & & & & & & # & + + + + + + + + + + + + + + + + # # # # & & & & & & * * - - - - 6 6 w w p p p p p p d d d d p p p p w w w w w w w w w w w w 3 3 6 6 3 3 < < < < 3 3 < < < < ",
"B B B B b b l l d d p p 6 6 p p d j c b b b j j p p j j c c c c b b b n n n c c b b n n B B B B S S S S S S D D J J Y L Y Y L L L L L L L L Y Y Y Y Y Y L L L L G G G G G G D D S S c c j j d d p p 6 6 , , - - * * * * : : , , , , : : , , 4 4 4 4 , , , , , , , , , , 4 4 4 4 4 4 , , , , 4 4 4 4 4 4 4 4 4 4 4 4 4 4 , , 4 4 6 6 6 6 6 6 6 6 9 9 9 9 9 9 9 9 9 9 p p p p p p p p 9 9 9 9 6 6 4 4 , , , , 6 6 6 6 6 6 6 6 6 r 6 6 < < , , < < < 5 , , , , , , < < < < 6 6 6 6 6 6 6 6 6 6 < < , , , , , , , , , , 5 5 6 6 , , , , < < < < 6 6 p p d d d d p p w w w w w w w w p p d d d d l l l l d d p p 0 0 3 3 p p d d d d p p p p p p 3 3 - - - - < < d d k k l l l l b b b b b b l l l l d d d d d d l l b b b l k k k k k k k k k k b b N N S A N N S S N N b b l l l l l l l l l l b b b b B B S S G G G F S S b b B B F F G G F F S S S S B B l l d d l l b b b b b b B B S S G G S S B B N N b b b b b b l l l l S S B B b b l l l l l l b b b b S S G G F F N N b b b b d d < < & & = = - - < < w w d d k k d d < < 3 3 3 3 3 3 p p l l l l d d p p 3 3 3 3 3 3 0 0 3 3 3 3 3 3 w w 6 6 3 3 < < < < < < < < < < , , , , - - * * * * , , , , < < < < , , , , , , , , , , , , - - - - - - * * - - , , , , - - , , , , * * * * * * * * * * * * * * , , , , - - - - - - - - - - - - * * * * * * * * * * * * & & & & & & & & & & & & & & & & & & & & & & & & & & & & # # & & & & & & + + + + + + + + + + + + + + + + + + + + # # # # & & & & = = = = - - 6 6 d d d d d d j j d d d d d d p p p p p p p p p p w w w w w w 3 3 < < , , , , - - - - ",
"B B B B b b l l d d p p w 6 p p j j c c b b l l p p j j c c c c b b b n n n c c c c n n B B S S S S S S S S D D J J L L Y Y L L L L L L L L Y Y Y Y Y Y L L L L G G G G G G D D S S c c j j d d p p 6 6 , , - - * * : : : : , , , , , , , , 4 , 4 4 , , , , , , , , , , 4 4 4 4 4 4 4 4 , , 4 4 4 4 4 4 4 4 4 4 4 4 4 4 , , 4 4 6 6 6 6 6 6 6 6 9 9 9 9 9 9 9 9 9 9 p p p p p p p p 9 9 9 9 6 6 4 4 , , , , 6 6 6 6 6 6 6 6 6 6 6 6 < < , , < < < 5 , , , , , , < < < < 6 6 6 6 6 6 6 6 6 6 < < , , , , , , , , , , 6 6 6 6 , , , , < < < < 6 6 p p d d d d p p w w w w w w w w p p d d d d l k l l d d p p 0 0 3 3 p p d d d d p p p p p p 3 3 - - - - < < d d k k l l l l b b b b b b l l l l d d d d k d b l b b l l k k k k k k k k k k b b N N A A N N S S N N b b l l l l l l l l l l b b b b N N S S G G F F S S b b B B F F G G F F S S S S B B l l d d l l b b b b b b S B S F G G S S B B N N b b b b b b l l l l S S B B b b l l l l l l b b b b S S G G F F b N b b b b d d < < & & = = - - < < w w d d k k d d < < 3 3 3 3 3 3 p p l l l l d d p p 3 3 3 3 3 3 0 0 3 3 3 3 3 3 w w 6 6 3 3 < < < < < < < < < < , , , , - - * * * * , , , , < < 5 < , , , , , , , , , , , , - - - - - - * * - - , , , , - - , , , , * * * * * * * * * * * * * * , , , , - - - - - - - - - - - - * * * * * * * * * * * * & & & & & & & & & & & & & & & & & & & & & & & & & & & & # # & & & & & & + + + + + + + + + + + + + + + + + + + + # # # # & & & & = = = = - - 6 6 d d d d d d j j d d d d d d p p p p p p p p p p w w w w w w 3 3 < < , , , , - - - - ",
"M M M M l l p p p p j j j j l l c c M M B B n n n n B B S S S S D D D D D D D D D D J J J J L L L L J J L L L L Y Y Y Y Y Y G G D D D D G D J J J J D D S S S S S S S S B B M M c c j j p p d d p p 6 6 , , : : * * : : : : , , , , , , , , 4 4 4 4 4 4 4 4 4 4 , , 4 4 4 4 4 4 4 4 4 4 4 4 6 6 6 6 6 6 4 4 4 4 4 4 4 4 4 4 4 4 4 4 6 6 6 6 6 6 6 6 6 6 6 6 6 6 6 6 6 6 6 6 6 6 6 6 6 6 6 6 6 6 4 4 , , , , 4 4 6 6 6 6 6 6 6 6 6 6 < < < < 5 < < < , , , , < < 6 6 6 6 6 6 6 6 6 6 6 6 < < , , , , , , , , < < 6 6 6 6 6 6 6 6 < < < < 6 6 6 6 6 6 6 6 < < < < < < < < 3 3 3 3 3 3 w w d d b b l l p p < < - - - - 0 3 i i p p w w 3 3 < < - - = = = = < < 3 3 w w d d b b S S F F F F S S N N B B B N B B S S S S S S b b b b b b b b N N S S F F L L F F G G S S B B b b b b N N b b b b N N b b b b B B S S b b l l d d d d b b B B B B B B S S S S b b b b B B S S B B B B S S G G L L G G G G F F S S B B b b b b b b S S S S S S S S S F S S S S b b G G G G G G B B l l d d 3 3 = = & & & & = = - - 3 3 p d d d d d < < 0 0 3 3 - - < < k k b b l l p p 3 3 < < 3 3 0 0 < < - - - - < < < < < < < < < < < < , , , , 6 6 , , , , - - * * * * * * - - - - - - - - , , , , , , , , , , , , , , - - - - , , , , - - , , * * * * * * * * * * * * * * * * * * * * * * * * * * * * * * * * * * * * * * * * & & & & & & & & & & & & & & & & & & & & & & & & & & # # & & & & # # # # # # # # + + + + + + + + + + + + + + + + O O O O O O + + # # & & & & & & & & , , w w d d l l l l j j d d p p w w w w w w w w w w w w 6 6 < < < < - - - - * * * * = = ",
"M M M M l l p p p p j j j j l l c c M M B B n n b b B B S S S S D D D D D D D D D D J J J J L L L L J J L L L L Y Y Y Y Y Y G G D D D D G G J J J J D D S S S S S S S S B B M M c c j j p p d d p p 6 6 , , : * * * : : : : , , , , , , , , 4 4 4 4 4 4 , 4 4 4 , , 4 4 4 4 4 4 4 4 4 4 4 4 6 6 6 6 6 6 4 4 4 4 4 4 4 4 4 4 4 4 4 4 6 6 6 6 6 6 6 6 6 6 6 6 6 6 6 6 6 6 6 6 6 6 6 6 6 6 6 6 6 6 4 4 , , , , 4 4 6 6 6 6 6 6 6 6 6 6 < < < < 5 5 < < , , , , < < 6 6 6 6 6 6 6 6 6 6 6 6 < < , , , , , , , , < < 6 6 6 6 6 6 6 6 < < < < 6 6 6 6 6 6 6 6 < < < < < < < < 3 3 3 3 3 3 w w d d b b l l p p < < - - - < 0 3 p p p p 0 w 3 3 < < - - = = = = < < 3 3 w w d d b b S S F F F F S S N N B B B B B B S S S S S S N b b N b b b b N N S S F F L L G G G G S S B B b b b b N N b b b b b b b b b b B B S S b b l l d d d d b b B B B B B B S S S S b b b b B B S S S B B B S S G G L L G G G F F F S S B B b b b b b b S S S S S S S S S F S S S S b N G G G G G G B B l l d d 3 3 = = & & & & = = - - 3 3 p d d d d d < < 0 0 3 3 - - < < d k b b l l p p 3 3 < < 3 3 0 0 < < - - - - < < < < < < < < < < < < , , , , 6 6 , , , , - - * * * * * * - - - - - - - - , , , , , , , , , , , , , , - - - - , , , , - - , , * * * * * * * * * * * * * * * * * * * * * * * * * * * * * * * * * * * * * * * * & & & & & & & & & & & & & & & & & & & & & & & & & & # # & & & & & & # # # # # # + + + + + + + + + + + + + + + + O O O O O O + + # # & & & & & & & & - , w w d d l l l l d j d d p p w w w w w w w w w w w w 6 6 < < < < - - - - * * * * = = ",
"B B S S B B n n B B S S G G D D S D D D D D D D J J L L L L L L J J D D J J L L L L L L G G L L J J G G G G D D S S B B M M M M M M n n M M M M B B M M b b b b b b c c l l l l j j j j j j d d p p 6 6 , , * * : : : : : : , , : : : : , , 4 4 4 4 4 4 , , , , 4 4 4 , , , , 4 , , 4 4 4 4 4 4 4 4 4 4 4 4 , , , , , , , , , , , , 4 4 6 6 6 6 6 6 6 6 6 6 6 6 6 6 6 6 6 6 6 6 6 6 6 6 6 6 6 6 , , , , , , , , 4 4 4 4 , , w w 6 6 6 6 6 6 6 6 6 6 6 6 6 6 , , , , , , , , , , , , - - * * - - - - - - < < 3 3 6 6 3 3 < < < < < < 3 3 w w w w 3 6 < < - - - - < < w w p p p p w w w w d d b b d d 0 0 < < 3 3 w 0 p p p p d d 0 0 0 0 < < < < ; ; < < 0 0 0 0 w w d d l l B B F F F F S S B B S S F F F F F F F F S S N N N N b b b b b b N N S S S S S S S S b b l l d d d d d d d d p d d d d d d d d d d d p p w w 3 3 < < w w p p w w p p d d d d d d d d d d d d d d k k b b B B S S S S S S S S N B b b b b b b b b N N S S F F G G G G L L G G F F G G S S S S B B l l p p w w d d d d w w < < < < < < 3 3 < < < < 3 3 p p w w - - - - w w d d d d w p 3 3 3 3 p p d d p p 3 3 < < 6 6 6 6 3 3 < < < < - - - - - - , , , , , , - - * * * * & & & & * * * * * * - - , , , , , , , , - - * * * * * * * * * * * * * * * * * * * * * * * * * * * * = = * * * * * * = * & & * * & & & & & & & & & & & & & & & & & & & & & & & & & & & & & & # # # # # # # # + + + + # # # # + + + + + + + + + + + + + + + + + + + + + + O O O O O O O O # # & & & & & & & & & & - - 6 6 d d d d p p 3 3 < < < < < < < < < < < < , , - - , , - - - - * - = = = = = = ",
"B B S S B B n n B B S S G G D D S D D D D D D D J J L L L L L L J J D D J J L L L L L L G G L L J J G G G G D D S S B B M M M M M M n n M M M M B B M M b b b b b b c c l l l l j j j j d j d d p p 6 6 , , * * : : : : : : , , : : : , , , 4 4 4 4 4 4 , , , , 4 4 4 4 , , , , , , 4 4 4 4 4 4 4 4 4 4 4 4 , , , , , , , , , , , , 4 4 6 6 6 6 6 6 6 6 6 6 6 6 6 6 6 6 6 6 6 6 6 6 6 6 6 6 6 6 , , , , , , , , 4 4 4 4 , , w w 6 6 6 6 6 6 6 6 6 6 6 6 6 6 , , , , , , , , , , , , - - * * - - - - - - < < 3 3 6 6 3 3 < < < < < < 3 3 w w w w 3 3 < < - - - - < < w w p p p p w w w w d d b b d d w 0 < < 3 3 w w p p d d d d 0 0 0 0 < < < < ; ; < < 0 0 0 0 w w d d l l B B F F F F S S B B S S F F F F F F F F S S N N N N b b b b b b N N S S S S S S S S b b l l d d d d d d d d p p d d d d d d d d d d p p w w 3 3 < < w 0 p p w w p p d d d d d d d d d d d d d d k k b b B B S S S S S S S S N N b b b b b b b b N N S S F F G G L G L L G G F F G G S S S S B B l l p p w w d d d d w w < < < < < < 3 3 < < < < 3 3 p p w w - - - - w w d d d d p p 3 3 3 3 p p d d p p 3 3 < < 6 6 6 6 3 3 < < , , - - - - - - , , , , , , - - * * * * & & & & * * * * * * - - , , , , , , , , - - * * * * * * * * * * * * * * * * * * * * * * * * * * * * = = * * * * * * * * & & * * & & & & & & & & & & & & & & & & & & & & & # & & & & & & & & # # + # # # # # + + # + # # # # + + + + + + + + + + + + + + + + + + + + + + O O O O O O O O # # & & & & & & & & & & - - 6 6 d d d d p p 3 3 < < < < < < < < < < < < , , - - , , - - - - * * = = = = = = ",
"B B G D J J L L Y Y Y Y E E Y Y Y Y L L L L L L Y Y Y Y L L J J S S B B B B S S S S B B b b M M n n b b b b n n c c l l d d j j d d d d j j l j l l l l l l l l l l l l d d p p p p p p d d p p 6 6 , , - - * * : : : : : : - - : : , , , , , , 4 4 , , , , , , , , , , : , , , , , , , , , 4 4 , , , , , , , , , , , , , , , , , , , , , , 4 4 4 4 4 4 4 4 4 4 6 6 6 6 6 6 6 6 6 6 6 6 4 4 4 4 4 4 , , 4 4 6 6 6 6 4 4 , , 6 6 < < , , , , < < < < < 5 < < , , , , , , , , , , , , - - * * * * * * - - , , < < < < , , - - = = * * - - < < 6 6 w w w w w w w 6 6 6 w w d d d d w w w w p p l l k d d d p p 0 0 3 3 < < - - 0 0 0 0 0 3 0 0 w w d d k k b b l l k k k k l l b b N N N N l l B B S S F F F F F F G G S S N N b b k k d d d d d d d d d d d d d d w w 3 3 < < < < < < < < - - < < - < < < - - - - < < 3 3 3 3 < < < < < < - - - - - - - - - - < - - - - - - - < < 3 3 w w p p p p p p p p p p d d d d d d d d B B S S F F F F S S S S S S S S B B l l b b b b l l d d l l S S b b l l d d w w 3 3 < < - - < < - - < < 3 3 - - - - 0 3 p p d d w w 3 3 3 3 w w p p w w < < < < 6 6 6 6 3 3 , , * * & & & & # # & & * * * * * * * * * * & & & & * * * * * * * * - - - - * * * * * * & & & & & & & & & & & & & & * * * * - - - - * * * * * * & & * * * * * * * * * = & & & & & & & & & & & & & & & & # # # # # + + + + + + + + + + + + + + + + + + + + + + + + + + + + + + + + + + + + + + + + + + + + + + + O O O O O O O O O O O O + + # # # # # # # # & & = = , , 3 3 < < * * - - - - - - * * - - * * * * = = * * = = & & & & & & & & & & ",
"B B G G J J L L Y L Y Y E E Y Y Y Y L L L L L L Y Y Y Y L L J J S S B B B B S S S S B B b b M M n n b b b b b b c c l l d d j j d d d d j j l l l l l l l l l l l l l l d d p p p p p p j j p p 6 6 , , - - * * : : : : : : - - : : , , , , , , 4 4 , , , , , , , , , , : , , , , , , , , , 4 4 , , , , , , , , , , , , , , , , , , , , , , 4 4 4 4 4 4 4 4 4 4 6 6 6 6 6 6 6 6 6 6 6 6 4 4 4 4 4 4 , , 4 4 6 6 6 6 4 4 , , 6 6 < < , , , , < , < < 5 5 < < , , , , , , , , , , , , - - * * * * * * - - , , < < < < , , - - = = * * - - < < 6 6 w w w w w w w 3 6 6 w w d d d d w w w w p d l l k d d d p p 0 0 3 3 < < - - 0 0 0 0 3 3 3 3 w w d d k k b b l l k k k k l l b b N N b N l l B B S S F F F F F F G G S S N N b b k k d d d d d d d d d d d d d d w w 3 3 < < < < < < < < - - < < < < < < - - - - < < 3 3 3 3 < < < < < < < < - - - - - - - - - - - - - - - - < < 3 3 w w p p p p p p p p p p d d d d d d d d B B S S F F F F S S S S S S S S B B b b b b b b l l d d l l S S b b l l d d w w 3 3 < < - - < < - - < < 3 3 - - - - 3 3 p p d d w w 3 3 3 3 w w p p w w < < < < 6 6 6 6 3 3 , , * * & & & & # # & & * * * * * * * * * * & & & & * * * * * * * * - - - - * * * * * * & & & & & & & & & & & & & & * * * * - - - - * * * * * * & & & * * * * * * * * = & & & & & & & & & & & & & & & & # # # # # # + + + + + + + + + + + + + + + + + + + + + + + + + + + + + + + + + + + + + + + + + + + + + + O O O O O O O O O O O O + + # # # # # # # # & & = = < , 3 3 - - - ; - - - - * - * - - * * * * * = = * * = = & & & & & & & & & & ",
"b b n n B B S S S S S S D D S S S S S S S S S S D D D D S S B B B B b n b b n n n n c c c l c c l c l l l l c c l c c c l l j j j j l l l l l l l l c c c c j j l l l l d d 6 6 6 6 6 6 p p 6 6 , , - - * * * * : : : : : : : : : : : : , , , , 4 4 , , , , , , - - : : : : : : : : , , : , , , , , , , , , , , , , , , , , , , , , , , , , , , , , , , , , , , , , , , 4 4 , , , , , , , , 4 4 6 6 6 6 6 6 9 9 p p 9 9 6 6 , , - - * * - - , , , , , , , , < < < < 6 6 6 6 < < , , , , , , * * = = = = * * - - - - * * & & & & & & & & = = , , 6 w w w p p w w < < < < 3 3 3 3 < < 3 3 p p d d l l d d p p < < = = = = = = 3 3 3 3 < < 0 0 d d b b N N N N S S N N b b k k l l b b b b k k b b B B B B B B S S G G S S b b k k d d 0 0 0 0 0 0 < < ; ; - - < < < < - - - - < < - - < < < < - - - ; = = - - - - 3 3 3 3 < < 3 3 - - - - < < < < = = = = - - < < < < < < - < - - - - - - - - - - - - = = - - 3 3 w w w w 3 3 l l S S F F S S b b l l l l l l d d d d d d d d d d p p k k B B b b l l d d d d w w 3 3 3 3 w w - - - - ; ; - - < < 0 0 d d d d p p 3 3 < < < < - - - ; = = - - 3 3 < < < < - - & & # # O O O O # # & & & & & & & & & & & & & & * * * * * * * * * * * * * * & & & & & & & & & & & & & & # & # # * * - - , , , , , , * * * * & * & & & & & & & & & & & & & & & & # # # # # # # + + + # # # # # # + + + + + + + + + + + + + + + + + + + + + + + + + + + + + + + + + + + + + + + + O O O O O O O O O O O O O O O O O O O O O O O O O O # # + + # # & & - - - - - - - - - - * * * * - - - - * * = = & & & & & & & & & & & & & & ",
"b b n n B B S S S S S S D D S S S S S S S S S S D D D D S S B B B M b b b b n n n n c c l l c c l c l l l l c c l l c c l l j j j j j l j j l l l l c c c c j j l l l l d d 6 6 6 6 6 6 p p 6 6 , , - - * * * * : : : : : : : : : : : : , , , , 4 4 4 , , , , , - - : : : : : : : : , , : : , , , , , , , , , , , , , , , , , , , , , , 4 4 , , , , , , , , , , , , , , 4 4 , , , , , , , , 4 4 6 6 6 6 6 6 9 9 p p 9 9 6 6 , , - - * * - - , , , , , , , , < < < < 6 6 6 6 < < , , , , , , * * = = = = * * - - - - * * & & & & & & & & = = , , w 6 w w p p w w < < < < 3 3 3 3 < < 3 3 p p d d l l d d p p < < = = = = = = 3 3 3 3 < < 0 0 d d b b N N N N S S N N b b k k l l b b b b k k b b B B B B B B S S G G S S b b k k d d w w 0 0 0 0 < < ; ; - - < < - - - - - - < < - - < < < < - - - ; = = - - < < 3 3 3 3 < < 3 3 - - - - < < < < = = = = - - < < < < < < - < - - - - - - - - - - - ; = = - - 3 3 w w w w 3 3 l l S S F F S S b b l l l l l l d d d d d d d d d d p p k k B B b b l l d d d d w w 3 3 3 3 w w - - - - - - - - < < 0 0 d d d d p p 3 3 < < < < - - - ; = = - - 3 3 < < < < - - & & # # O O O O # # & & & & & & & & & & & & & & * * * * * * * * * * * * * * & & & & & & & & & & & & & & & & # # * * - - , , , , , , * * * * & * & & & & & & & & & & & & & & & & # # # # # # # # + + # # # # # # + + + + + + + + + + + + + + + + + + + + + + + + + + + + + + + + + + + + + + + + O O O O O O O O O O O O O O O O O O O O O O O O O O # # + + # # & & - - - - - - - - - - * * * * - - - - * * = = & & & & & & & & & & & & & & ",
"j j 6 6 w w p p p p p p j j d d l l c c l l l l b b M M M M b b b b b b n n M n M M M M n n S S S S B B n n c c c c b b b b c c n n n n b b c c c c b b n n l l l l l c j j w w 6 6 6 6 6 6 , , - - * * * * * * : : * * * * : : : : : : , , , , 4 4 , , , , , , - - : : : : * * * * : : : : : , : : : : , , , , , , , , 4 4 , , , , 4 4 4 4 4 4 , , , , , , , , , , , , 4 4 , , , , , , , , 6 6 6 6 6 6 p p g g g g p p p p , , - - - * - - , , , , , , , , , , , , , , < < < < , , , , , , - - * * & & & & = = = = & & # # = = & & & & & & - - < < w w p p w w - - = = - - - - - - 3 3 d d d d d d d d w w - - = = - - p p d d d d 0 0 0 0 d d k l b b l k S S N N b b k k l l b b N N b b l l l l d d d d b b F F S S l l p p 0 0 w w p d 0 0 < < ; ; - > ; ; - - - - < < 3 < 3 3 0 w w w 0 w - - = = - - 3 3 3 3 < < - - < < = = = = 3 3 3 3 - - = = < < < < < < 3 3 3 3 3 3 < < - - < < - - = = = = - - w w d d p p w w 3 3 l l S S S S b b d d d d d d l l b b b b l l d d d k b b N b l l l l d k d d p p 3 3 0 0 d d l l 3 3 ; ; = = - - 3 3 0 0 p p p p w w < < - - = = & & ; ; < < < < < < , - - - & & & & # # # # & & + + # # # # & & & & & & & & & & & & & & * * * * * * * * * * * * & & & & & & & & & & & & & & * * , , 6 6 6 6 < < , , * * * * & & & & & & # # & & & & & & & & + + # # # # # # + + # # # # # # + + + + + + + + + + + + + + + + + + + + + + O O O O O O O O O O + + + + O O O O O O O O O O O O O O O O X X X X X X X X X X X X O O O O O O O O # # * * < < 6 6 < < , , - , - - < - - , - - - - - - - - * * - - - - - - = = ",
"j j 6 6 r w p p p p p p j j d d c l c c l l l l b b M M M M n n b b b b M n M M M M M M n n S S B B B B n n c c c c c b b b c c n n n n b b c c c c b b n n l l l l l c j j r r 6 6 6 6 6 6 , , - - * * * * * * : : * * * * : : : : : : , , , 4 4 4 , , , , , , - - : : : : : : : * : : : : : , , , : : , , , , , , , , 4 4 , , , , , , 4 4 4 , , , , , , , , , , , , 4 4 4 , , , , , , , , 6 6 6 6 6 6 p p g g g g p p p p , , - - * * - - , , , , , , , , , , , , , , 5 5 < < , , , , , , - - * * & & & & = = = = & & # # = = & & & & & & - - < < w w p p w w - - = = - - - - - - 3 3 d d d d d d d d w w - - = = - - p p d d d d 0 0 0 0 d d k l b b l k S S N N b b k k l l b b N N b b l l l l d d d d b b F F S S l l p p 0 0 w w d d 0 0 < < ; ; - > ; ; - - - - < < 3 3 3 3 w w w w 0 0 - - = = - - 3 3 3 3 < < - - < < = = = = 3 3 3 3 - - = = < < < < < < 0 3 3 3 3 3 < < - - < < - - = = = = - - w w d d p p w w 3 3 l l S S S S b b k d d d d d l l b b b b l l d d d k b b N N l l l l d d d d p p 0 0 0 0 d d l l 3 3 ; ; = = - - 3 3 0 0 p p p p w w < < - - = = & & ; ; < < < < < < , , - - & & & & # # # # & # + # # # # # & & & & & & & & & & & & & & * * * * * * * * * * * * & & & & & & & & & & & & & & * * , , 6 6 6 6 < < , , * * * * & & & & & & & & & & & & & & & & + + # # # # # # # + # # # # # # + + + + + + + + + + + + + + + + + + + + + + O O O O O O O O O O + + + + O O O O O O O O O O O O O O O O X X X X X X X X X X X X O O O O O O O O # # * * < < 6 6 < < , , - , - - , - - - - - - - - - - - * * - - - - - - = = ",
"b b c c l l d d d d p p r r p p r r r w w w w w p p p p d d p p d d j j l l c c n n M M M M M M M M M M n n c c c c c c c c n n b b b b c c l l l l l l c c l l l l l l d d p p p p 6 6 , , * * * * * * * * - - , , : : : : , , , , , , , , , , , , 4 4 4 4 , - - , : : - - : : : : : : : : - - , , , , , , , , 4 4 4 4 4 4 , , , , : : , , , , 4 4 , , , , , , , , , , 4 4 4 , , , 4 4 4 4 6 6 6 9 9 9 p p j j j j p p p p - - * * * * * * - - , , , , , , , , , , , , < < 6 6 < < , , * * < < - - & & & & - - - - * * & & = = & & & & = = - - 3 3 w w d d 3 3 < < - - - - , - < < w w d d l l d d w w < < - - - - < < 3 3 p p p p 0 0 0 0 w w k k b b B B B B b b d d d d k k k k b b b b l l l l b b b b b b S S F F b b d d i p 0 0 3 3 < < < < - ; ; ; - - - - - - < < 3 3 3 3 3 3 3 3 < < - - - - - * - - - - - - < < - - - - < < < < - - = = = = - - - - < < 3 3 w w 3 3 ; ; & & & & & & & & = = - - - - < < 3 3 0 0 p p l l S S F F S S b b b b b b N N l l p p d d k k d d d d d d b b b b b b k k w w < < < < 3 3 w w - - & & & & & & - - p p k d d d p p - - = = = = = = = = = = 6 6 6 6 0 0 < < - - & & # # O O & & + + + + & & * * * * & & & & & & & & & & & & * * * = = = * * & & & & & & & & & & & & & & & & & & & & * * - - * - = = & & & & & & & & & & & & & & & & & & & & + + + + + + + + + + + + + + + + + + + + + + + + + + + + + + + + O O O O + + O O O O + + + + + + O O O O O O O O O O O O O O O O O O O O O O O O X X O O X X X X O O O O # # # # # # & & - - 3 3 < < < < - - - - - - * * - - - - - - * * * * = = = = & & & & ",
"b b c c l l d d p p p p r r p p r r r w w w w w p p p p d d p p d d j j l l c c n n M M B B M M M M M M n n c c c c c c c c n n b b b b c c c c l l l l c c l l l l l l d d p p p p 6 6 < , * * * * * * * * - - , , : : : : , , , , , , , , , , , , 4 4 4 4 - - , , , : - - : : : : : : : : - - - - , , , , , , 4 4 4 4 4 4 , , , , : : , , , , 4 4 , , , , , , , , , , , , 4 , , , 4 , 4 4 6 6 6 6 9 9 p p j j j j p p p p - - * * * * * * - - , , , , , , , , , , , , < < 6 6 < < , , * * < < - - & & & & - - - - * * & & = = & & & & = = - - 3 3 w w d d 3 3 , < - - - , , < < < w w d d l l d d w w < < - - - - < < 3 3 p p p p 0 0 0 0 w w k k b b B B B N b b d d d d k k l k b b b b l l l l b b b b b b S S F F b b d d i p 0 0 3 3 < < < < - ; ; ; - - - - - - < < 3 3 3 3 3 3 3 3 - - - - - - - - - - - - - - < < < < - - < < < < - - = = = = - - - - < < 3 3 w w 3 3 ; ; & & & = & & & & = = - - - - < < 3 3 0 0 p p l l S S F F S S b b b b b b b b l l p p d d k k d d d d d d b b b b b b k k w w < < < < 3 3 w w - - & & & & & & - - p p k d d d p p - - = = = = = = = = = = 6 6 6 6 0 0 < < - - & & # # O O & & + + + + & & * * * * & & & & & & & & & & & & * * * = = = * * & & & & & & & & & & & & & & & & & & & & * * - - * - = = & & & & & & & & & & & & & & & & & & & & + + + + + + + + + + + + + + + + + + + + + + + + + + + + + + + + O O O O O + O O O O + + + + + + O O O O O O O O O O O O O O O O O O O O O O O O X X O O X X X X O O O O # # # # # # & & - - 3 3 < < < < - - - - - - * * - - - - - - * * * * & = = = & & & & ",
"n n n n b b c c c c c c c c d d d d j j j j j j j j d d p p w w w w r r p p p p p p p p p p j j l l l l l l l l j l l l c c b b b b n n n n c b c c c c b b l l l l d d w w 6 6 6 6 6 3 , , * * * * * * * * * * * * * * * * , , - , - - : : : : , , , , , , : : : : : : : : : : : : : : : : - - - - - - , : : : : : , , , , , , , , , , , , , 4 4 4 , , , , , , 4 4 4 4 4 4 , , , , , , 4 4 4 4 4 4 4 4 6 6 6 6 6 6 6 6 6 6 , , - - * * - - , , , , , , , , , < < < , , < < 6 6 5 < , , , , * * * * - - , , < < < < * * & & & & & & = = - - 3 3 w w p p d p w 6 6 6 3 6 w w w w < < w w d d l l d d w w 3 3 3 3 < < - - = = 0 0 0 0 0 0 0 0 0 0 d d l b b b S S N N b b b b b b b b b b l l B B S S G G F F S S G G F F b b d d d d d d d d d d d k d d d d 0 0 3 3 < < < < < < < < - - - - ; ; = = = = = = - - - - < < < < < < < < < < < < - - & & & & = = - - = = = = - - - - = = - - 3 3 < < 3 3 3 3 w w w w w w w w w w p p l l B B S S S S b b B B S S b b l l d d l l l b k l d d d d l l l l l l p p 3 3 - - - - - - - - = = = = - - - - 3 3 3 3 < < p p w w < < - - - < , , < < 3 3 , , , , - - - - * * = = & & & & & & + + + # & & * * * * & & & & & & & & & & & & & & & & & & & & & & & & & & & & & & # # # # # # # # & & & & & & & & & & & & # # # # + + + # O O # # # # # # + + + + + + O O + + + + + + + + O O + + + + + + + + + + + + + + + + O O O O O O O O O O O O O O O O O O O O O O O O O O O O O O O O O O O O O O O O O O O X X X X X X X O O + + O O + + # # & & = = - - ; - * * * * * * - - - - - - - - - - * * * * - - - - = * ",
"n n b b b b c c c c c c c c d d d d j j j j j j j j d d p p w w w w r r p p p p p p p p p p j j l l l l l l l l l l l l c c b b b b n n n n b b c c c c b b l l l l d d w w 6 6 6 6 6 3 , , * * * * * * * * * * * * * * * * , , - - - - : : : : , , , , , , : : : : : : : : : : : : : : : : , , - - - - , : : : : : , , , , 4 , , , , , , , 4 4 4 4 , , , , , , 4 4 4 4 , , , , , , , , 4 4 4 4 4 4 4 4 6 6 6 6 6 6 6 6 6 6 , , - - * * - - , , , , , , , , , , < < , , < < 6 6 5 5 , , , , * * * * - - , , < < < < * * & & & & & & = = - - 3 3 w w p p p p w w 6 6 3 3 w w w 6 < < w w d d l l d d w w 3 3 3 3 < < - - = = 0 0 0 0 0 0 0 0 0 0 d d l l b b S S N N b b b b b b b b b b l l M M S S G G F F S S G G F F N N d d d d d d d d d d k k d d d d 3 3 3 3 < < < < < < < < - - - - ; ; = = = = = = - - - - < < < < < < < - < < < < - - & & & & = = - - = = = = - - - - = = - - 3 3 < < 3 3 0 0 w w w w w w w w w w p p l l B B S S S S b b B B S S b b l l d d l l l l k l d d d d l l l l l l p p 3 3 - - - - - - - - = = = = - - - < 3 3 3 3 < < p p w w < < - - < < < , < < 3 3 - , , , - - - - * * = = & & & & & & + + # # & & * * * * & & & & & & & & & & & & & & & & & & & & & & & & & & & & & & # # # # # # # # & & & & & & & & & & & & # # # # + + + # O O # # # # # # + # + + + + O O + + + + + + + + O O + + + + + + + + + + + + + + + + O O O O O O O O O O O O O O O O O O O O O O O O O O O O O O O O O O O O O O O O O O X X X X X X X X O O + O + O + + # # & & = = - - * - * * * * * * - - - - - - - - - - - - - * - - - - = = ",
"M M b b c c c c c c l l d d j j c c b n M M M M c c l l d d p p d d d d j j l l j j d d d d w w r r p p p p p p d d d d j j j j j j c c c c c l c c c c b b l l l l d d w w w w w w 6 6 , , - - * * * * * * * * * * & & * * : : : : : : : : - - : : , , , , : : : : : : : : : : , , , , , , : : : : : : : : : : : : : : , , 4 , , , , , , , , , , , , , , : , , , , , , 4 4 , , , , , , , , 6 6 4 4 - - : : , , , , 4 4 6 6 , , - , - - , , , , , , , , , , , , , , - - - - - - , , - * - - = = * * - - < < 6 6 3 3 - - = = & & * * - - < < w w w w 3 3 < < 6 6 w w d d d d p p w w p p d d d d 3 3 - < < < w w p p 3 3 - - 0 0 3 3 3 3 < < < < 0 0 d d d d 0 0 d d k k k k b b S S N N b b b b B B G G G G S S S S S S b b b b l l d d k k b l b b b b l l b b l l d d p p p p p w 3 3 < < 3 0 0 0 3 3 3 3 3 3 3 3 3 3 3 3 < < < < < < w w 0 0 3 3 3 3 w w 3 3 < < < < < < < < < < w w d d k l l l l l l l d d d d d d p d d d k k b b b b b b b b N N B B l l d d d k b b b b k k p p w w - - - - - - - - = = & & = = ; ; ; - - - - - - - < < - - = = # & < < < < < < - - - - - - - - < < * * = = & & & & & & = = - - - - # # + + # # & & * * * * & & & & # # # # # # # # # # & & # # # # # # # # # # # # # # # # # # # # # # # # # # # # # # # # # # # # # # # # O O + + + + # # + + O O + + + + O O O O + + + + + + + + O O O O O O O O O O O O O O O O O O O O O O O O O O O O O O O O X O O O O O O O O O O O O O O O O O O O O O X X X X X X X X X X X X O O O O + + # # # # # # # # & & & & & & = = * * * * * * * * = = = = = = & = = = * - - - ",
"M M b b c c c c c c l l d d j j c c b b M M M M c c l l d d p p d d d d j j j l j j d d d d w w r r p p p p p p d d d d j j j j l l c c c c c l c c c c c b l l l l d d w w w w w w 6 6 , , - - * * * * * * * * * * & & * * : : : : : : : : - - : : , , - , * * : : : : : : : : , , , , , , : : : : : : : : : : : : : : , , 4 4 , , , , , , , , , , , , , : , , , , , , 4 4 , , , , , , , , 6 6 4 4 - - , : , , , , 4 4 6 6 , , - , * - , , , , , , , , , , , , , , - - - - - - , , - * - - = = * * - - < < 6 6 3 3 - - = = & & * * - - < < w w w w 3 3 < < 6 6 w w d d d d p p w w p p d d d d 3 3 < < < < w w p p 3 3 - - 0 0 3 3 3 3 < < < < 0 0 p d d d 0 0 d d k k k k b b S S B N b b b b B B G G G G S S S S S S b b b b l l k k k k b b b b b b l l b b l l d d p p p p p p 3 3 < < 0 0 0 0 3 3 3 3 3 3 3 3 3 3 3 3 < < - - < < w w w w 3 3 3 3 w w 3 3 < < < < < < < < < < w w d d k k l l l l l l d d d d d d p d d d k k b b b b b b b b N N B B l l d d k k b b b b k k p p w w - - - - - - - - = = & & = = ; ; ; - - - - - < - < < - - = = # & < < < < < < - - - - - - - - < < * - = = & & & & & & = = - - - - # # + + # # & & * * * * & & & & # # # # # # # # # # & & # # # # # # # # # # # # # # # # # # # # # # # # # # # # # # # # # # # # # # # # O O + + + + # # + + O O + + + + O O O O + + + + + + + O O O O O O O O O O O O O O O O O O O O O O O O O O O O O O O O O X X O O O O O O O O O O O O O O O O O O X O X X X X X X X X X X X X O O O O + + # # # # # # # # & & & & & & = = * * * * = = * * = = = = = = & & = = * * * * ",
"b b l l j j j j d j d d p p c c b b B B S S S S M M c c j j d d j j l l c c c c j j j j d d 5 5 5 5 5 5 5 5 5 5 6 6 6 6 6 6 6 6 w w r r r r p p p p d d d d l l d d p p p p p p p p 6 6 - - - - * * * * * * * * * * * * * * : : : : : : : : : : : : : : : : : : : : : : : : : : , , , , - - : : : : : : : : : : * : : : : : 4 4 , , , , , , , , , , 4 4 , , , , , , , , 4 , , , , , , , , , , , , , : : : : , , , , , , , , , , - - , , , , , , , , , , , , * * * * * * * * * * * * * * * * - - - - = = * * - - < < < < < < - - - - < < < < < < - - * * & & - - < < w w w w 3 3 6 6 p p d d d d 3 3 - ; ; ; < < p p p p 0 0 0 0 3 3 < < > > ; ; & & ; ; - - = = < < d d d d b b S S F F B B l l l l M M B B b b b b b b l l b b l l k k k k b l b b b b b b S S N N l l l l l l l l l l d d d d d d k k d d d d d d d d d d 3 3 3 3 p p d d l l l l l l b b d d d d d d d d k k d d d d k d b b b b b b b b l l k k d d d d p p d d d d d d l l l l d k d d d d p p d d b b b b d d w w 0 3 & & & & & & & & # # # # & & = = < < - - - - - - = = & & & & & & - - < < < < - - - - & & & & & & = = & & & & & & & & & & & & = = & & # # & & & & * * & & & & & & # # # # # # # # & & & & & & & # # # # # # # # # # # # # # # # # # # # # # # # # + + # # # # # # + + + # O O O O + + O O O + O O + + + + + + + + + + + + + + + + O O O O O O O O O O O O O O O O O O O O O O O O O O O O O O O O O O O O O O O O O O O O O O O O O O O O X X X X X X O O X X X X X X X X O O O O # # # # # # + + & & & & & & & & & & & & & & & & + + + + # # # # # # & & & & ",
"b b l l j j j j d d d p p p c c b b B B S S S S M M c c j j d d j j l l c c c c j j j j d d 5 5 5 5 5 5 5 5 5 5 6 6 6 6 6 6 6 6 w w r r p p p p p p d d d d l l d d p p p p p p p p 6 6 - - - - * * * * * * * * * * * * * * : : : : : : : : : : : : : : : : : : : : : : : : : : : : : : - - : : : : : : : : : : * * : : : : 4 4 , , , , , , , , , , , 4 , , , , , , , , 4 , , , , , , , , , , , , , : : : : , , , , , , , , , , , - , , , , , , , , , , , , * * * * * * * * * * * * * * * * - - - - = = - * - - < < < < < < - - - - < < < < < < - - * * & & - - < < w w w w 3 3 3 6 p p d d d d 3 3 ; ; ; ; < < p p p p 0 0 0 0 3 3 < < - - ; ; & & ; ; - - = = < < d d d d b b S S F F B B l l l l M M B B b b b b b b l l b b l l d d k k b l b b b b b b S S N N l l l l l l l l l l d k d d d d d d d d d d d d d d d d 3 3 3 3 p p d d l l l l l l b b d d d d d d d d k k d d d d k k b b b b b b b b l l k k d d d d p p d d d d d d l l l l d d d d d d d d d d b b b b d d w w 0 0 & & & & & & & & # # # # & & = = < , - - - - - - = = & & & & & & - - < < < < - - - - & & & & & & = = & & & & & & & & & & & & = = & & # # & & & & * * & & & & & & # # # # # # # # & & & & & & & # # # # # # # # # # # # # # # # # # # # # # # # # + + # # # # # # + + + + O O O O + + O O + + O O + + + + + + + + + + + + + + + + O O O O O O O O O O O O O O O O O O O O O O O O O O O O O O O O O O O O O O O O O O O O O O O O O O O O X X X X X X O X X X X X X X X X O O O O # # # # # # + + & & & & & & & & & & & & & & & & + + + + # # # # # # & & & & ",
"d d p p d d l l l l j j l l c c c c n b b b c c j j p p r r 5 5 6 6 6 6 6 6 5 5 , , - - * * , , , , - - , , , , , , , , , , , , 5 5 6 6 6 6 r r 6 6 w w 6 6 w w 6 6 6 6 w w w w 6 3 - - * * * * * * * * * * : : : : : : : : : : : : : : : : : : : : : : : : : , , , , , : : : : : : : : : : : : : : * : : : : : : : : : : : 4 4 , 4 , , , , , 4 4 4 4 4 , , 4 4 4 4 4 4 , , - - : : : : : : : : * * * * : : : : , : : , , , , , , , - - - - , , , , , , , , - - - - , , , , , , , , - - * * - - * * & & & & * * , , < < 6 6 , , , , , , , , < < , , - - * * - - , , < < , < - - < < p p d d d d p p < < ; - - - < < w w w w w w 3 3 < < - - & & & & & & - - 3 3 d d l l k k l l B B B B b b l l d d d d l l k l c c b b l l d d d d d d d d l l b b b b N N B B b b l l l k l l l l l l d d w w p p d d d d l l l l l l l l d d d d d d l l l l k k d d d d p p w w p p d d d d d d d d d d l l l l l l l l d k d d d d p p 3 3 3 3 3 3 w w p p w w 3 3 < < w w 3 3 w w d d l l d d 0 0 w w < < < < ; ; & & O O O O # # & & - - - - - - = = & & & & = = - - - - < < < < , , - - & & & & & & * * & & & & & & & & & & & & & & & & & & & & & & & & & & + + + # # # + + + + # # & & & & & & & & # # # # # # # # # # # # # # # # # # # # # # + + + + O O # # # # O O O O O O O O O O O O O O O O + + + + O O O O + + + + + + O O O O O O O O O O O O O O O O O O O O O O O O O O O O O O O O O O O O X X O O O O O O O O O O O O X X X X X X X X X X X X X X X X O O X X X X O O O O # # # # + + # # # # & & & & # # # # O O O O O O O O O O O O O O # # # + ",
"d d p p d d l l l l j j l l c c c c n b b b c c j j p p r r 5 5 6 6 6 6 6 6 5 5 , , - - * * , , , , - - , , , , , , , , , , , , 5 5 6 6 6 6 r r 6 6 w w 6 6 w w 6 6 6 6 w w w w 6 6 - - * * * * * * * * * * : : : : : : : : : : : : : : : : : : : : : : : : : , , , , , : : : : : : : : : : : : : : * : : : : : : : : : : : 4 4 , , , , 4 4 , 4 4 4 , , , , 4 4 4 4 4 4 , , - - : : : : : : : : * * * * * * : : , : : , , , , , , , - - - - , , , , , , , , - - - - , , , , , , , , - - * * - - * * & & & & * * , , < < 6 6 , , , , , , , , < < , , - - - - - - - , < < < < - - < < p p d d d d p p < < - - - - < < w w w w w w 3 3 < < - - & & & & & & ; ; 3 3 d d l l k k l l B B B B b b l l d d d d l l j l c c b b k l d d d d d d d d l l b b b b N N B B b b l l l k l l l l l l d d w w p p d d d d l l l l l l l l d d d d d d l l l l d k d d d d p p w w p p d d d d d d d d d d l l l l l l l l d d d d d d p p 3 3 3 3 3 3 w w p p w w 3 3 < < w w 3 0 w w d d l l d d 0 w w w < < < < ; ; & & O O O O # # & & - - - - - - = = & & & & ; ; - - - - < < < < , , - - & & & & & & * * & & & & & & & & & & & & & & & & & & & & & & & & & & + + + # # # + + + + # # & & & & & & & & # # # # # # # # # # # # # # # # # # # # # # + + + + + + # # # # O O O O O O O O O O O O O O O O + + + + O O O O + + + + + + O + O O O O O O O O O O O O O O O O O O O O O O O O O O O O O O O O O O X X O O O O O O O O O O O O X X X X X X X X X X X X X X X X O O X X X X O O O O # # # # + + # # # # & & & & # # # # O O O O O O O O O O O O O O + + + + ",
"r r 6 6 p p d d r p d p d d r r r r w w 5 5 < < - - * * & & & & & & & & * * * * * * * * * * , , , , - - , , 5 5 5 5 5 5 < < < < 5 5 6 6 6 6 6 6 < < 6 6 6 6 3 3 < < 3 3 w w 6 6 , , * * & & * * * * & & * * : : : : : : : : : : * * * * : : : : : : : : * * : : : : : : * * * * * * * * * * : : * * : : : : : : : : * * : : , , : : : : - - , , , , , , , , 4 4 , , , , - - : : : : : : * * * * * * * * : : , , , , , , - - * * * * * * * * * * * * * * * * - - - - , , , , , , , , * * * * * * & & & & * * * * - - - - - - - - - - , , , , 6 6 6 6 w w w w < < 3 6 3 3 < < , , 3 3 p p d d w w 3 3 3 3 < < - - < < 3 3 p p w w 3 3 < < < < - - & & = = < < p p d d d k p p w w p p d d p p d d 6 6 < < < < < < w w p p 3 0 0 0 3 3 3 0 3 3 3 3 3 3 w w d d d d p p w w 3 3 3 3 3 3 < < - < < < 3 3 w w d d d d d d k k d d d d d d d d k k d d p p w w w w 0 0 < < - - - - - - - - - - < < w w 0 0 3 3 < < - - - - - - - - - - - - - - < < < < < < - - = = - - = = ; ; - - < < - - - - < < < < - - = = # # @ @ & & & & & & = = - - - - - - = = & & = = - - & & = = = = = = = = & & = = = = * * = = & & = = * * = = & & & & & & + + # # & & # # + + + + + + O O O O O O O O # # # # # # # # # # # # # # + + + + + + O O O O O O O O O O O O O O O O + + + + O O O O O O O O O O O O O O O O O O O O O O O O O O O O O O O O O O O O O O O O O O O O O O O O O O O O O O O O O O O O O O O O . . . . . . . . X X X X . . O O X X X X X X O O X X X X X X X X O O X X . . X X X X O O O O O O X X O O O O O O O O O O O O O O O O O O O O O O O O + + + + ",
"r r 6 6 p p d d p p d p d d r r r r w w 5 5 < < - - * * & & & & & & & & * * * * * * * * * * < , , , , , , , 5 5 5 5 5 5 < < < < 5 5 6 6 6 6 6 6 5 < 6 6 6 6 3 3 < < 3 3 w w 6 w , , * * & & * * * * & & * * : : : : : : : : : : * * * * : : : : : : : : : : : : : : : : : * * * * * * * * * : : : : : : : : : : : : * * : : , , : : : : - , , , , , , , , , 4 4 , , , , - - : : : : : : * * * * * * * * : : , , , , , , - - * * * * * * * * * * * * * * * * - - - - , , , , , , , , * * * * * * & & & & * * * * - - - - - - - - - - , , , , 6 6 6 6 w w w w < < 6 6 3 3 < < , , 3 3 p p d d w w 3 3 3 3 < < - - < < 3 3 p p w w 3 3 < < < < - - & & = = < < p p d d d d p p w w p p d d p p d d 6 6 < < < < < < w w p p 0 0 0 0 3 3 3 0 3 3 3 3 0 0 w 0 d d d d p p w w 3 3 3 3 3 3 < < - - < < 3 3 w w d p d d d d d k d d d d d d d d k k d d p p w w w w w 0 < < - - - - - - - - - - < < w w 0 0 3 3 < < - - - - - - - - - - - - - - < < < < < < - - = = ; - = = ; ; - - < < - - - - - < < < - - = = # # @ @ & & & & & & = = - - - - - - = = & & = = - - & & = = = = = = = = & & = = = = * * = = & & = = * * = = & & & & & & + + # # & & # # + + + + + + O O O O O O O O # # # # # # # # # # # # # # + + + + + + O O O O O O O O O O O O O O O O + + + + O O O O O O O O O O O O O O O O O O O O O O O O O O O O O O O O O O O O O O O O O O O O O O O O O O O O O O O O O O O O O O O O . . . . . . . . . X X . . . O O X X X X X X O O X X X X X X X X O O X X . . X X X X O O O O O O X X O O O O O O O O O O O O O O O O O O O O O O O O + + + + ",
"< < , , , , , , * * - - < < - - * * & & & & & & & & & & & & & & & & * * - - , , , , , , < < - - - - - - - - , , < < 5 5 , , - - - - , , , , - - - - , , < < w 6 3 3 6 6 6 6 < < * * & & * * & & & & & & & & * * : : : : * * * * * * * * * * * * & & & & * * * * & * * * * * * * * * * * & & * & * * * * * * * * * * : : * * * * * * * * : : , - , , : : : : , - : : : : : : : : : : : : * * : : * * * * : : : - : : : : * * * * * * & & & & & & * * * * & & * * * * * * * * * * * * * * & & & & & & = * * * * * * * * * * * * * & & * * * * , , 6 6 w w w w < < 6 6 w w 6 6 w 6 w w w w < < - - - - < < < < 3 3 0 w p p d d 3 3 3 3 3 3 w w < < - - - - 3 3 - - < < 3 3 < < - - - - - - < < < < & & & & = = & & & & - - = = - - - - - - ; ; & & # # & & & & - - - - - - - - - - & & & & & & - - - - < < 3 3 3 3 3 3 3 3 w w 3 3 < < 3 3 w w p p 3 3 < < < < 3 3 - - & & & & & & & & & & = = - - ; ; & & & & # # @ @ # # # # = = = = = = = = = = = = & & & & & & O O @ @ & & & & & & & & = = & & & & & & # # # # & & = = = = * * = = = = - - - - = = & & & & & & & & & # # # & & & & = = = = = = & & & & & & & & & & & & # # + + + + + + + + + + O O O O + + O O O O O O O O O O O O O O O O O O O O O O O O O O O O O O O O O O O O X O O O O O O O O O O O O O O O O O O O O O O O O O O O O O O O X X X O O O O O O O O O O O O O O O O O O O O O X X . . O O X X X X . . . . X X . . . . . . . . . . . . X X . . . . X X X X X X X X O X X X X X X X X X . . . .         X X X X X X O O X X X X X X O O O O O O O O O O O O O O O O O O O O O O O O ",
"< < , , , , , , * * - - < < * - * * & & & & & & & & & & & & & & & & * * - - , , , , , , < < - - - - - - - - , , < < < 5 , , - - - - , , - , - - - - , , , , w w 3 3 6 6 w 6 < < * * & & * * & & & & & & & & * * : : : : * * * * * * * * * * * * & & & & * * * * * * * * * * * * * * * * & & * & * * * * * * * * * * : : * * * * * * * * : : , , , , : : , , , , : : : : : : : : : * : : * * : : * * * * : : : - : : : : * * * * * * & & & & & & * * * * & & * * * * * * * * * * * * * * & & & & & & = * * * * * * * * * * * * * & & * * * * , , 6 6 w w w w < < 6 6 w w 6 6 6 6 w w w w < < - - - - < < < < 3 3 0 0 p p d d 3 3 3 3 3 3 w w < < - - - - 3 3 - - < < 3 3 < < - - - - - - < < , < & & & & = = & & & & - - = = - - - - - - ; ; & & # # & & & & - - - - - - - - - - & & & & & & - - - - < < 3 3 3 3 3 3 0 0 w w 3 3 < < 3 3 w w p p 3 3 < < < < 3 3 - - & & & & & & & & & & = = - - = ; & & & & # # @ @ # # # # = = = = = = = = = = = = & & & & & & O O @ @ & & & & & & & & & & & & & & & & # # # # & & = = = = * * = = = = - - - - = = & & & & & & & & # # # # & & & & = = = = = = & & & & & & & & & & & & # # + + + + + + + + + + O O O O + + O O O O O O O O O O O O O O O O O O O O O O O O O O O O O O O O O O O O O O O O O O O O O O O O O O O O O O O O O O O O O O O O O O O O X X O O O O O O O O O O O O O O O O O O O O O O X X . X O O X X X X . . . . X X . . . . . . . . . . . . X X . X . . X X X X X X X X X X X X X X X X X X . . . .         X X X X X X O O X X X X X X O O O O O O O O O O O O O O O O O O O O O O O O ",
"& & & & * * & & & & & & , , & & & & & & & & * * - - , , , , - - - - - - - - * * * * & & & & & & & & # & & & & & & & & & & & & & & & & & # # & & & & & & & & 3 3 < < < < < < * * & & & & & & & & & & & & & & & & * * * * & & & & * * & & * * & & * * * * & & & & & & & & & & & & & & * * * * & & & & & & & & * & & & * * * * * * & & & & * * : : - - - : : : : : : : * * : : : : : : * : * * * * & & * * * * * * * * * * * * * * & & & & & & & & & & & & & & * * * * & & & & & & * * & & & & * * * * * * * * * * * * * * * * & & & & & & & & * * * * * * * * & & - - < < < < 3 3 6 6 - - & & 3 3 < < , , , , 3 < 3 3 w w p p 3 3 3 3 w w d d w w - - * * < < - - - - < < 3 3 < < - - - - 3 3 & & & & & & * * & & & & = = & & & & = = - - = = # # O O # # & & = = - - < < < < - - = = & & & & O O # # & & = = = = - - - < < < - - = = ; ; - - < < - - = = & & & & # # O O @ @ & & & & & & = = - < - - = = & & # # O O O @ @ O & & & & & & & & & & # # @ @ O O & & O O O O & & & & & & & & & & & & & & & & & & & & & & = = = & = = & & # # & & - - - - ; ; & & = = & & @ @ O O # # & & & & & & & & & & # # O + # # # # O O O O O O O O O O + + + + O O O O + + O O O O O O O O O O O O O O O O O O O O O O X X X X X X X X X X X X X X X X X X X X X X X X X X X X X X X X X X X X X X X X X X O O O O X X O O O O O O O O O X . . X X . . . . . . X X . . . . O O X X X X X X . . . . . . . . X X X X X X X X O O O O O O O O X X X X X X X X X X X X X X X X             . . X X X X O O O O X X X X O O O O O O O O O O O O O O O O O O O O O O O O O O ",
"& & & & * * & & & & & & , , & & & & & & & & * * - - , , , , - - - - - - - - * * * * & & & & & & & & & & & & & & & & & & & & & & & & & & # # & & & & & & & & 3 3 < < < < < < * * & & & & & & & & & & & & & & & & * * * * & & & & * * * & & & & & * * * * & & & & & & * * & & & & & & * * * * & & & & & & & & * * * & * * * * * * & & & & * * : : - - : : : : : : : : * * : : : : : : * * * * * * * * * * * * * * * * * * * * * * & & & & & & & & & & & & & & * * * * & & & & & & * * & & & & * * * * * * * * * * * * * * * * & & & & & & & & * * * * * * * * & & - - < < < < 3 3 6 w - - & & 3 3 < < , , , , < < 3 6 w w p p 3 3 3 3 w w d d w w - - * * < < - - - - < < 3 3 < < - - - - 3 3 & & & & & & * * & & & & = = & & & & = = - - = = # # O O # # & & = = - - < < < < - - = = & & & & O O # # & & = = = = - - - - < < - - = = ; ; - - < < - - = = & & & & # # O O @ @ & & & & & & = = - < - - = = & & # # O O @ @ @ O & & & & & & & & & & # # @ @ O O # # O O O O & & & & & & & & & & & & & & & & & & & & & & = = = = = = & & # # & & - - - - ; ; & & = = & & @ @ O O # # & & & & & & & & & & # # O + # # # # O O O O O O O O O O + + + + O O O O + + O O O O O O O O O O O O O O O O O O O O O O X X X X X X X X X X X X X X X X X X X X X X X X X X X X X X X X X X X X X X X X X X O O O O X X O O O O O O O O O O . . X X . . . . . . . . . . . . O O X X X O X X . . . . . . . . X X X X X X X X O O O O O O O O O O O O X X X X X X X X X X X X             . . X X X X O O O O X X X X O O O O O O O O O O O O O O O O O O O O O O O O O O ",
"- - - - - - , , , , - - & & , , , , - - * * - - 5 5 < < * * < < , , - - * * * * * * * * * * & & & & * * * * * * - - - - , , & & * * * * * * & & & & - - , , 6 6 w w 3 3 - - & & * * * * = = = = & & & & & & & & & & & & & & & & & & & & & & & & & & & & & & + + + + + + & & & & * * * * * * * * & & & & & & & & * * * * * * & & & & & & & & & & * * * * * * & & * * * * * * * * * * * * * * * * * * & & & & & & & & & & & & & & # # # # # # & & & & & & # # * * & & & & & & & & & & # # # # # # # # & & & & & & & & & & & & & & & & & & * * * * - - * * * * # # & & - - , , * * * * & & & & < < < < , , , , , , , , 6 6 w w < < < < < < 6 6 6 6 6 6 6 6 6 6 , , , , , , , , , , , , , , * * & & & & = = - - - - & & & & & & * * , < 3 3 - - & & # # & & - - < < - - * * & & & & & & * * - - & & # # O O # # * * < < , , - - - - - - = = = = - * * * ; ; ; ; # # O @ @ @ # # & & & & & & & & = = = = - - - - = = & & # # O O - - - - = = & & & & # # # # & & & & # # @ @ @ @ & & & & & & & & & & & & & & & & & & & & & & & & & & & & & & & & & & & & # # # # & & & & # # # # # # # # # # + + & & & & O O O O + + # # # # # # O O O O O O O O O O O O O O X X X X X X X X X X X X X X X X X X X X X X X X X X X X X X X X X X X X X X X X X X X X X X X X X X X X X X X X X X X X X X X X X X X X X X X X X X X X X X X X X X X X X . . . X X X X X X X X X X X X X X X X X X X X X X X X X X X X X X X X X X X X X X X X X X X X X X X X X X X X X X X X . . X X             X X O O # # & & # # O O X X X X O O O O O O O O X X O O O O O O O O O O O O ",
"- - - - - - , , , , - - & & , , , , - - * * - - 5 5 < < * * < < , , - - * * * * * * * * * * & & & & * * * * * * - - - - , , & & * * * * * * & & & & - - , , 6 6 w w 3 3 - - & & * * * * = = = = & & & & & & & & & & & & & & & & & & & & & & & & & & & & & & + + + + + + & & & & * * * * * * * * & & & & & & & & * * * * * * & & & & & & & & & & * * * * * * & & * * * * * * * * * * * * * * * * * * & & & & & & & & & & & & & & # # # # + # & & & & & & # # * * & & & & & & & & & & # # # # # # # # & & & & & & & & & & & & & & & & & & * * * * - - * * * * # # & & - - , , * * * * & & & & < < < < < < , , , , , , 6 6 w w < < < < < < 6 6 6 6 6 6 6 6 6 6 , , , , , , , , , , , , , , * * & & & & = = - - - - & & & & & & * * , < < < - - & & # # & & - - , , - - * * & & & & & & * * - - & & # # O O # # * * < < , , - - - - - - = = = = - - * * ; ; ; ; # # O O @ @ # # & & & & & & & & = = = = ; - - - = = & & # # O O - - - - = = & & & & # # # # & & & & & # @ @ @ @ & & & & & & & & & & & & & & & & & & & & & & & & & & & & & & & & & & & & # # # # & & & & # # # # # # # # + + + + & & & & O O O O + + # # # # # # O O O O O O O O O O O O O O X X X X X X X X X X X X X X X X X X X X X X X X X X X X X X X X X X X X X X X X X X X X X X X X X X X X X X X X X X X X X X X X X X X X X X X X X X X X X X X X X X X X . . . . X X X X X X X X X X X X X X X X X X X X X X X X X X X X X X X X X X X X X X X X X X X X X X X X X X X X X X X X . . X X             X X O O # # & & # # O O X X X X O O O O O O O O X X O O O O + + O O O O O + ",
"5 5 5 5 5 5 5 5 < < < < , , 5 5 6 6 < < , , , , 6 6 5 5 , , 6 6 6 6 5 5 5 5 5 5 6 6 6 6 6 6 5 5 5 5 6 6 5 5 < < < < < < 5 5 , , , , < < < < , , < < , , < < - - , , - - - - * * - - - - - - - - = = & & # # & & & & & & & & & & & & & & & & & & # # & & & & # # + + $ $ $ & & & & & & & * * & & & & & & & & & & & & & & & & & & & & & & & & & & & & * * * * & & & & & & & & & & & & & & & & & & * * & & & & & & $ $ $ $ & & & & + + + + + + & & & & $ $ + + & & & & + + + + + + + + + + + + + + + + + + + + # # # # # # # # & & & & & & & & * * * * * * & & & & & & - - - - * * & & & & & & * * - - - - * * * * * * , , , , , , , , , , , , , , , , < < < < < < , , , , , , - - * * * * & & & & & & & & - - * * & & & & & & = = - - < < , < * * & & - - < < - - * * & & # # # # # # & & & & & & # # O O O O + + # # & & & & = = - - - - = = = = & & # # # # O O O O O O O O @ O O O O O O O O O O O & & & & & & & & # # # # ; ; = = = = & & # # # @ & & & & & & & & # # # # # # & & & & & & & & & & & & & & & & & & & & & & & & & & & & & & & & # # # # O + + + + + + + O O O O O O O O O O & & + + O O O O O O O O O O O O O O O O X X X X O O O O X X X X X X X X X X X X X X X X X X X X X X X X X X X X X X X X X X X X X X X X X X X X X X X X X X X X X X X X X X X X X X X X X X X X X X X X X X X X X X X X X X X X X X X X X X X X X X X X X X X X X X X X X X X X X X X X X X X X X X X X X X X X X X X X X X X X X X X X X X X X X X X X X X X X X X X X     X X O O # # # # # # + + + + + + O O O O O O X X X X O O O O # # & & & & # # # & ",
"5 5 5 5 5 5 5 5 5 5 < < , , 5 5 6 6 < < , , , , 6 6 5 5 , , 6 6 6 6 5 5 5 5 5 5 6 6 6 6 6 6 < < 5 5 6 6 5 5 5 < < < < < 5 5 , , , , < < < < , , , < < , < < - - , , - - * - * * - - - - - - * * = = & & # # & & & & & & & & & & & & & & & & & & & & & & & & # # + + $ $ $ & & & & & & & * * & & & & & & & & & & & & & & & & & & & & & & & & & & & & * * * * & & & & & & & & & * & & & & & & & & * * & & & & & & $ $ $ $ & $ & $ + + + + + + & $ & & $ $ + + & $ & & + + + + + + + + + + + + + + + + + + + + + # # # # # # # & & & & & & & & * * * * * * & & & & & & - - - - * * & & & & & & * * - - * - * * * * * * , , , , , , , , , , , , , , , , < < < < < < , , , , , , - - * * * * & & & & & & & & - - * * & & & & & & = = - - < < , , * * & & - - < < - - * * & & # # # # # # & & & & & & # # O O O O + + # # & & & & = = - - - - = = = = & & # # # # O O O O O O O O O O O O O O O O O O O O & & & & & & & & # # # # ; ; = = = = & & # # # # & & & & & & & & # # # # # # & & & & & & & & & & & & & & & & & & & & & & & & & & & & & & & & # # # # O + + + + + + + O O O O O O O O O O & & + + O O O O O O O O O O O O O O O O X X X X O O O O X X X X X X X X X X X X X X X X X X X X X X X X X X X X X X X X X X X X X X X X X X X X X X X X X X X X X X X X X X X X X X X X X X X X X X X X X X X X X X X X X X X X X X X X X X X X X X X X X X X X X X X X X X X X X X X X X X X X X X X X X X X X X X X X X X X X X X X X X X X X X X X X X X X X X X X X     X X O O # # # # # # + + + + + + O O O O O O X X X X O O O O # # & & & & # # & & ",
"- - , , , , < < 5 5 6 6 r r r r r r r r w w r r p p p p r r w w w w r r p p p p d d d d d d r r p p d d d d d d p p p p d d p p p p p p p p p p p p w w 6 6 * * - - * * * * - - < < , , - - - - = = & & # # # # # # & & & & # # + # # # & & & & & & & & & & & & # # # # & & & & & & & & & & & & & & & & & & & & & & & & & & & & & & & & & & & & & & & & & & & & & & & & & & * * * * & & & & & & & & & & & & & & $ $ & & & & $ $ + + + + + + & $ & + + + + + + + $ $ $ + + + + + + + + + + + + + + + + + + + + + + + + + + + & & # # # # & & & & & & & & & & # # & & * * * * & & & & & & & & & & & & & & & & & & & & * * * * - - * * * * * * * * - - - - - - , , * * * * * * & & & & & & & & & & & & & & * * * * & & & & & & & & = = - - * * * * = = - - - - - - = = & & + + O O O O O O O O # # # # O O O O . .     X X O O & & & & = = = = # # O O X X     X X O O O O O O # # O O O O O O X X O O # # & & = = = = & & & & & & & & & & & & @ @ # # # # # # & & & & # # # @ @ @ # # # # O O O O O O @ @ # # # # # # # # # # + + # # # # # # # # # # # # O O O O # # O O O O O O O O O O O O O O O O X X X X O O O O O O X X X X X X X X X X X X X X X X X X X X X X X X X X X X X X X X X X X X X X X X X X X X X X X X X X X X X X X X X X X X X X X X X X X X X X X X X X X X X X X X X X X X X X X X X X X X X X X X X X X X X X X X X X X X X X X X X X X X X X X X X X X X X X X X X X X X X X X X X X X X X X X X X X X X X X X X X X X X X X X X X X X X         X X O O O O O O O O O O + + + + O O O O X X X X X X O + # # & & & & & & & & & & ",
"- - , , , , < < 5 5 6 6 r r r r r r r r w w w w p p p p r r w w w w r r p p p p d d d d d d r r p p d d d d d d p p p p d d p p p p p p p p p p p p w r 6 6 * * - - = * * * - - < < , , - - - - = = & & # # # # # # & & & & # # + # # + & & # # & & & & & & & & # # # # & & & & & & & & & & & & & & & & & & & & & & & & & & & & & & & & & & & & & & & & & & & & & & * * & & & & & & & & & & & & & & & & & & & & $ $ & & $ $ + + + + + + + + & $ & + + + + + + + $ $ $ + + + + + + + + + + + + + + + + + + + + + + + + + + + & & # # # # & & & & & & & & & & # # & & * * * * & & & & & & & & & & & & & & & & & & & & * * * * - - * * * * * * * * - - - - - - , , - - * * * * & & & & & & & & & & & & & & * * * * & & & & & & & & = = - - - - * * = = - - - - - - = = & & + + O O O O O O O O # # # # O O O O . .     X X O O & & & & = = = = # # O O X X     X X O O O O O O # # O O O O X O X X O O # # & & = = = = & & & & & & & & & & & & @ @ # # # # # # & & & & & # # @ @ @ # # # # O O O O O O @ @ # # # # # # # # # # + + # # # # # # # # # # # # O O + O # # O O O O O O O O O O O O O O O O X X X X O O O O O O X X X X X X X X X X X X X X X X X X X X X X X X X X X X X X X X X X X X X X X X X X X X X X X X X X X X X X X X X X X X X X X X X X X X X X X X X X X X X X X X X X X X X X X X X X X X X X X X X X X X X X X X X X X X X X X X X X X X X X X X X X X X X X X X X X X X X X X X X X X X X X X X X X X X X X X X X X X X X X X X X X X X         X X O O O O O O O O O O # # + + O O O O X X X X X X O O # # & & & & & & & & & & ",
"+ + + + # # & & & & * * - - , , < < 5 5 5 5 6 6 w w p p p p w w r r p p p p d d d d d d d d d d d d j j l l j j j j d d d d d d p p p p p p p p p p 6 6 < < - - * * = = - - , , < < - - = = = = & & # # O O O O O O # # # # & & & & & & & & & & & & & & & & & & & & & & & & * * * * & & & & & & & & & & & & & & & & & & # # & & & & & & & & & & & & & & & & & & & & & & & & & & & & & & & & * & & & & * & & & & & & & & & & $ + $ $ + + + + & & $ $ $ $ + + & & & & + + + + + + + + + + + + + + + + + + + + + + + + + + + + # # # # + + + + # # # # # # + + + + + + & & & & # + + + + + + + & & & & & & & & & & & & & & * * * * * * & & & & & & & & & & & & & & & & # # + + # # # # # # # # & & & & & & & & & & & & & & & & # # & & & & & & & & = = = = & & = = & & & & # # O O O O O O O O & & & & & & O O X X . . X X O O # # & & = = & & + + X X X X X X X X O O O O & & & & & & # # O O O O # # & & & & = = & & & & & & & & & & & & @ @ O O O O O O # # & & # # O O O O O O O O O O O O O O O O O O O O O O O O O O O O O O O O O O O O # + O O + + O O O O + + O O O O O O O O O O O O O O X X X X X X X X X X X X X X X X X X . . X X X X X X X X X X X X X X X X X X X X X X X X X X X X X X X X X X X X X X X X X X X X X X X X X X X X X X X X X X X X X X X X X X X X X X X X X X X X X X X X X X X X X X X X X X X X X X X X X X X X X X X X X X X X X X X X X X X X X X X X X X X X X X X X X X X X X X X X X X X X X X X X X X X X X X X X X X                 . . X X X X . . O O O O X X . . . . X X O O O O O O # # & & & & & & & & & & ",
"+ + + + # # & & & & * * - - , , < < 5 5 5 5 5 5 w w p p p p r r r r p p p p d d d d d d d d d d d d j j l l j j j j d d d d d d p p p p p p p p p p 6 6 < < - - * * = = - - , , < < - - = = = = & & # # O O O O O O # # # # & & & & & & & & & & & & & & & & & & & & & & & & * * * * & & & & & & & & & & & & & & & & & & & # & & & & & & & & & & & & & & & & & & & & & & & & & & & & & & & & & & & & & & * * & & & & & & & & + + $ $ $ $ + + & & & $ $ $ + + & & & & + + + + + + + + + + + + + + + + + + + + + + + + + + + + # # # # + + + + # # # # # + + + + + + + & & & & # # + + + + + + & & & & & & & & & & & & & & * * * * * * & & & & & & & & & & & & & & & & # # + + # # # # # # # # & & & & & & & & & & & & & & & & # # & & & & & & & & = = = = & & = = & & & & # # O O O O O O O O & & & & & & O O X X . . X X O O # # & & = = & & + + X X X X X X X X O O O O & & & & & & # # O O O O # # & & & & = = & & & & & & & & & & & & @ @ O O O O O O @ # & & # # O O O O O O O O O O O O O O O O O O O O O O O O O O O O O O O O O O O O + + O O + O O O O O + O O O O O O O O O O O O O O O X X X X X X X X X X X X X X X X X X . . X X X X X X X X X X X X X X X X X X X X X X X X X X X X X X X X X X X X X X X X X X X X X X X X X X X X X X X X X X X X X X X X X X X X X X X X X X X X X X X X X X X X X X X X X X X X X X X X X X X X X X X X X X X X X X X X X X X X X X X X X X X X X X X X X X X X X X X X X X X X X X X X X X X X X X X X X X                 . . X X X X . . O O O O X X . . . . X X O O O O O O # # & & & & & & & & & & ",
"# # + + + + # # # # + + O O # # # # & & & & & & * * - - , - , , < < 5 5 6 6 6 6 r r r r r r p p d d j j j j d d p p r r r r d d 6 6 < < , , 5 < 5 5 - - * * - - = = = = - - , , - - * * & & & & & & # # O O O O + + # # # # & & & & & & & & & & & & & & & & & & & & & & & & & & & & & & & & & & & & & & & & & & & # + + + + & & & & # # & & & & & & # # # # & & & & & & & & & & & & & & & & & & & & & & & & & & & $ & & & & $ $ $ $ + + + $ & & & & & & + + + + + + + + + + $ + + + + + # # # # # # # # # # + + + + + + + + & & # # + + + + + + # # + + + + + + + + + + # # # # # # # # # # & & & & & & & & & & & & & & & & & & & & & & & & # # # # & & & & # # + + + + + + + + # # # # # + + + + + # # & & & & + + + + & & & & & & & & & & & & & & & & & & & & & & & & # # # # # # # # # # * * = = & & # # + + O O # + # # # # & & = & & = & & # # # # # # X X O O # # & & & & & & # # O O # # # # # # # & # # # # # # # # + + # # # # # # # + O O O + # # O O O O O O O O O O O O O O O O O O O O O O O O O O O O O O O O O O O O O O O O O O O O O O O O O O O O X X X X X X X X X X X X X X X X X X X X X X X X X X X X X X X X X X X X X X X X X X X X . . . . . . . . . . . . . . . . X X X X X X X X X X X X X X X X X X X X X X X X X X X X X X X X X X X X X X X X X X X X X X X X X X X X X X X X X X X X X X X X X X X X X X X X X X X X X X X X X X X X X X X X X X X X X X X X X X X X X X X X X X X X X X X X X X X X O X X X X X X X X X X X X X X X X X . . X X X X X X X X + + O O . .     X X O O O O O O O O # # & # & & & & & & & & ",
"# # + + + + # # # # + + O + # # # # & & & & & & * * - - , , , , < < 5 5 6 6 6 6 r r r r r r p p d d j j j j d d p p r r r r p p 6 6 < < , , 5 5 5 5 - - * * - - = = = = - - , , - - * * & & & & & & # # O O O O + + # # & & & & & & & & & & & & & & & & & & & & & & & & & & & & & & * & & & & & & & & & & & & & # # + + + + & & & & # # & & & & & & # # # # & & & & & & & & & & & & & & & & & & & & & & & & & & & & & & & $ $ $ + $ + + + $ & & $ $ & & + + + + + + + + + + + + + + $ + # + # # # # # # # # + + + + + + + + & & # # + + + + + + # # + + + + + + + + + + # # # # # # # # # # & & & & & & & & & & & & & & & & & & & & & & & & # & # # # & & & # # + + + + + + + + # # # # + + + + + + # # & & & & + + + + & & & & & & & & & & & & * & & & & & & & & & & & # # # # # # # # # # * * = = & & # # + + O O + + # # # # & & = & & = & & # # # # # # X X O O # # & & & & & & # # O O # # # # # # # # # # # # # # # # + + # # # # # # # # O O + + # # O O O O O O O O O O O O O O O O O O O O O O O O O O O O O O O O O O O O O O O O O O O O O O O O O O O O X X X X X X X X X X X X X X X X X X X X X X X X X X X X X X X X X X X X X X X X X X X X . . . . . . . . . . . . . . . . X X X X X X X X X X X X X X X X X X X X X X X X X X X X X X X X X X X X X X X X X X X X X X X X X X X X X X X X X X X X X X X X X X X X X X X X X X X X X X X X X X X X X X X X X X X X X X X X X X X X X X X X X X X X X X X X X X X X O O X X X X X X X X X X X X X X X X . . X X X X X X X X + + O O . .     X X O O O O O O O O # # & # & & & & & & & & ",
", , * * - - < < 5 5 - - & & + + + + + + + + # # + + # # & & # # # # & & & & * * * * - - - - - - , , 5 5 6 6 w 6 6 6 w w r r p p 6 6 - - - - - - - - - - & & = = & & & = - - , , - - = = & & & & & & & & # # # # # # & & & & & & & & & & & & & & & & & & & & & & & & & & & & & & & & & & & & & & & & & & & & & # & & # # # # # # & # # # & & & & & & & & # & & & & & $ $ $ $ & & $ $ + $ $ $ & $ & & + + + + + + + + + + + + $ $ + + + + + + & & $ $ $ $ + + + + + + + + + + + + + + + + + + + + + + + + + + + + + + + + + + & & & & # # # # & & & & & & # # + + + + + + & & & & & & & & & & & & & & & & & & & & & & & & & & & & & & & & & & & & # # & & & & & & & & # # # # & & & & & & # # & & # # # # & & & & # # + + & & & & & & # # & & & & & # + + + + # # # # # # # # # # # # # # # # & & # # O + + + + + # # # # # # # # & & & & & & & & & & & & & & O O O O O O + + # # + + O O X X # # O O O O O O O O O O + # # # O O O O O O # # O O O O O O # # O O O O X X O O O O O O O O O O O O O O O O O O O O O O O O O O O O O O O O O O O O O O O O O O O O O O O O O O X X X X X X X X X X X X X X O O O O X X X X X X O O X X X X X X O O O O X X X X X X X X X X X X X X X X X X X X X X X X X X X X X X X X X X X X X X X X X X X X X X X X X X X X X X X X X X X X X X X X X X X X X X X X X X X X X X X X X X X X X X X X X X X X X X X X X X X X X X X X X X X X X X X X X X X X X X X X X X X X X X X X X X X X X X X X X X X X X X X X X X X X O O X X X X X X X X X X X X X X + + O O X X O O O O + + O O X X O O O O O O O O O O X O O O ",
", , * * - - < < 5 5 - - & & + + + + + + + + # # + + # # & & # # # # & & & & * * * * - - - - - - , , 5 5 6 6 w w 6 6 w w r r p p 6 6 - - - - - - - - - - * & = = & & = = - - , , - - = = & & & & & & & & # # # # # # & & & & & & & & & & & & & & & & & & & & & & & & & & & & & & & & & & & & & & & & & & & & & # & & & & # # # # & # # # # & & & & & & & & & & & & & $ $ $ $ & & $ $ + $ $ $ $ $ & $ + + + + + + + + + + + + $ $ + + + + + + & & $ $ $ + + + + + + + + + + + + + + + + + + + + + + + + + + + + + + + + + + + & & & & # # # # & & & & & & # # + + + + + # & & & & & & & & & & & & # & & & & & & & & & & & & & & & & & & & & & & & # # & & & & & & & & # # # # & & & & & & # # & & # # # # & & & & # # + + & & & & & & # # & & & # & & + + + + # # # # # # # # # # # # # # # # & & # # O + + + + + # # # # # # # # & & & & & & & & & & & & & & O O O O O O + + # # + + O O X X # # O O O O O O O O O O + # # # O O O O O O # # O O O O O O # # O O O O O X O O O O O O O O O O O O O O O O O O O O O O O O O O O O O O O O O O O O O O O O O O O O O O O O O O X X X X X X X X X X X X X X O O O O X X X X X X O O X X X X X X O O O O X X X X X X X X X X X X X X X X X X X X X X X X X X X X X X X X X X X X X X X X X X X X X X X X X X X X X X X X X X X X X X X X X X X X X X X X X X X X X X X X X X X X X X X X X X X X X X X X X X X X X X X X X X X X X X X X X X X X X X X X X X X X X X X X X X X X X X X X X X X X X X X X X X X X O O X X X X X X X X X X X X X X + + O O X X O O O O + + O O X X O O O O O O O O O O X O O O ",
"w w 6 6 p p j j j j d d p p & & + + + + + + # # # # + + # # + + O O O O + + + + # # # # & & # # & & & & - - , , < < 6 6 w w w w 5 5 , , - - - - - - - - * * = = & & = = - - - - * * & & & & & & & & & & & & # # & & & & = = & & & & # # # # # # # # # # + + # # # # # # # # # # & & & & & & # & # # & & & & # # & & # # & & & # # # & & # # # # # # # & & & & & & $ $ $ & & & & & & $ $ $ $ $ & $ + + + + + & & & & & & & & & $ + + + + + + $ $ & & & $ + + + + $ $ + + + + + + $ $ + + # # # # # # # # # # & & & & & & & & & & & & & & & & & & & & & & & & & & # # & & & & & & & & & & & & & & # & + + & & & & & & & & & & & & & & & & & & & & & & & & & & & & & & & & & & & & & & & & & & & & & & & & & & & & & & # # & & & & & # + + + + + + + + + + + + + + # # # # # # # # # # O + + + O O O O O O O O O O O O O O + + # # & & & & & & & & & & # # # # O O O O O O O O O O O O O O X X # # + + + + + + + # # # # # # # O O O O # # # # O O O O + O O O O + O O O O O O O O O O O O O O O O O O O O O O O O O O O O O O O O O O O O O O O O O O O O O O O O O O O O O O O O O O O O O O X X O O O O O O O O X X O O O O O O O O X X X X O O O O X X X X O O O O O O O O O O O O O O O O X X X X X X X X X X X X X X X X X X X X X X X X X X X X X X X X X X X X X X X X X X X X X X X X X X X X X X X X X X X X X X X X X X X X X X X X X X X X X X X X X X X X X X X X X X X X X X X X X X X X X X X X X X X X X X X X X X X X X X X X X X X X X X X X X X X X X X O O X X X X X X X X O O O O O O O O O O O O X X X X X X X X X X X X . .         ",
"w w 6 6 p p j j j j d d p p & & + + + + + + # # # # + + # # + + O O O O + + + + # # # # & & # # & & & & - - , , < 5 6 6 w w w w 5 5 , , - - - - - - - - * * = = & & = = - - - - * - & & & & & & & & & & & & # # & & & & = = & & & & # & # # # # # # # # + + # # # # # # # # # # & & & & & & # # # # & & & & # # & & # # & & & & # # # & # # # # # # & & & & & & $ $ $ $ & $ & & & & $ $ $ $ & & $ $ + + + + & & & & & & & & $ $ + + + + + + $ $ & & $ $ + + + + + + + + + + + + $ $ + + + + # # # # # # # # & & & & & & & & & & & & & & & & & & & & & & & & & & # # & & & & & & & & & & & & & & & & + + & & & & & & & & & & & & & & & & & & & & & & & & & & & & & & & & & & & & & & & & & & & & & & & & & & & & & & # # & & & & & & + + + + + + + + + + + + + + # # # # # # # # # # + + + + O O O O O O O O O O O O O O # + # # & & & & & & & & & & # # # # O O O O O O O O O O O O O O X X # # + + + O + + # # + + # # # # O O O O # # + # O O O O + + O O O O O O O O O O O O O O O O O O O O O O O O O O O O O O O O O O O O O O O O O O O O O O O O O O O O O O O O O O O O O O O O O O X X O O O O O O O O X X O O O O O O O O X X X X O O O O X X X X O O O O O O O O O O O O O O O O X X X X X X X X X X X X X X X X X X X X X X X X X X X X X X X X X X X X X X X X X X X X X X X X X X X X X X X X X X X X X X X X X X X X X X X X X X X X X X X X X X O X O X X X X X X X X X X X X X X X X X X X X X X X X X X X X X O X X X X X X X X X X X X X X X X X X X O O X X X X X X X X O O O O O O O O O O O O X X X X X X X X X X X X . .         ",
"6 6 w w p p p d p p p p r r # # O O O O + + # # # # # # # # # # # # + + + + + + + + # # # # & & & & & & & & & & & & * * - - < < , , - - * * * * * * & & & & * * = = - - , , - - & & & & & & & & & & & & & & # # # # & & & & & & & & & & & # # # # # + + + + + + + + + + + + + + + + + + # # # + # # # & & & & # & & & & & & & & # # & & & & & & # # & & & & # # + + + + + + + + + + + + + + * * * * * * * * * * * * * * * * & & $ $ + + + + & & & & & & + + + + & & & & $ $ $ & & & & & & & & & & & & & & & & & & & & & & & & & & & & & * * * * * * & & & & & & & & & # & & & & & & & & & & & & & & & & & & & & & & & & & & & & & & & & & & & & & & & & & & & & & & & & & & & & & & & & & & * * & & & & & & & & & & & & & & * * & & & & & & & & # # # # # # # # # # # # # # # # + + O O O O O O O O # # # # + + + + # # # # = = & & = = * * = = & & & & # # + + # # O O + + O O O O O O O O O O O O O O + + # # + + O O O O O O O + # # + O O O O O + + O O + # + + O O O O # # + # O O O O + O + + O O O O O O O O O O O O O O O O O O O O O O O O O O O O O O O O O O O O O O O O O O O O O O O O O O O O X X X X O O O O O O O O O O O O O O O O X X X X X X X X X X X X X X X X X X X X X X X X X X X X X X X X X X X X X X X X X X X X X X X X X X X O O O O O X X X X X X X X X X X X X X X X X X X X X X X X X X X X X X X X X X X X X X X X X X X X X X X X X X X X X X X X X X X X X X X X X X X X X X X X X X X X X X O X X X X X X X X X X X X X . . X X O O O O O O O O X X X X O O O O X X X X . . . . X X O O O O O O O O O O X X . . . . ",
"6 6 w w p p p p p p p p r r # # O O O O + + # # # # # # # # # # # # + + + + + + + + # # # # & & & & & & & & & & & & * * - - < < , , - - * * * * * * & & & & * * = = - - , , - - & & & & & & & & & & & & & & # # # # & & & & & & & & & & & & # # # # + + + + + + + + + + + + + + + + + + # # # + # # # & & & # # & & & & & & & & # # & & & & & & # # & & & & # # + + + + + + + + + + + + + + * * * * * * * * * * * * * * * * & & $ $ + + + + & & & & & & + + $ $ & & & & $ $ & & & & & & & & & & & & & & & & & & & & & & & & & & & & & & * * * * * * & & & & & & & & & # # & & & & & & & & & & & & & & & & & & & & & & & & & & & & & & & & & & & & & & & & & & & & & & & & & & & & & & & & & * * & & & & & & & & & & & & & & * * & & & & & & & & # # # # # # # # # # # # # # # # + + O O O O O O O O # # # # + + + + # # # # = & & & & = * * = = & & & & # # + + # # O O + + O O O O O O O O O O O O O O + # # # + + O O O O O O O O # # + + O O O O + + O O + + + + O O O O # # + + O O O O + O + + O O O O O O O O O + O O O O O O O O O O O O O O O O O O O O O O O O O O O O O O O O O O O O O O O O O O X X X X O O O O O O O O O O O O O O O O X X X X X X X X X X X X X X X X X X X X X X X X X X X X X X X X X X X X X X X X X X X X X O O O X X X O O O O O X X X X X X X X X X X X X X X X X X X X X X X X X X X X X X X X X X X X X X X X X X X X X X X X X X X X X X X X X X X X X X X X X X X X X X X X X X X X X X X O X X X X X X X X X X X X . . X X O O O O O O O O X X X X O O O O X X X X . . . . X X O O O O O O O O O O X X . .     ",
"< < , , * * * * * * & & & & + + + + + + + + # # & & & & & & # # & & & & & & & & * * * * * * , , , , , , * * * * & & & & + + O O + + & & * * * * & & & & & & # # O O # # & & * * - - * * # # # # & & * * & & # # # # & & & & & & + + # # * * = = # # # # * * & & & & # # + # & & & & & & & & # + + + # # & & & & & & & & & & # # + + # # # # & & & & & & & & # # + + + + + + $ $ $ $ + + + + + $ $ + + + & & & & & & & & & & & $ $ $ & & & & & & + + $ $ $ $ & & & & $ $ & & & & & & $ $ & & & & & & & & & & & & & & & & & & & & & & & & & & & & & & & & & & & & & & & & & & & & & & # & & & & & & & & & & & & & & & & & & & * * & & & & & & & & * * & & & & & & & & & & & & & & & & & & & & & & & & & & & & & & & & & & & & & & & & & & & & & & & & & & & & # # # # # # # # + + O O O O O O # # + + # # # # & & & & & & & & - - & & & & & & & & & & & & & & & & & & & & + + O O O O O O O O O O O O O O + + O O O O O O O O + + + + O O O O + + + + O O + + O O O O O O O O O O O O O O O O O O O O O + + + + + O O + + + + O O O O O O O O O O O O O O O O O O O O O O O O O O O O O O O O O O O O O O O O O O O O O O O O O O O O O O O O O O O O O O O O O O O O O O O O O O X X X X O O X X X X X X X O O O O O O O O O O O O O O O O O O O O O O O O O O O O O O O O O X X X X . . . . X X X X X X X X X X X X X X X X X X X X X X X X O X O O O X X X O O X X X X O X X X X X X X X X X X X X X X X X O O O O O O O O O O O O O O X X X X O O O O O O O O O O O O X X X X O O O O O O & & O O X X             X X O O O O # # + # O O         . . ",
"< < , , * * * * * * & & & & O + + + + + + + # # & & & & & & # # & & & & & & & & * * * * * * , , , , , , * * * * & & & & + + O O + + & & * * * * & & & & & & # # O O # # & & * * - - * * # # # # & & * * & & # # # # & & & & & & + + # # * = = & # # # # * * & & & & # + + # & & & & & & & & # + + + # # & & & # & & & & & & # # + + # # # # & & & & & & & & # # + + + + + + $ $ $ $ + + + + $ $ & & + + & & & & & & & & & & & & $ $ & & & & & & $ $ $ $ & $ & & & & $ $ & & & & & & & $ & & & & & & & & & & & & & & & & & & & & & & & & & & & & & & & & & & & & & & & & & & & & & & # # & & & & & & & & & & & & & & & & & & * * & & & & & & & & * * & & & & & & & & & & & & & & & & & & & & & & & & & & & & & & & & & & & & & & & & & & & & & & & & & & & & # # # # # # # # + + O O O O O O # # + + # # # # & & & & & & & & - - & & & & & & & & & & & & & & & & & & & & + + O O O O O O O O O O O O O O + + O O O O O O O O + + + + O O O O + + + + O O + + + O O O O O + O O O O O O O O O O O O O O O + + O + O O + + + + O O O O O O O O O O O O O O O O O O O O O O O O O O O O O O O O O O O O O O O O O X O O O O O O O O O O O O O O O O O O O O O O O O O O O O O O O O X X X X O O X X X X X X X X O O O O O O O O O O O O O O O O O O O O O O O O O O O O O O O O X X X X . X . . X X X X X X X X X X X X X X X X X X X X X X X X X X O O X X X X O X X X X X O O X X X X O O X X X X X X X X X X O O O O O O O O O O O O O O X X X X O O O O O O O O O O O O X X X X O O O O O O & & O O X X             X X O O O O # # # # O O         . . ",
"& & & & # # # # # # + + + + & & & & & & & & * * * * * * - - - - - - - - , , , , , , , , , , * * * * & & & & & & & & + + + + . . O O # # * * - - - - * * & & O O X X O O O O # # * * < < , , & & = = & & & & # # & & & & & & & & # # # # & & & & & & & & & & & & & & & & & & & & # # # # # # & & & & & & & & & & & & & & & & + + + + + + + + + + # # & & & & # # + + + + + + + + $ + + + + + $ $ & & & & & & & & & & & & & & & & $ $ $ $ + + & $ $ $ & & & & & & & & $ $ + + + + + + + + + + & & & & & & * * * * & & & & & & & & & & * * * * * * * * & & & & & & & & & & & & & & & & & & & & & & & & & & & & & * * * * * * * & & & & & & & & & & & & & & & & & & & & & & & & & & & # & & & & * * & & & & & & & & & & & & & & & & & & & & & & & & & & & & & & & & & & # & & & # # # # # # + # # # + + # # # # & & & & & & & & & & & & & & & & & & & & & & # # + + + + O O O O O O O O X X X X O O O O O O # # + + # # # # + + + # # # O O O O + + + + # # + + O O O O + + + + O O O O + + + + O O O O O O O O O O O O O O + O O O O O O O O O O O O O O O O O O O O O O O O O O O O O O O O O O O O O O O O O X O O O O O O X X O O O O O O O O O O O O O O O O O O O O O O O O O O O X X X X X X O O X X X X X X O O O O O O O X O O O O X X X O O O O O O O O O O O O O O O O O O O O O O O O O O O O O O O O O O O O O O O X X X X X X X X X X X X X X X X X X X X X X X O X X X X X O O X O O O O O O + + # # # # + + O O O O O O O O X X X X O O X X X X O O O O O O X X X X O O O O # # O O X X . .             X X O O + + + # O O X X             ",
"& & & & # # # # # # + + + + & & & & & & & & * * * * * * - - - - - - - - , , , , , , , , , , * * * * & & & & & & & & + + + + . . O O # # * * - - - - * * & & O O X X O O O O # # * * < < , , & & = = & & & & # # & & & & & & & & # # # # & & & & & & & & & & & & & & & & & & & & # # # # # # & & & & & & & & & & & & & & & & + + + + + + + + + + # # & & & & # # + + + + + + + + $ + + + + + $ $ & & & & & & & & & & & & & & & $ $ $ $ $ + + + + & & & & & & & & & & & & + + + + + + + + + + & & & & & & * * * * & & & & & & & & & & * * * * * * * * & & & & & & & & & & & & & & & & & & & & & & & & & & & & * * * * * * * * & & & & & & & & & & & & & & & & & & & & & & & & & & & & & & & & * * & & & & & & & & & & & & & & & & & & & & & & & & & & & & & & & & & & & & & & # # # # # # + # # # + # # # # # & & & & & & & & & & & & & & & & & & & & & & # # # + + # O O O O O O O O X X X X O O O O O O # # + + # # # # + + + # # # O O O O # # + + # # O + O O O O + + + + O O O O + + + + O O O O O O O O O O O O O O O O O O O O O O O O O O O O O O O O O O O O O O O O O O O O O O O O O O O O O O O O O X O X O O X X O O O O O O O O O O O O O O O O O O O O O O O O O O O O X X X X X X X O O X X X X X O O O O O O X X O O O O X X X X O O O O O O O O O O O O O O O O O O O O O O O O O O O O O O O O O O O O O O X X X X X X X X X X X X X X X X X X X X X X X X X X X X X X O X O O O O O O + + # # # # + + O O O O O O O O X X X X O O X X X X O O O O O O X X X X O O O O # # O O X X . .             X X O O + + + + O O X X             ",
"+ + # # & & & & * * * * * * * * * * * * - - , , , , , , < < , , , , , , , , , , , , - , , , * * * * & & + + + + & & & & + + . . . . O + & & , , , , * * & & O O . . . . X X X X # # = = = & # # # # # # # # & & & & # # O O & & & & # # & & & & & & & & & & - - * * * * * * & & + + + + # # & & & & & & & & # # # # + + # # + + + + + + + + + + + + + + + + + + + + + + + + + + + + + + + + + + $ $ $ & & & & & $ $ & & & & $ $ & & & & + $ $ $ & & & & & & & & $ & + + + + + + + + + + # # & & & & & & & & & & & & & & & & & & & & & & & & & & & & & & & & & & # & & & & & & & & & & & & & + + # # & & & & & & & & & & & & & & # # + + # # & & & & & & & & & & & & & & & & & & & & & & # # & & & & & & & & & & & & & & # # & & & & & & # + # # # # & & & & & & # # + + + O # # # # + + O O + + O O O O + + # # + + + + O O # # # # & & & & & & # # # # # # + + + + # # # # # # + + O O O O O O O O O O O O O O O O O O O O # # O O O O O O # # + + O O O O O O O O O O O O O O O O O O O O O O O O O O O O O O O O O O O O O O O O O O O O O O O O O O O O O O O O O O O O O O O O O O O O O X O O O O O O O O O O O O O O O O O O O O O O O O O O O O O O O O O X X X X X X O X X X X X X X X X X X X X X X X X X X O X X . . X X X X X X X X . . O O O O O O O O O O O O O O X O O O O O X X X X X X X X X X X X X X X X O O X X X X X X X O X X X X X X X X O O X X X X X X X X X X X X X X O O O O # # & & # # O O X X O O O O O O X X X X O O X X     X X O O O O X X X X     X X O O                         . . O O # # O O X X             . . ",
"+ + # # # # & & * * * * * * * * * * * * - - , , , , , , < < , , , , , , , , , , - - - - , , * * * * & & + + + + & & & & + + . . . . O + & & , , , , * * & & O O . . . . X X X X # # = = = & # # # # # # # # & & & & & & O O & & & & # # & & & & & & & & & & - - * * * * * * & & + + + + # + & & & & & & & & # # # # # # # # + + + + + + + + + + + + + + + + + + + + + + + + + + + + + + + + + + $ $ & & & & & & $ $ & $ & & $ $ & & & & + $ & & $ $ & & & & & & & & + + + + + + + + + + # # & & & & & & & & & & & & & & & & & & & & & & & & & & & & & & & & & & & & & & & & & & & & & & & & + + # # & & & & & & & & & & & & & & # + + + # # & & & & & & & & & & & & & & & & # # & & & & # # & & & & & & & & & & & & & & # # & & & & & & # + # # & # & & & & & & # # + + + + # # # # + + O O + + O O O O + O # # + + + + O O # # # # & & & & & & # # # # # # + + + + # # # # # # + + O O O O O O O O O O O O O O O O O O O O # # O O O O O O # # + + O O O O O O O O O O O O O O O O O O O O O O O O O O O O O O O O O O O O O O O O O O O O O O O O O O O O O O O O O O O O O O O O O O O O X X O O O O O O O O O O O O O O O O O O O O O O O O O O O O O O O O O O X X X X X X X X X X X X X X X X X X X X X X X X X O X X X . X X X X X X X X . . O O O O O O O O O O O O O X X O O O O O X X X X X X X X X X X X X X X X O O X X X X X X O O X X X X X X X X O O X X X X X X X X X X X X X X O O O O # # & & # # O O X X O O O O O O X X X X O O X X     X X O O O O X X X X     X X O O                         . . O O # # O O X X             . . ",
"* * * * * * , , , , , , , , * * * * * * * * * * - - * - , , * * * * * * * * * * * * * * * * * * * * & & & & & & & & & & & & O O X X . . + + & & * * & & + + X X     X X O O O O O O O O     X X O O + + & & - - - - & & X X # # & & & & & & & & & & & & # # - - - - , , * * & & # # + # & & & & & & & & & & # # + + + + + + + + + + + + + + + + + + + + # # + + + + + + + + + + + + + + + + + + + + $ $ & & & & $ $ $ $ + + + + + + + + + + + + + + + + + + & & $ $ $ $ & & + + $ $ + + # # & & & & & & & & & & & & & & & & + + + + + + # # # # + + + + + + + + + + + + + + + + + + + + + + + + + + + + + + + + + + + + + + # # + + + + # # & & & & # # & & & & & & & & # # + + # # # # # # # # + + + + + + + + + + + + + + # # + + + + + + + + + + + + # # + + O O O O O O + + # # + + O O + + O + O O + O O O O O O O O O O O # # & & & & # # O O O O O O O O O O O O O O O O O O O O O O # # + + O O O O O O O O O O O O O O O O O O O O O O O O O O O O O O O O O O O O O O O O O O O O O O O O O O O O O O O O O O O O O O O O O O O O O O O O O O O O O O O O O O O O O O O O O O O O O O O X O O O O O O O O O O O O X X X X X X X X O O O O O O O O X X X X X X X X X X X X X X X X X X X X X X X X X X X X O O X X X X X X X X X X . . . . . . X X O O X X X O O O X X X X O O O O X X X X X X X X X X X X X X X X O O O O O O X X O X O O X X X X X X X X X X O X X X O O X X X X . . X X X X O O # # O O O O X . X X O O O O O O O O O O X X     X X O O # # O O X X                                         X X O O X X                 X X ",
"* * * * * * , , , , , , , , * * * * * * * * * * - - - - , , * * * * * * * * * * * * * * * * * * * * & & & & & & & & & & & & O O . . . . O O & & * * & & + + X X     X X O O O O O O O O     X X O O + + & & - - - - & & X X # # & & & & & & & & & & & & # # - - - - , , * * & & # # # # & & & & & & & & & & # # + + + + + + + + + + + + + + + + + + + + # # + + + + + + + + + + + + + + + + + + + + $ $ $ & & $ $ $ $ $ + + + + + + + + + + $ $ + + + + + + & & $ $ $ $ & & + $ $ $ + + # # & & & & & & & & & & & & & & & & + + + + + + # # # # + + + + + + + + + + + + + + + + + + + + + + + + + + + + + + + + + + + + + + # # + + + + # # & & & & # # # & & & # & & & # # + + # # # # # # # # + + + + + + + + + + + + + + # # + + + + + + + + + + + + # # + + O O O O O O O O # # + + O O + # O O O O O O O O O O O O O O O O # # & & & & # # O O O O O O O O O O O O O O O O O O O O O O # # + + + O O O O O O O O O O O O O O O O O O O O O O O O O O O O O O O O O O O O O O O O O O O O O O O O O O O O O O O O O O O O O O O O O O O O O O O O O O O O O O O O O O O O O O O O O O O O O O X O O O X X O O O O O O O X X X X X X X X O O O O O O O O X X X X X X X X X X X X X X X X X X X X X X X X X X X X O X X X X X X X X X X X . . . . . . X X O O X X O O O O X X X X O O O O X X X X X X X X X X X X X X X X O O O O O O X X X X X X X X X X X X X X X X O O X X O O X X X X . . X X X X O O # # O O O O X . X X O O O O O O O O O O X X     X X O O # # O O X X                                         X X O O X X                 X X ",
", , * * * * * * & & & & & & & & & & & & & & & & & & & & & & & & & & & & & & & & & & & & & & & & * * & & & & & & * * & & & & + + O O . .     . . O O O O O O O O . . X X # # & & # # O O     X X X X O O & & < < < < & & O O X X O O & & & & # # # # # # O O & & * * - - = = # # + + + + # # & & & & & & & & & & # # # # # # + + + + + + + + + # # # # # + # + + + + + + + + + + + + + + + + $ $ $ $ & & & & $ $ + $ + + + + + + + + + + + + + + + + + + + + + + + + + + + + + + + + + + + + + + + + + + + + + + + + + + + + + + + + + + + + + + + + + + + + + + + + + + + + + + + + + + + + + + + + + + + + + + + + + + + + + + + + + + + + # # # # # # # # + # + + + + + + + + + + + + + + + + + + + + + + + + + + + + + + # # + + + + + + + + + + + + + + + + O O O O O O # # & & & & # # # # # # # # + + O O O O O O # # O O + + + + + + O O O O O O + + # # + + O O O O O O + + + + + + # # + + + + + + + + O O O O O O O O O O O X X X O O O O O O O O O O O O O O O O O O O O O O O O O O O O O O O O O O O O O O O O O O O O O O O O O O O O O O O O O O O O O O O O O O O O O O O O O O O O O O O O O O O O O O O O X X X X X X X X O O O O O O O O X X X X X X X X X X X X X X X X X X X X X X X X X X X X X X X X O O O O O O O O X X O O X X O O O O X X X X O O O O X X O O O O O O O O O O O O O O O O O O O O O O O O O O X X X X X X X X X X X X X X O O X X X X O X X X X O X X X X X X O O O O O O X X X X . . X X X X X X O O X X X X     # # # # & & + + X X             X X O O O O X X         . . X X                         X X ",
", , * * * * * * & & & & & & & & & & & & & & & & & & & & & & & & & & & & & & & & & & & & & & & & * * & & & & & & * * & & & & + + O O . .     . . O O O O O O X O . . X X # # & & # # O O     X X X X O O & & < < < < & & O O X X O O & & & & # # # # # # O O & & * * - - = = & & + + + + # # & & & & & & & & & & # # # # # # + + + + + + + + # # # # # # + + + + + + + + + + + + + + + + + + $ $ $ $ & & & & $ $ + $ + + + + + + + + + + + + + + + + + + + + + + + + + + + + + + + + + + + + + + + + + + + + + + + + + + + + + + + + + + + + + + + + + + + + + + + + + + + + + + + + + + + + + + + + + + + + + + + + + + + + + + + + + + + + # # # # # # # # # # + + + + + + + + + + + + + + + + + + + + + + + + + + + + + + # # + + + + + + + + + + + + + + + + O O O O O O # # & & & & # # # # # # # # + + O O O O O O # # O O + + + + + + O O O O O O + + # # + + O O O O O O + + + + + + # # + + + + + + + + O O O O O O O O O O O O X X O O O O O O O O O O O O O O O O O O O O O O O O O O O O O O O O O O O O O O O O O O O O O O O O O O O O O O O O O O O O O O O O O O O O O O O O O O O O O O O O O O O O O O O O X X X X X X X X O O O X O O O O X X X X X X X X X X X X X X X X X X X X X X X O X X X X X X X X O O O O O O O O X X O O X X O O O O O X X X O O O O X X O O O O O O O O O O O O O O O O O O O O O O O O O O X X X X X X X X X X X X X O O O X X X X X X X X O O X X X X X X O O O O O O X X X X . . X X X X X X O O X X . .     # # # # & & + + X X             X X O O O O X X             X X                         X X ",
"* * * * & & & & & & & & & & & & & & & & & & & & & & & & + # & & & & & & & & & & & & & & & & & & & & & & & & & & & & + # + + # # O O . .             . . . . O O . . X X # # & & - - - - & & X X X X X X O O & & = = & & O O     X X # # & & @ @ O O O O O O # # & & & & & & + + + + + + + + & & & & + + # # + + + + + + + + + + + + + + + + # # # # # # + + # # $ $ + + + + + + + + + + + + $ + + $ + + + + + + + + + + + + + + + + + + + + + + + + + + + + + + + + + + + + + + + + + + + + + + + + + + + + + + + + + + + + + + + + + + + + + + + + + + + + O O O + + + + + + + + + + + + + + + + + + + + + + + + + + + + + + + + + + + + + + + + + + + + + + + + + + + + + + + + + + + + + + + + + + + + + + + + + + + + + + + + + + + + + + O + + O O O O O O O O O O # + # # & & & & # # O O # + # # O O O O X X O O + + O O O O O O O O O O O O O O O O & & + + + O O O O O # + # # # # + + + + + + + + + + O O O O X X O O O O O O O O O O O O O O O O O O O O O O O O O O O O O O + + O O O O O O O O O O O O O O O O O O O O O O O O O O O O O O O O O O O O O O O O O O O O O O O O O O O O O O O O O O O O O O O O O O O O O O O O O O O O O O O O O O O O O O O O O O O O O O O O O O O O O O O O O O O O O O O O O O O O O O O O O O O O O O O O O O O O O O O O O O O O O O O O O O O O O O O O O O O O O O O O O O O O O O O O O O O O O O O O X X X X X X X X X X X X X X X X X X X X X X X X O O O O X X X X     X X X X X X X X X X . .     # # # # O O X X . .         . . O O + O O O X X             . .                     X X X X ",
"* * * * & & & & & & & & & & & & & & & & & & & & & & & & + + & & & & & & & & & & & & & & & & & & & & & & & & & & & & # # + + # # O O . .             . . . . O O . . X X # # & & - - - - & & X X X X X X O O & & = = & & O O     X X # # & & @ @ O O O O O O # # & & & & & & + + + + + + + + & & & & + + # # + + + + + + + + + + + + + + + + # # # # # # + + + # $ $ + + + + + + + + + + + + + + + + + + + + + + + + + + + + + + + + + + + + + + + + + + + + + + + + + + + + + + + + + + + + + + + + + + + + + + + + + + + + + + + + + + + + + + + + + + + + O O + + + + + + + + + + + + + + + + + + + + + + + + + + + + + + + + + + + + + + + + + + + + + + + + + + + + + + + + + + + + + + + + + + + + + + + + + + + + + + + + + + + + + + + O + + O O O O O O O O O O # # # # & & & & # # O O + + # # O O O O X X O O + + O O O O O O O O O O O O O O O O & & + + + + O O O O # + # # # # + + + + + + + + + + O O O O . X O O O O O O O O O O O O O O O O O O O O O O O O O O O O O O + + O O O O O O O O O O O O O O O O O O O O O O O O O O O O O O O O O O O O O O O O O O O O O O O O O O O O O O O O O O O O O O O O O O O O O O O O O O O O O O O O O O O O O O O O O O O O O O O O O O O O O O O O O O O O O O O O O O O O O O O O O O O O O O O O O O O O O O O O O O O O O O O O O O O O O O O O O O O O O O O O O O O O O O O O O O O O O O O O X X X X X X X X X X X X X X X X X X X X X X X X O O O O X X X X     X X X X X X X X X X . .     # # # # O O X X . .         . . O O O O O O X X   .         . .                     X X X X ",
"& & & & & & & & * * * * * * & & & & & & & & & & & & & & & & # # # # # # # # & & & & # & & & & & & & & & & & & & & & # # + + + + + + + + O O O O X X O O O O X X X X O O # # # # = = < < < < O O O O O O O O O O + + O O O O . . X X O O & & & & O O O O # # + + # # # # & & # # + + + + + + + + + + + + + + + + + + + + + + + + # # & & & & & & & & + + + + & & & & & & & & & $ $ $ & & & & + + + + + + + + + + + $ + + + + + + + + + + + + + + + + + + + + + + + + + + + + + + + + + + + + # # + + + + + + + + + + + + # # # # # # & & & & & & & & # + + + + + + + + + + + + + + + + + + + # # # # & & & & & & # # # # # # & & # # + + # # & & & & & & # # & & # # # # # # + + + + + + + + + + + + + + + + + + + + + + + + + + + + + + + + + + + O O O + + O O O O + + # # & & & # # # # # O O O O + + O O X X X X O O + + + + + + O O O O + + + + + + O O O O O O . . . . O O O O O O O O O O + + + + # # + + + + O O O O O O O O O O O O + + + + + + + + + + + + + + + + + + + + + + + + + + + + + + + + + + + + + + + + # # # # # # # # # # # # # # # # # # # # # # # # # # # # # # # # + + + + + + + + + + + + + + + + O O + + + + + + + + + + + + # # O O O O O O O O O O O O O O + + + + + + # # O O O O O O O O O O + + + + + + + + + + + + + + + + O O O O + O + + + + + + + + + + O O O O O O O O O O O O O O O O O O O O O O O O O O O O O O O O O O O O O O O O O O O O O O O O O O O O O O O O + + + + O O O O X X O O O O O O O O O O X X     O O X X X X X X O O O O X X X X X X O O X X . .                 X X X X O O O O O O O O O O ",
"& & & & & & & & * * * * * * & & & & & & & & & & # # & & & & # # # # # # # # & & & & # # & & & & & & & & & & & & & & # # + + + + + + + + O O O O X X O O O O X X X X O O # # # # = = < < < < O O O O O O O O O O + + O O O O . . X X O O & & & & O O O O # # + + # # # # & & # # + + + + + + + + + + + + + + + + + + + + + + + + # # & & & & & & & & # # + + & & & & & & & & & & $ $ & & & & + + + + + + + + + + + $ + + + + + + + + + + + + + + + + + + + + + + + + + + + + + + + + + + + + # # + + + + + + + + + + + + # # # # # # & & # & & & & & # # + + + + + + + + + + + + + + + + + + # # # + & & & & & & # # # # # # & & # # + + # # & & & & & & # # & & # # # # # # + + + + + + + + + + + + + + + + + + + + + + + + + + + + + + + + + + O O O O + + O O O O + + # # & & # # # # # # O O O O + + O O X X X X O O + + + + + + O O O O + + + + + + O O O O O O . . . . O O O O O O O O O O + + + + # # + + + + + + O O O O O O O O O O + + + + + + + + + + + + + + + + + + + + + + + + + + + + + + + + + + + + + + + + # # # # # # # # # # # # # # # # # # # # # # # # # # # # # # # # + + + + + + + + + + + + + + + + O O + + + + + + + + + + + + # # O O O O O O O O O O O O O O + + + + + + + + O O O O O O O O O O + + + + + + + + + + + + + + + + O O O O O O + + + + + + + + + + O O O O O O O O O O O O O O O O O O O O O O O O O O O O O O O O + + O O O O O O O O O O O O O O O O O O O O O O + + + + O O O O X X O O O O O O O O O O X X     O O X X X X X X O O X O X X X X X X O O X X . .                 X X X X O O O O O O O O O O ",
"# # + + + + + + # # & & & & & & & & & & & & & & & & & & & & & & & & & & & & & & & & & & & & * * * * * * * * * * * * & & # # + + & & * * * * & & + # & & & & X X X X O O # # O O O O & & - * + + & & & & & & # # + + O O X X O O X X O O = = - - & & # # = = # # & & & & & & & & & & # # + + & & & & & & & & & & & & & & & & & & & & & & & & & & & & & & & & & & & & & & & & & # # # & & & & # & & # # # # # # # + + + + + + & & & & & & & & & & & & & & & & & & & & & & & & & & & & & & # # & & & & & & # # # # & & & & & & # # & & & & # # # # & & & & + # # # + + & & & & & & & & & & & & * * & & & & * * * * * * * * & & & & & & & & & & & & & & & & & & & & & & & & & & & & & & & & # # + # + + + + + + + + & & & & + + & & # # + + # # + + # # & # & & + + # # & & & & & & & & & & & & O + # # & & # # O O O O # # & & # # + + + + + + & & & & # + + + # # + + + + + + # # & & & & & & + + & & & & * * * * & & & & & & + + + + + + + + + + & & & & + + & & & & & & # # + + + + + + + + # # # # # # # # # # + # # # # # & & & & & & & & & & & & & & & & & & & & & & & & & & & & & & & & # # # # # # # # # # # # # # # # # # # # # # # # # # # # & & & & + + # # # # # # # # # # # # # # # # # # # # # # # # # # # # + + # # # # + + + + + + + + + + + + + + + + + + + + + + + + + + + + + + + + + + + + + + # # + + + + + O + + # # # # # # # # # # # # & & & & & & & & & & & & & & & & # # # # & & & & = = & & & & + + O O # # # # # # # # # # O O X X     X X O O # # & & & & O O X X . . X X X X         X X X X . . # # & & & & & & & & # # # # ",
"# # + + + + + + # # & & & & & & & & & & & & & & & & & & & & & & & & & & & & & & & & & & & & * * * * * * * * * * * * & & # # + + & & * * * * & & + # & & & & X X X X O O # # O O O O & & - - + + & & & & & & # # + + O O X X O O O X O O = = ; ; & & # # = = # # # & & & & & & & & & # # + + & & & & & & & & & & & & & & & & & & & & & & & & & & & & & & & & & & # & & & & & & # # # & & & & # # & & & # # # # # + + + + + + & & & & & & & & & & & & & & & & & & & & & & & & & & & & & & & # & & & & & & # # # # & & & & & & # # & & & & # # # # & & & & + + # # + # & & & & & & & & & & & & * * & & & & = * * * * * * * & & & & & & & & & & & & & & & & & & & & & & & & & & & & & & & & # # # # + + + + + + + + & & & & + + & & # # + # + # + + & # # # & & + + # # & & & & & & & & & & & & + + # # & & # # O O O O # # & & # # + + + + # + & & & & + + + + # # + + + + + + # # & & & & & & + + & & & & * * * * & & & & & & + + + + + + + + + + & & & # + + & & & & & & # # + + + + + + + + # # # # # # # # # # # # # # # # & & & & & & & & & & & & & & & & & & & & & & & & & & & & & & & & # # # # # # # # # # # # # # # # # # # # # # # # # # # # & & & & + + # # # # # # # # # # # # # # # # # # # # & & # # # # # # + + # # # # + + + + + + + + + + + + + + + + + + + + + + + + + + + + + + + + + + + + + + + # + + + + + O + + # # # # # # # # # # # # & & & & & & & & & & & & & & & & # # # # & & & & = = & & & & + + O O # # # # # # # # # # O O X X     X X O O # # & & & & O O X X . . X X X X         X X X X . . # # & & & & & & & & # # # # ",
", , & & & & & & * * & & & & # # + + + + # # & & * * & & & & & & & & & & & & & & & & & & * * * * * * & & & & = = - - - - - - - - = = & & - - , , - - - - - - - * O O         X X O O O O O O X X O O & & - - , , - - # # X X X X O O & & & & & & & & & & = = & & & = - - - - - - - - - - - - - - , , - - * * * * * * * * & & & & * * * * & & & & & & & & & & & & & & & & & & & & & & & & & & & & & & & & & # & & & & # # # # + + + + # # & & & & & & & & & & & & & & & & & & & & & & & & & & & & & & & & & & & & & & & & & & * * * * * * * * & & & & & & & & & & & & * * * * * * * * * * & & & & & & & & & & & & & & & & & & & & & & * * * * * * * * * * * * & & & & & & & & & & & & & & & & & & # # & & & & & & & & & & & & & & & & & & & & & & & & & & & & & & & & * * * * * * * * & & & & & & * * , , , , - - & & & & & & # # & & & & & & & & * * - - , , & & & & & & * * , , 6 6 < < - - & & & & & & = = * * - - - - - - & & & & & & & & & & & & & & & & & & & & & & & & & & & & & & & & + + + + + + # # # # # # & & & & * * * * * * * * & & & & & & & & & & & & & & & & & & & & & & & & & & & & & & & & & & & & & & & & & & & & & & & & & & & & & & * * & & & & # # & & & & & & & & & & & & & & # # # # & & & & # # * * & & & & & & # & & & # # + + + + # # + + # # & & & & & & & & + + O O # # # # O O O O # # & & & & # # & & & & & & & & & & # # & & & & & & # # # # & & & & + + # # & & & & - - - - & & & & - - < < * * & & & & = = & & # # O O X X X X O O + + # # & & = = & & # # O O X X X X X X     X X X X O O O O O O O O O O # # # # # # ",
", , & & & & & & * * & & & & + + + + + + # # & & * * & & & & & & & & & & & & & & & & & & * * * * * * & & & & = = - - - - - - - - = = & & - - , , - - - - - - - * O O         X X O O O O O O X X O O & & - - , , - - # # X X X X O O & & & & & & & & & & = = & & = = - - - - - - - - - - - - - - , , - - * * * * * * * * & & & & * * * * & & & & & & & & & & & & & & & & & & & & & & & & & & & & & & & & # & # # & & # + # # + + + + # # & & & & & & & & & & & & & & & & & & & & & & & & & & & & & & & & & & & & & & & & & & * * * * * * * * & & & & & & & & & & & & * * * * * * * * * * & & & & & & & & & & & & & & & & & & & & & & * * * * * * * * * * * * & & & & & & & & & & & & & & & & & & # # & & & & & & & & & & & & & & & & & & & & & & & & & & & & & & & & * * * * * * * & & & & & & & * * , , , , - - & & & & & & # # & & & & & & & & * * - - , , & & & & & & * * , , 6 6 < < - - & & & & & & = = * * - - - - - - & & & & & & & & & & & & & & & & & & & & & & & & & & & & & & & & + + + + + + # # # # # # & & & & * * * * * * * * & & & & & & & & & & & & & & & & & & & & & & & & & & & & & & & & & & & & & & & & & & & & & & & & & & & & & & * * & & & & # # & & & & & & & & & & & & & & # # # # & & & & # # * * & & & & & & & & & & # # + + + + # # + + # # & & & & & & & & + + O O # # # # O O O O # # & & & & # # & & & & & & & & & & # # & & & & & & # # # # & & & & + + # # & & & & - - - - & & & & - - < < * * & & & & = = & & # # O O X X X X O O + + # # & & = = & & # # O O X X X X X X     X X X O O O O O O O O O O O # # # # # # ",
"< < , , , , 6 6 6 6 6 6 < < * * * * * * - - , , , , - - * * * * & * & & & & & & & & & & & & = = = = & & = = - - - - , , , , , , * * & & - - - - - - & & & & O O X X X X O O O O O O O O O O O O + O & & * * * * & & # # O O O O # # & & & & - ; - - - - = = - - < < 3 3 < < - - - - - - , , * * * * & & & & & & * * * * & & & & - - , , * * & & * * * * * * * * * * & & & & & & & & & & & & & & & & & & # # & & & & & & & & # # & & & & & & & & & & & & & & & & * * * * & & & & & & * * * * & & & & & & & & & & & & & & & & & & & & & & & & & & & & & & & & * * * * * * * * * * * * * * * * * * * * * * * * * * * * * * * * & & & & & & & & * * * * * * * * * * & & & & & & * * * * & & & & & & & & & & & & & & & & & & & & & & & & & & & & & & & & & & & & & & * * * * * * * * * * & & & & + + + + & & * * & & & & & & & & * * * * * * * * - - - - * * * * * * * * & & & & & & * * * * * * & & & & & & & & = = * * - - - - * * = = & & = = = = & = & & & & & & & & & & & & & & & & & & & & & & & & & & & & & & & & & & & & * * * * * * * * & & & & & & & & * * * * & & * * * * * * & & & & * * * * & & * * * * * * * * * * * * * * * * * * * * * * - - - - , , * * & & & & & & * * * * * * * * * * * * * * * * * * & & + + & & & & & & & & & & & & & & * * * * # # # # # # # # & & * * & & & # & & = = & & & & # # & & & & = = * * = = & & & & # # & & - - & & = = = = & & = = = = & & * * & & = = - - * * & & = = - - , , & & + + # # = = - - & & + + + + & & = = & & & & & & = = = = & & @ @ O O O O O O # # @ O O O O O O O # # & = - - ; ; = = & & ",
"< < , , , , 6 6 6 6 6 6 < < * * * * * * - - , , , , - - * * * * * * & & & & & & & & & & & & = = = = & & = = - - - - , , , , , , * * & & - - - - - - & & & & O O X X X X O O O O O O O O O O O O + O & & * * * * & & # # O O O O # # & & & & ; ; - - - - = = - - < < 3 3 < < - - - - - - , , * * * * & & & & & & * * * * & & & & - - , , * * & & * * * * * * * * * * & & & & & & & & & & & & & & & & & & # & & & & & & & & & # # & & & & & & & & & & & & & & & & * * * * & & & & & & * * * * & & & & & & & & & & & & & & & & & & & & & & & & & & & & & & & & * * * * * * * * * * * * * * * * * * * * * * * * * * * * * * * * & & & & & & & & * * * * * * * * * * & & & & & & * * * * & & & & & & & & & & & & & & & & & & & & & & & & & & & & & & & & & & & & & & * * * * * * * * * * & & & & + + + + & & * * & & & & & & & & * * * * * * * * - - - - * * * * * * * * & & & & & & * * * * * * & & & & & & & & = = * * - - - - * * = = & & = = = = = = & & & & & & & & & & & & & & & & & & & & & & & & & & & & & & & & & & & & * * * * * * * * & & & & & & & & * * * * & & * * * * * * & & & & * * * * = = = * * * * * * * * * * * * * * * * * * * * * - - - - , , * * & & & & & & * * * * * * * * * * * * * * * * * * & & + + & & & & & & & & & & & & & & * * * * # # # # # # # # & & * * & & & # & & = = & & & & # # & & & & = = * * = = & & & & # # & & - - & & * = = = & & = = = = & & * * & & = = - - * * & & = = - - , , & & + + # # = = - - & & + + + + & & = = & & & & & & = = = = & & O O O O O O O O # # @ @ O O O O O O # # & = - - ; ; = = & & ",
"< < 5 5 6 6 p p j j d d p p w w 6 6 w w p p p p p p 6 6 < < 6 6 , , * * * * * * * * - - - - - - - - - - - - , < < < , , , , < < - - = = - - , < < < - - = = O O O + # # & & # # O O O O + + & & * * - - , , - - * * * * - - & & @ # O O & & ; ; - - ; ; & & = = - - - - - - = = = = - - < < - - * * * * * * , , , , - - & & & & * * - - * * & & * * - - , , * * & & & & & & & & & & & & & & * * * * * * & & & & & & & & & & & & * * * * * * * * & & & & * * * * * * * * * * * * * * * * * * * * * * * * * * * * * * * * * * = & * * * * * * = = * * * * * * * * * * * * * * * * * * * * * * * * * * * * * * * * * * * * * * * * & & & & & & & & & & & & & & * * * * * * * * * * * * * * & & & & & & & & & & & & & & # # # # & & & & & & & & & & & & & & & & * * * * * * * * * * * * & & & & & & & & & & & & & & # # # # & & & & & & & & * * , , , , * * & & & & * * & & & & & & & & & & & & & & & & & & & & & & * * * * * * - - * * * * * * * * * * & & & & & & & & & & & & & & & & & & * * * * * * * * * * * * * * - - - - * * * * * * * * * * * * * * * * * * * * * * * * * * * * * * * * * * * * * * * * * * * * * * * * & & * * * * & & & & - - - - * * - - * * = * * * * * * * * * & & & & * * , , - - - - p p j j * * , , , , * * * * * * , , < < 6 6 * * & & & & & & * * p p l l j j - - < < p p d p 3 3 - - - - < < , , - - - - - - * * * * < < d d d d b b l l w w 3 3 < < < < < < - - & & O O # # = = - - = = # # X X     . . # # * * & & & & - - , , , , - - = = * * , , 3 3 3 3 p p < < = = - - 3 3 3 3 - - < - - - 3 3 3 3 - - < < 0 0 p p ",
"< < 5 5 6 6 p p j j d d p p w w 6 6 w w p p p p p p 6 6 < < 6 6 , , * * * * * * * * - - - - - - - - - - - - , , < < , , , , < < - - = = - - , < , , - - = = O O O + # # & & # # O O O O + + & & * * - - , , - - * * * * - - & & @ @ O O & & ; ; - - ; ; & & = & - - - - - - = = = = - - < < - - * * * * * * , , , , - - & & & & * * - - * * & & * * - - , , * * & & & & & & & & & & & & & & * * * * * * & & & & & & & & & & & & * * * * * * * * & & & & * * * * * * * * * * * * * * * * * * * * * * * * * * * * * * * * * * = = * * * * * * = = * * * * * * * * * * * * * * * * * * * * * * * * * * * * * * * * * * * * * * * * & & & & & & & & & & & & & & * * * * * * * * * * * * * * & & & & & & & & & & & & & & # # # # & & & & & & & & & & & & & & & & * * * * * * * * * * * * & & & & & & & & & & & & & & # # # # & & & & & & & & * * , , , , * * & & & & * * & & & & & & & & & & & & & & & & & & & & & & * * * * * * - - * * * * * * * * * * & & & & & & & & & & & & & & & & & & * * * * * * * * * * * * * * - - - - * * * * * * * * * * * * * * * * * * * * * * * * * * * * * * * * * * * * * * * * * * * * * * * * & & * * * * & & & & - - - - * * - - * * * * * * * * * * * * & & & & * = , , - - - - p p j j * * , , , , * * * * * * - - < < 6 6 * * & & & & & & * * p p l l j j - - < < p p d d 3 3 - - - - < < , , - - - - - - * * * * < < d d d d b b l l w w 3 3 < < < < < < - - & & O O # # = = - - = = # # X X     . . # # * * & & & & - - , , , , - - = = * * , , < 3 3 3 p p < < = = - - 3 3 3 3 - - < < - - 3 3 3 3 - - < < 0 0 p p ",
"p p p p p p j j l l j j j j j j d d d d j j j j j j p p p p j j p p 6 6 6 6 w w p p p p p p p p w w w w w w w w 6 6 < < < < 3 3 - - - - - - < < w w w w 3 3 - - * * = = & & # # O O # # & & & & & & = = = = & & & & & & = = & & # @ O O @ # = = - - & & # # @ O # # & & & & = = = = = = * * - - , , 3 6 6 6 6 6 6 6 , , * * * * & & & & & & & & & & - - , , & & & & & & & & * * * * , - , , , , , , , , - - * * * * * * * * * * * * * * * * * * * * * * & & & & & & & & * * * * * * * * * * * * * * * * * * * * * * * * * * * = * * * * * * * * * * * * * * * * * * * * * * * * * * * * * * * * * * * * * * * * * * * * * * * * * * * * * * * * & & & & & & * * * * * * * * * * * * * * * * * * * * * * * * * * & & & & & & & & & & & & & & & & & & & & & & * * * * * * * * & & & & & & & & * * * * & & * * & & & & & & - - & & & & & & * * - - , , * * * * & & * * , , - - - * - - * * * * & & & & & & & & * * * * * * * - * * * * * * * * * * * * & & & & & & & & & & * * * * * * * * * * * * * * * * - - - - , , , , , , * * * * * * * * - - - - - - - - * * * * * * * * - - , , - - * * * * * * * * * * * * * * * * * * * * , , - - * * * * , , , , * * & & * * , , 6 6 6 6 , , * * & & & & & & , , , , 6 6 L L ) ) D D p p 6 6 , , , , , , 6 6 6 6 6 6 , , * * & & & & , , c c S S M M - - w w l l l l p p - - * * - - & & & & & & - - * * & & = = 6 w d d B M b b w w 6 6 p p p p w w = = O O     O O , , w w = = X X O O         O O O O O O # # - - w w w w w w w w p p d d d d d d p p w w p p b b S S S S b b b b F F S S b b d d w w d d d d ",
"p p p p p p j j l l j j j j j j d d d d j j j j j j p p p p j j p p 6 6 6 6 w w p p p p p p p p w w w w w w w w 6 6 < < < < 3 3 - - - - - - < < w w w w 3 3 - - * * & & & & # # O O # # & & & & & & = = = = & & & & & & = = & & # # O O # # = = - - & & # # O O # # & & & & = = = = = = * * - - , , 6 6 6 6 6 6 6 6 , , * * * * & & & & & & & & & & - - , , & & & & & & & & * * - * , , , , , , , , , , - - * * * * * * * * * * * * * * * * * * * * * * & & & & & & & & * * * * * * * * * * * * * * * * * * * * * * * * * * * = * * * * * * * * * * * * * * * * * * * * * * * * * * * * * * * * * * * * * * * * * * * * * * * * * * * * * * * * & & & & & & * * * * * * * * * * * * * * * * * * * * * * * * * * & & & & & & & & & & & & & & & & & & & & & & * * * * * * * * & & & & & & & & * * * * & & * * & & & & & & - - & & & & & & * * - - , , * * * * & & * * - - - - * * - - * * * * & & & & & & & & * * * * * * - - * * * * * * * * * * * * & & & & & & & & & & * * * * * * * * * * * * * * * * - - - - , , , , , , * * * * * * * * - - - - - - - - * * * * * * * * - - , , - - * * * * * * * * * * * * * * * * * * * * , , - - * * * * , , , , * * & & * * , , 6 6 6 3 , , * * & & & & & & , , , , 6 6 L L ) ) D D d d 6 6 , , , , , , 6 6 6 6 6 6 , , * * & & & & , , c c S S M M - - w w l l l l p p - - * * - - & & & & & & - - * * & & * * 6 6 d d B B b b w w 6 6 p p p p w w = = O O     O O , < w w = = X X O O         O O O O O O # # - - w w w w w w w w p p d p d d d d p p w w p p b b S S S S b b b b F F S S b b d d w w d d d d ",
"l l j j j j l l j j d d p p 6 6 5 5 5 5 5 5 5 5 6 6 5 5 < < p p 6 6 5 5 6 6 p p d d p p p p w w 6 6 w w p p d d w w w w w w 3 3 , , - - * * - - < < 3 3 3 3 < < * * & & # # + + O O O O # # # # # # & & & & - - - - - - * - - ; & & & & & & & & & & # # O O & & & & & & - - < < - - = = # # = = - - < < - - - - - - < < < < - - & & + + + + # # & & * * - - - - - - - - - - < < 6 6 w w w w < < < < < < , , - - * * * * - - = = = = = = = = = = = = = = & & & & & & & & = = - - - - * * * * * * * * * * * * * * * * * * * * & & & & & & & & & & * * * * & & * * * * * * * * * * * * = = = = & & * * * * * * * * * * - - - - - - - - - - : * * * * * * * & & : : * * * * * * : - : : : : : : : : : : : : * * * * * * * * & & * * & * * * * * * * * * * * * * * * * * * = & & & & & & & & & & & & & & & & * * * * * * , , 6 6 6 6 6 6 6 6 < < , , - - - - , , , , 6 6 p p 6 6 < < < < , , , , & & & & & & * * & * * * * * : : * * & & & & * * * * * * * * * * * * * * * * * * - - , , , , , , - - , , , , , , , , , , , , , , * * * * * * - , - - - - , , , , , , , , , , , , 5 5 5 5 , , , , , , , , - - , , , , , , < < < , 6 6 p p p p w w w w d d p p < < & & - , p p d p w w 6 w < < - - - - * * < < 3 6 j j / / #.#./ / d d w w - - - - < < w w w w 3 3 < < - - * * * * - - w w d d 3 3 & & 6 6 d d p p & & O O X X X X .   O O # # & & # # X X     X X O O - - * * O O & & < < w w < < O O X X O O & & w w d d < < & & & & O O X X X X         O O - - 3 3 < < 3 3 p p d d d d w w < < = = p p S S / / ) ) / / G G G G S S F F S S B B S S G G G G ",
"l l j j j j l l j j d d p p 6 6 5 5 5 5 5 5 5 5 6 6 5 5 < < p p 6 6 5 5 6 6 p p d d p p p p w w 6 6 w w p p d d w w w w w w 3 3 , , - - * * - - < < 3 3 3 3 < < * * & & # # + + O O O O # # # # # # & & & & - - - - - - * - - ; & & & & & & & & & & # # O @ & & & & & & - - < < - - = = # # = = - - < < - - - - - - < < < < - - & & + + + + # # & & * * - - - - - - - - - - , < 6 6 w w w w < < < < < < , , - - * * * * - - = = = = = = = = = = = = = = & & & & & & & & = = - - - - * * * * * * * * * * * * * * * * * * * * & & & & & & & & & & * * * * * & * * * * * * * * * * * * * * = = & & * * * * * * * * * * - - - - - - - - - - * * * * * * * * & & : : * * * * * * - - : : : : : : : : : : : : * * * * * * * * & & * * & & * * * * * * * * * * * * * * * * * * & & & & & & & & & & & & & & & & * * * * * * , , 6 6 6 6 6 6 6 6 < < , , - - - - , - , , 6 6 p p 6 6 < < < < < , , , & & & & & & * * & * * * * * : : * * & & & & * * * * * * * * * * * * * * * * * * - - , , , , , , - - , , , , , , , , , , , , , , * * * * * * - , - - - - , , , , , , , , , , , , 5 5 5 5 , , , , , , , , , , , , , , , , < < , , 6 6 p p p p w w w w d d p p < < & & < < p p p p w w 6 w < < - - - - * * 3 3 0 3 j j / / #.#./ / d d w w - - - - < < w w w w 3 3 < < - - * * * * - - w w d d 3 3 & & 6 6 d d p p & & O O X X X X .   O O # # & & # # X X     X X O O - - * * O O & & < < w w < < O O X X O O & & w w d d < < & & & & O O X X X X         O O - - 3 3 < < 3 3 p p d d d d w w < < = = p p S S / / ) ) / / G G G G S S F F S S B B S S G G G G ",
"6 6 6 6 5 5 < < , , - - * * * * & & # # # # & & & & & & & & & & & & & & & & * * * * & & & & & & & & & & , , 3 3 < < < < 3 3 < < < < - - & & & & = = * * * * = = # # O O # # & & # # O O O O & # # # & & - - < < 3 6 3 3 < < - - = = & & & & # # O O O O O O & & & & & & - - < < < < = = # # & & = = = = & & # # & & < < w w - - & & # # & & & & & & = = - - - - - - - - - - , , < < < < < < - - , , , , - - = = & & & & = = = = & & & & & & * * - - * * = = * * = = = = * * - - - - - - * * * * * * * * * * * * * * * * * * * * * * * * : : : : : : : : - - * * * * * * = = * * * * * * & & * * * * * * - - , , , , , , , , , , , , , , , , : : : : : : : : , , , , : : , , , , , , , , , - : : : : : : * * * * * * * * * * * * : : * * : : * * * * * * * * * * * * = * & & & & & & & & * * & & & & & & * * * * * * * * , , 6 6 6 6 w w 6 6 , , , , 6 6 6 6 p p p p w w , , * * * * - - - - * * : : * * * * * * * : * * * * : : : : : * : : , , , , , , , , , , , , , , , , , , , , , , , , , , , , , , , , < < < < 3 6 6 6 , , 4 4 4 4 4 4 4 4 6 6 6 6 6 6 6 6 6 6 6 6 6 6 6 6 6 6 6 6 6 6 , , , , 4 4 4 4 4 4 6 6 6 6 6 6 p p p p d d d d j j d d p p w w = * 3 3 p p w w < < 3 3 6 6 3 3 - - - - 3 3 w w j j G G L L B B 6 6 < < - - - - < < 3 3 < < < < - - = = * * - - = = * * * * & & & & w w p p - - X X . . . . .       O O & & - - = = # # X X X X O O & & # #     . . + + # # O O     O O - - w w p p w w 3 3 < < = = & & O O O O X X X X & & 6 6 < 3 < < w w l l S S B B l l d d l l L L _ _ ] ] _ _ / / / / / / F F S S S S F F L L ) _ X.X.",
"6 6 6 6 5 5 < < , , - - * * * * & & # # # # & & & & & & & & & & & & & & & & * * * * & & & & & & & & & & , , 3 3 < < < < 6 3 < < < < - - & & & & = = * * * * = = # # O O # # & & # # O O O O & & # # & & - - < < 6 6 3 3 < < - - ; ; & & & & # # O O O O O O & & & & & & - - < < < < = = # # & & = = = = & & # # & & < < w w - - & & # # & & & & & & = = - - - - - - - - - - , , < < < < < < - - , - , , - - = = & & & & & = = = & & & & & & * * - - * * = = * * = = = = * * - - - - - - * * * * * * * * * * * * * * * * * * * * * * * * : : : : : : : : - - * * * * * * = = * * * * * * * * * * * * * * - - , , , , , , , , , , , , , , , , : : : : : : : : , , , , : : , , , , , , , , - - : : : : : : : * * * * * * * * * * * : * * * : : * * * * * * * * * * * * = * & & & & & & & & * * & & & & & & * * * * * * * * , , 6 6 6 6 w w 6 6 , , , , 6 6 6 6 p p p p w w , , * * * * * * - - * * : : : * * * * * * : : : * * * : : : : : : : , , , , , , , , , , , , , , , , , , , , , , , , , , , , , , , , < < < < 3 6 6 6 , , 4 4 4 4 4 4 4 4 6 6 6 6 6 6 6 6 6 6 6 6 6 6 6 6 6 6 6 6 6 6 , , , , 4 4 4 4 4 4 6 6 6 6 6 6 p p p p d d d d j j d d p p w w * * 3 3 p p w w < < 3 3 6 6 3 3 - - - - 3 3 w w j j G G L L B B 6 6 < < - - - - < < 3 3 < < < < - - = = * * - - = = * * * * & & & & 0 w p p - - X X . . . . . .     O O & & - - = = # # X X X X O O & & # #     . . + + # # O O     O O - - w w p p w w 3 3 < < = = & & O O O O X X X X & & 6 6 3 3 < < w w l l S S B B l l d d l l L L _ _ ] ] _ _ / / / / / / F F S S S S F F L L _ _ X.X.",
"- * * * * * * * & & & & & & * * & & & & & & & & & & & & & & + + + + + + # # # # # # # # # # & & # # # # - - - - - - - - < < - - 3 3 3 3 , , - - - - - - - - - - & & & & - - - - - - = = & & O O O + # # & & & & = = & & & & & & & & & & & # & & # # # # O O @ @ # @ O O @ @ # # & & # & # # O O & & ; = & & & & & & - - , , & = = = = = - - - - & & & & - - - - * * = = = = = = = = & & & & * * - - - - - - & & & & & & & & * * = = = = * - - - , , - - - - - - - - - - < < < < < < - - * * - - : : : : : : * * * * * * * * , , - - - - , , , , , , , , , , - - - - * * * * * * * * * * * * - - - - - - , , , , , , , , , , , , , , , , , , , , , , : : : : , , , , , , , , , , , , , - , , * * : : * * * * * * * * : : : * * * : : : * : : : : * * * * * * * * * * * * * * * * * * * * * * , , * * * * * * * * & & & & & & * * , , , , < < 6 6 6 6 w w p p p p p p 6 6 * * & & * * * * * * , , 4 4 : : : : : : : : : : : : , , - , , , , , 4 4 4 4 4 4 , , 5 5 < < < < < < < < < < , , < < < < < < < < 6 6 6 6 6 6 6 6 6 6 6 r 6 6 6 6 6 6 6 6 9 9 9 9 9 9 9 9 6 6 6 6 9 9 9 y 9 9 6 6 6 6 4 4 4 4 4 4 4 4 4 4 6 6 6 6 6 6 w w w w d d l l l l d d w w d d - - 6 3 w w < < < < w 6 3 3 , , & & = = - - , , w w d d p p < < - - , , < < < < , , - - - - , , - - & & = = , , - - & & = = = = 6 6 l l d d & &     X X # # # # X X & & w w p p w w p p w w w w p p j j 3 3 O O X X X X         & & , , p p l l d d w w , , = = # # # # # # & & & & , , p p l l l l j j b b G G ) ) _ _ / / L L E E ] ] X.X.E E S S F F E E / / / / L L F F S S b b b b G G ",
"* * * * * * * * & & & & & & * * & & & & & & & & & & & & & & + + + + + + # # # # # # # # # # & & # # # # - - - - - - - - < < - - 3 3 3 3 , , - - - - - - - - - - & & & & - - - - - - = = & & O O O O # # & & & & = = & & & & & & & & & & & # # & # # # # O O @ @ # @ O O @ @ # # & & # & # # O O & & ; = & & & & & & - - , , & = = = = = - - - - & & & & - - - - * * = = = = = = = = & & & & * * - - - - - - & & & & & & & & * * = = = = * * - - , , - - - - - - - - - - < < < < < < - - * * - - : : : : : * * * * * * * * * , , - - - , , , , , , , , , , , - - - - * * * * * * * * * * * * - - - - - - , , , , , , , , , , , , , , , , , , , , , , : : : : , , , , , , , , , , , , , - , , * * : : * * * * * * : * * : : : * * : : : * : : : : * * * * * * * * * * * * * * * * * * * * * * , , * * * * * * * * & & & & & & * * , , , , < < 6 6 6 6 w w p p p p p p 6 6 * * & & * * * * * * , , 4 4 : : : : : : : : : : : : , - , , , , , , 4 4 4 4 4 4 , , 4 5 < < < < < < < < < < < , < < < < < < < < 6 6 6 6 6 6 6 6 6 6 6 r 6 6 6 6 6 6 6 6 9 9 9 9 9 9 9 9 6 6 6 6 y 9 9 p 9 9 6 6 6 6 4 4 4 4 4 4 4 4 4 4 6 6 6 6 6 6 w w w w d d l l l l d d w w d d - - 6 6 w w < < < < w w 3 3 , , & & = = - - < , w w d d p p < < - - , , < < < < , , - - - - , , - - & & = = , , - - & & = = = = 6 6 l l d d & &     X X # # # # X X & & w w p p w w p p w w w w p p j j 3 3 O O X X X X         & & , , p p l l d d w w , , * * # # # # # # & & & & , , p p l l l l j j b b G G ) ) _ _ / / L L E E ] ] X.X.E E S S F F E E / / / / L L F F S S b b b b G G ",
"< < 5 5 5 5 6 6 w w 6 6 6 6 5 5 < < , , , , 5 < 5 5 , , - - & & * * * * * * - - - - , , < < < < - - - - < < < < - - - - - - - - w w d d d d w w p p d d p p p p w w 3 3 w w p p w w w w w w & & & & = = & & & & # # # # & & # # O O @ @ & & = = - - ; ; = = & & # # O O . .           . X X O O & & - - - - - - = = & & + + & & = = < < 3 3 - - & & & & = = * * = = & & & & & & & & & & & & & & * * - - * - & & & & & & * * - - * * - - - - < < < < < < < < 3 3 < < < < < < 6 6 6 6 < < , , , , , , : : : : * * * * * * * * * * * * : : : : : : : : , , , , , , , , * * * * * * * * * * * * - - * - * - - - - - - - - - : : , , , , : : : : : : , , : : , : , , - - : : : : : : , : : : * * * * * * * * * * * * * * * * : * * * * * * * : : : : : : : : - - * * * * * * * * - - - - - * - - , , - - - - , , , , - - * * * * , , - - , , < < 6 6 w w 6 6 < < 6 6 6 6 6 6 , , , , 6 6 6 6 , , 9 9 9 9 5 4 4 4 4 4 4 4 4 4 4 4 4 4 4 4 4 4 4 4 4 4 4 4 , , , , 6 6 6 6 6 6 6 6 6 6 6 6 6 6 6 6 , , 5 5 < < < < 6 6 6 6 6 6 6 6 6 6 6 6 6 6 6 6 6 6 6 6 6 6 6 6 6 6 6 6 6 6 6 6 6 6 6 6 6 6 6 6 4 4 4 4 6 6 6 6 6 6 6 w 6 6 w w p p p p l l B B N N l k d d l l < < w w p p w w p p d d 3 3 = = & & & & & & = = 3 6 3 3 - - , , - - 6 6 d d p p , , = = * * , , < < & & * * < < - - & & = = - - c c S S l l + +     X X # # O O & & 6 6 l l d d d d l l b b b b l l b b d d = = O O O O X X O O b b l l l l b b b b j j - - O O # # & & & & * * 3 3 d d j j d d b b d d l l D D / / _ _ E E G G S S E E L L l l - - p p S S F F b b b b l l d d - - # # - - ",
"< < 5 5 5 5 6 6 w w 6 6 6 6 5 5 < < , , , , 5 5 5 5 , , - - & & * * * * * * - - - - , , < < < < - - - - < < < < - - - - - - - - w w d d d d w w p p d d p p p p w w 3 3 w w p p w w w w w w & & & & = = & & & & # # # # & & # # O O @ O & & = = - - ; ; = = & & # # O O . .             X X O O & & - - - - - - = = & & + + & & = = < < 3 3 - - & & & & = = * * = = & & & & & & & & & & & & & & * * - - - - & & & & & & * * * - * * - - - - < < < < < < < < 3 3 < < < < < < 6 6 6 6 < < , , , , , , : : : : * * * * * * * * * * * * : : : : : : : : , , , , , , , , * * * * * * * * * * * * - - * * * - - - - * - - - - : : , , , , : : : : : : , : : : : : , , - - : : : : : : , , : : : : * : * * * * * * * * * * * * : * * * * * * * : : : : : : : : - - * * * * * * * * - - - - - * - - , , - - - - , , , , - - * * * * , , - - , , < < 6 6 w w 6 6 < < 6 6 6 6 6 6 , , , , 6 6 6 6 , , 9 9 9 9 4 4 4 4 4 4 4 4 4 4 4 4 4 4 4 4 4 4 4 4 4 4 4 4 , , , : 6 6 6 6 6 6 6 6 6 6 6 6 6 6 6 6 , , 5 5 < < < < 6 6 6 6 6 6 6 6 6 6 6 6 6 6 6 6 6 6 6 6 6 6 6 6 6 6 6 6 6 6 6 6 6 6 6 6 6 6 6 6 4 4 4 4 6 6 6 6 6 6 6 6 6 w w w p p p p l l B B N N k k d d l l < < w w p p w w p p d d 6 3 = = & & & & & & = = 6 6 3 3 - - , , - - 6 6 d d p p , , = = * * , , < < & & * * < < - - & & = = - - c c S S l l + +     X X # # O O & & 6 6 l l d d d d l l b b c c l l b b d d = = O O X O X X O O b b l l l l b b b b j j - - O O # # & & & & * * 3 3 d d j j d d b b d d l l D D / / _ _ E E G G S S E E L L l l - - d d S S F F b b b b l l d d - - & # - - ",
"j l d d j j j j c c c j c c c c c c c c c c c c j j d d p p c c d d p p p p d d d d d d d d l l p p < < < < 3 3 < < = = & & = = - - 3 3 0 3 < < < < w w d d B B b c l l l l l l d d d d d p - - 6 6 3 3 & & O O O O & & = = - - = = = = = = & & & & = = - - - - = = & & X X X X O O # # & & & & < < < < ; ; ; ; & & # @ & & - - & & & & @ @ O O O O & & - - - - * * = = & & & & # # # # & & & & # # # # & & = = - - < < w w < < w w w w w w < < < < 3 3 w w w w 3 3 3 3 w w w w 3 3 3 3 w w p p , , * * * * 4 4 , , , , , , * * , , , , * * * * * * , , 5 5 , , , , , , , , - - - - - - , , , , , , - - * * - - - - - - , , , , : : * * * * : : : , , , , , : : * * * * * * : : : : * * * * : : * * * * * * * * * * * * * * * * * * : : : : * * & & : : , , * * * * * * , , , , , , , , , , , , 4 , , , 4 4 , , , , , , , , 5 5 5 5 5 5 6 6 6 6 6 6 6 6 6 6 r r r r r r 6 6 6 6 6 6 6 6 6 6 4 4 4 4 9 9 9 9 9 9 9 9 6 6 6 6 9 9 9 6 6 6 6 6 6 6 6 6 6 6 6 6 6 6 6 6 5 5 6 6 6 6 5 5 6 6 6 6 6 6 5 5 , , , , 6 6 6 6 6 6 6 6 6 6 6 6 4 4 4 4 6 6 6 6 6 6 6 6 6 6 6 6 , 4 6 6 6 6 6 6 6 6 4 4 4 4 6 6 9 9 6 6 6 6 6 6 6 6 6 6 p p d d l l b b b b k k l l b b l l d d d d d d p p < < = = = = & & * * & & & & , , < < - - - - & & w w l l p p < < < < < < - - - - - - < < , , < < < < p p d d / / S S 0 0 O O O O = = - - = = ; ; d d l b p p < - w w l l b b b b b b b b p p = = @ O # # & & S S B B < < = = l l l l = = O O O O O O = = - - = = = = w w l l B B d d d d B B F F b b d d d d p p d d d d d d b b G G F F l l p p d d b b S S l l - - & & ",
"j j d d j j j j c c j j c c c c c c c c c c c c j j d d p p c c d d p p p p d d d d d d d d l l p p < < < < 3 3 < < = = & & = = - - 3 3 0 3 < < < < w w d d B N c c l l l l l l d d d d d p - - 6 6 3 3 & & O O O O & & = = - - = = = = = = & & & & = = - - - - ; ; & & X X X X O O # # & & & & < < < < ; ; ; ; & & # # & & - - & & & & @ @ O O O O & & - - - - = = = = & & & & # # # # & & & & # # # # & & = = - - < < w w < < w w w w w w < < < < 3 3 w w w w 3 3 3 3 w w w w 3 3 3 3 w w p p , , * * * * 4 4 , , , , , , * * , , , , * * * * * * , , 5 5 , , , , , , , , - - - - - - , , , , , , * * * * - - - - - - , , , , : : * * * * : : , , , , , , : : * * * * * * : : : : : * * * * * * * * * * * * * * * * * * * * * * * : : : : * * * * : : , , * * * * * * , , , , , , , , , , , , 4 , , , , 4 , , , , , , , , 5 5 5 5 5 5 6 6 6 6 6 6 6 6 6 6 r r r r r r 6 6 6 6 6 6 6 6 6 6 4 4 4 4 9 9 9 9 9 9 9 9 6 6 6 6 9 9 6 6 6 6 6 6 6 6 6 6 6 6 6 6 6 6 6 6 5 5 6 6 6 6 5 5 6 6 6 6 6 6 5 5 , , , , 6 6 6 6 6 6 6 6 6 6 6 6 , 4 4 4 6 6 6 6 6 6 6 6 6 6 6 6 , , 6 6 6 6 6 6 6 6 4 4 4 4 6 6 9 9 6 6 6 6 6 6 6 6 6 6 p p d d l l b b b b k k l l b b l l d d d d d d p p < < = = = = & & * * & & & & , , < < - - - - & & w w l l p p < < < < < < - - - - - - < < , , < < < < p p d d / / S F 0 0 O O O O = = - - = = ; ; d d b b p p - - w w l l b b b b b b b b d p = = @ @ # # & & S S B B < < = = l l l l = = O O O O O O = = - - = = = = w w l l B B d d d d B B F F b b d d d d p p d d d d d d b b G G F F l l p p d d b b S S l l - - & & ",
"n n n n n n n n n M M M B M S S S S S S S S S S S S S S S S S S B B M M M M B B M M n n b b l l p p - - - - - - - - - - < - - - < < 3 3 3 3 w w p p d d l l b b l l d d p p w w - - - - * = = = = = & & O O X X X X O O # # & & = = = = * * = = & & & & & & - - - - = = & & # # # # & & ; - ; ; 3 3 0 0 < < < < - - > - 0 0 < < & & & & @ @ @ O O O @ @ & & - - - - * * * * & & # # & & & & & & * * , , < < < < 3 3 p p d d d d w w 3 3 6 6 p p d d d d d d w w 0 w < < , , , , < < < < 6 6 6 6 - - & & * * * * * * & & & & * * : : - - * * * * - - , , 5 4 , , , , , , , , , , - - * * * * * * * * * * * * * * * * * * * * , , - - : : : : , , , , , , : : * * * * * * * * * * * * * * * * : : : : : : : : : : : : * * * * : : : : , , , , : : * : : : : : : : : : , , , , 4 4 6 6 6 6 4 4 4 4 4 4 , , , , , , , , , , , , 4 4 4 4 4 4 6 6 6 6 9 9 9 9 9 9 p p 9 9 r r 6 6 6 6 6 6 6 6 6 6 9 9 9 9 9 9 y y p p p p y p p p g g p p p p 9 9 9 9 9 9 9 9 9 9 6 6 4 4 6 6 6 6 6 6 6 6 6 6 6 6 4 4 4 4 4 4 6 6 6 6 6 6 6 6 4 4 6 6 4 4 , , 4 4 4 4 6 6 6 6 6 6 , , 4 4 6 6 6 6 6 6 6 6 4 4 , , 4 4 4 4 6 6 6 6 5 5 6 6 6 6 6 6 d d d d d d l l k k k k d d k k b b d d w w 3 3 , , = = & & & & & & - - = = & & - - - - = = = = - - w w j j d d d d p p w w 6 6 , , < < 3 3 , , - - w 6 l l S S G G d d & & # # = = - - - - < < w 0 d d p p = = & & < < p p w w d d b b S S b b p w & & & & & & d d B B l l d d b b d d # # X X O O & & < - < < - - w w l l b b S S B B b b b b l l d d p p p p d d d d d d l l S S G G b b < < w w d d b b b b p p - - 3 3 ",
"n n n n n n n n n n M M M M S S S S S S S S S S S S S S S S S S B B M M M M B B M M n n b b l l p p - - - - - - - - - - - - - - < < 3 3 3 3 w w p p d d l l b b l l d d p p w w - - - - * = = = = = & & O O X X X X O O # # & & = = = = * * = = & & & & & & - - - - = = & & @ @ # # & & - - ; ; 3 3 3 0 < < < < - - > > 0 0 < < & & & & @ @ @ @ O O @ @ & & - - - - * * * * & & # & & & & & & & * * , , < < < < 3 3 p p d d d d w w 3 3 6 6 p p d d d d d d w w 0 0 < < , , , , < < < < 6 6 6 6 - - & & * * * * * * & & & & * * : : : - * * * * - - , , 5 4 , , , , , , , , , , - - * * * * * * * * * * * * * * * * * * * * , , , : : : : : , , , , , , : : : : * * * * * * * * * * * * * * , : : : : : : : : : : : : * * * : : : : , , , , : : * * : : : : : : : : , , , , 4 4 6 6 6 6 4 4 4 4 4 4 , , , , , , , , , , , , 4 4 4 4 4 4 6 6 6 6 9 9 9 9 6 6 y y 9 9 r r 6 6 6 6 6 6 6 6 6 6 9 9 9 9 9 9 y y p p p p 9 9 p p g g p p p p 9 9 9 9 9 9 9 9 9 9 6 6 4 , 6 6 6 6 6 6 6 6 6 6 6 6 4 4 4 4 4 4 6 6 6 6 6 6 6 6 4 4 6 6 4 4 4 4 4 4 4 4 6 6 6 6 6 6 , , 4 4 6 6 6 6 6 6 6 6 4 4 , , 4 4 4 4 6 6 6 6 5 5 6 6 6 6 6 6 d d d d d d l l k k k k d d k k b b d d w w 3 3 , , = = & & & & & & - - = = & & - - - - = = = = - - w w j d d d d d p p w w 6 6 , , < < 3 3 , , - - 6 6 l l S S G G d d & & # # = = - - - - < < w w d d p p = = & & < < p p w w d d b b S S b b p w & & & & & & d d B B l l d d b b d d # # X X O O & & - - < < - - w w l l b b S S B B b b b b l l d d p p p p d d d d d d l l S S G G b b < < w w d d b b b b p p - - 3 3 ",
"M M B B M M n M n n B B B B B B S S S S D D S S S S S S S S M M B B B B B B S S D D S S S S l l p p - - ; = - - < < w w p p d d p p w w w w d d b b S S F F b b l l d d w w < < - - - - < < - - - - < < 3 3 < < * * & & # # = = - - - - - - - - - - = = & & & & & & & & & & @ @ # # & & - - - - - - - - = = = = & & & & - - - - = = = = = = = = & & & & & & = = = = - - - - = = & & # # # # & & 6 6 d d p p 3 3 3 3 w w w w < < - - - - - - < < w w w w w w 3 3 w w w 6 , < < < p p d d d d , , * * & & & & & & * * * * * * , , , , , , , , , , 6 6 6 6 6 6 w w 6 6 6 6 6 6 6 6 < < , , - - * * * * , , , , , , - - - - - - , , , , : : : : , , , , - - : : : : : : : : * * * * : : : : - , , , , , , , , , , , , , , , , , , , , , : : : : , , , , , , , , , , , , , , , , 6 6 6 6 6 6 6 6 6 6 6 6 4 4 , , , , , , , , 4 4 4 4 4 4 6 6 9 9 p p p p p p p p y y p p 9 9 6 6 6 6 6 6 6 6 6 6 p p p p p p p p p p g g g g g g y y p p y y y p 9 9 9 9 9 9 9 9 6 6 4 4 4 4 6 6 6 6 4 4 , , , , , , , , 4 4 6 6 6 6 6 6 4 4 , , , 4 4 4 4 4 , , , , , , 6 6 6 6 , , , , 6 6 6 6 6 6 6 6 6 6 4 4 6 6 6 6 6 6 6 6 < < < < 6 6 w w d d p p p p l l l l l l d d d d l l w w < , - - * * & & & & & & & & - - - - - - , , , , - - , - w w w w p p d d d d p p w w 3 6 p p l l b b l l w w < < w w d d - - @ # & & w w 3 3 # # & & d d l l l l w w = = - - l l B B l l < < l l S S F F l l 3 3 = = & & 0 0 b b B B b b N N p p @ # X X O O - - b b S S S S F F F F b b b b S S S S b b d d p p p p 0 0 w w p p d d l l B B b b d d < < - - d d b b b b 3 3 & & 3 3 ",
"M M B B M M M M n n B B B B B B S S S S D D S S S S S S S S M M B B B B B B S S D D S S S S l l p p - - ; = - - < < w w p p d d p p w w w w d d b b S S F F b b l l d d w w < < - - - - < < - - - - < < 3 3 < < * * & & # # = = - - - - - - - - - - = = & & & & & & & & & & @ @ & & & & - - - - - - - - = = = = & & & & - - - - = = = = = = = = & & & & & & = = = = - - - - = = & & # # # # & & 6 6 d d p p 3 3 3 3 w w w w < < - - - - - - < < w w w w w w 3 3 w w 6 6 , < < < p p d d d d , , * * & & & & & & * * * * * * , , , , , , , , , , 6 6 6 6 6 6 w w 6 6 6 6 6 6 6 6 < < , , - - * * * * , , , , , , - - - - - - , , , , : : : : , , , , , - : : : : : : : : * * * * : : : : , , , - , , , , , , , , : : , , , , , , , , , , : : , , , , , , , , , , , , , , , , 6 6 6 6 6 6 6 6 6 6 6 6 4 4 , , , , , , 4 4 4 4 4 4 4 4 6 6 9 9 p p p p p p p p y y p p 9 9 6 6 6 6 6 6 6 6 6 6 p p p p p p p p p p g g g g g g y y p p y y p p 9 9 9 9 9 9 9 9 6 6 4 4 4 4 6 6 6 6 , 4 , , 4 , , , , , 4 4 6 6 6 6 6 6 4 4 , , , 4 4 4 4 4 , , , , , , 6 6 6 6 , , , , 6 6 6 6 6 6 6 6 6 6 4 4 6 6 6 6 6 6 6 6 < < < < 6 6 w w d d p p p p l l l b l l k d d d l l w w < , - - * * & & & & & & & & - - - - - - , , , , - - , , w w w w p p d d d d p p w w 3 3 p p l l b b l l w w < < w w d d - - # # & & w w 3 3 # # & & d d l l l l w 0 = = - - l l B B l l < < l l S S F F l l 3 3 = = & & 0 w b b B B b b N N p p # # X X O O - - b b S S S S F F F F b b b b S S S S b b d d p p p p 0 0 w w p p d d l l B B b b d d < < - - d d b b b b 3 3 & & 3 3 ",
"n n n M n n b c c c c c n n d d c c n n B B M n b b c c c c c c c c c c n n B B S S S B B B d d 0 0 - - - - < < 0 w d d d k l l d d d d d d l l b b B B B B l l l l d d d d p p d d l l M M d d d d c c B B B B d d 3 3 < < p p d d d d w w 3 3 < < < < < < & & & & & & & & O O O O & & - - 0 0 w w < < - - = = & & # # & & - - < < 3 3 p p d d p p w w w w - - - - , , < < - - & & # # # # # # , , p p 3 3 , , 3 3 w w 3 3 * * - - < < < < - - - - < < w w - - 6 6 3 3 - - < < d d j j d d , , , , * * * * * * * * - - , , < < 6 6 6 6 < < 6 6 p p p p p p p p 6 6 , , , , , , , , , , * * * * , , < < < < , , , , , , 6 6 , , , , , , , - - , , , - - - - : : , , , , , , , , , , , , 4 4 , , , , , , , , - - , , , , , , , , - , , , , , , 4 5 5 6 6 6 6 4 4 4 4 4 4 6 6 6 6 6 6 6 6 6 6 9 9 6 6 6 6 6 6 6 6 6 6 6 6 4 4 4 4 4 4 6 6 9 9 p p p p p p p p p p p p 9 9 6 6 6 6 6 6 6 6 6 6 g g g g g g g g g g g g p p p p p p p y y y p p p p 9 9 9 9 6 6 6 6 6 6 6 6 6 6 6 6 , , , , 6 6 6 6 6 6 6 6 6 6 6 6 6 6 6 6 6 6 6 6 6 6 6 6 6 6 6 6 5 5 6 6 6 6 5 5 5 5 6 6 6 6 6 6 r r r r 6 6 r r r r 6 6 6 6 , , , , < < < < 3 3 < < < < w w d d k k d d d d j j w w 3 3 3 6 3 3 - - - - - - & & 3 3 p p w w p p p p w w p p d d 3 3 3 3 d d d d 3 3 , , < < d d b b S S b M p p - - & & & & X X O O < < B B l l # # O O 3 3 l l l b d d < < d d F F G G S S - - p p b b S S B N l l 3 3 - - < < d d p p w w d d p p - - & & = = p p S S / / / / R L G G b b d d b b S S S S b b l l k l d p p p d d l l l l k k d d b b S S d d l l B B N b d d < < p p ",
"n n n n n n c b c c c c n n d d c c n n B B M M b b c c c c c c c c c c n n B B S S S B B B d d 0 0 - - - - < < 0 0 d d d k l l d d d d d d l l b b B B B B l l l l d d d d p p d d l l M M d d d d c c B B B B d d 3 3 < < p p d d d d p w 3 3 < < < < - - & & & & & & & & O O O O & & - - 3 3 w w < < - - = = & & @ @ & & - - < < 3 3 p p d d p p w w w w - - - - , , < < - - & & # # # # # # , , p p 3 3 , , 3 3 w w 3 3 * - - - < < < < - - - - < < w w - - 6 6 3 3 - - < < d d j j d d , , , , * * * * * * * * - - , , < < 6 6 6 6 < < 6 6 p p p p p p p p 6 6 , , , , , , , , , , * * * * , , < < < < , , , , , , 6 6 , , , , , , , , , , , , - - - - : : , , , , , , , , , , , , 4 4 , , , , , , , , , - - - , , , , , , - , , , , , , 4 5 5 6 6 6 6 4 4 4 4 4 4 6 6 6 6 6 6 6 6 6 6 9 9 6 6 6 6 6 6 6 6 6 6 6 6 4 4 4 4 4 4 6 6 9 6 p p p p p p p g p p p p 9 9 6 6 6 6 6 6 6 6 6 6 g g g g g g g g g g g g p p p p y p p y y y p p p p 9 9 9 9 6 6 6 6 6 6 6 6 6 6 6 6 , , , , 6 6 6 6 6 6 6 6 6 6 6 6 6 6 6 6 6 6 6 6 6 6 6 6 6 6 6 6 5 5 6 6 6 6 5 5 5 5 6 6 6 6 6 6 r r r r 6 6 r r r r 6 6 6 6 , , , , < < < < 3 3 < < < < w w d d k k d d d d j j w w 3 3 6 6 3 3 - - - - - - & & 3 3 p p w w p p p p w w p p d d 3 3 3 3 d d d d 3 3 - - < < d d b b S S b b p p - - & & & & X X O O < < B B l l # # O O 3 3 l l l l d d < < d d F F G G S S - - p p b b S S B B l l 3 3 - - < < d d p d p w d d p d - - & & = = p p S S / / / / L L G G b b d d b b S S S S b b l l k k p p p p d d l l l l l l d d l b B S d d l l B B N b d d < < p p ",
"B M B B B B n n c c c n n n d d j j b b b c c c c c l l l l B B V V B B B B B B B B n n l l w w w w w w d d d d d p p p d d d p d d d d b b B B b b d d 3 3 l l c c b b b b b b B B S S S S b b l l c c b b b b j j l l b b S S S S N N l l d d d d d d d d d d d d p p 3 3 = = & & - - 3 3 w w d p w w w w w w - - - - < < p p d d d d d d d d d d d d d d 3 3 3 3 w w w w < < = = & & & & < < p p d d < < - - - - - - & & = = - - < < < < - - = = = = = = 3 3 d d d p 3 3 3 3 p p d d 3 3 p p p p p p w w < < , , - - = = < < < < 3 3 0 3 w w p p p p 6 6 < < - - * * & & * * * * * * & & - - , , < < < < < < < < 6 6 6 6 6 6 6 6 , , , , , , , , < < < < , , < < 6 6 6 6 6 6 6 6 6 6 < < , , , , , , , , , , , , < < 6 6 6 6 < < < < 6 6 6 6 6 6 6 6 6 6 p p 9 9 6 6 6 6 p y p p 9 9 9 9 9 9 9 9 p p p p p p 6 6 6 6 4 4 6 6 6 6 6 6 9 9 p p p p p p p p p p p p 9 9 9 9 9 9 y 9 9 9 y y p g g g j j j j j j p g p p 9 9 p p g g g g p p p p p p p p 9 9 9 9 6 6 6 6 6 6 9 9 6 9 9 9 p p p p 9 9 9 9 6 6 6 6 9 9 p p p p p p p p p p p p p p p p p p p p p p w w 6 6 6 6 p p d d d d p p 6 6 r r w w w w < < - - - - - - * * = = * * - - < < < < w w d d l l d d d d d d d d 3 3 3 3 w w 3 3 k k l l l l l l d d 3 3 3 3 w w < < < < w w 3 3 - - - - 0 3 3 3 w w p p 0 0 < < - - - < < < - - - ; 3 3 l l l l - - & # & & - - p p p p < < w w l l b b l l w w w w p p l l B B S S b b d d d d l l d d p p d k b b B B B B l l d d b b S S S S B B S S S S l l b b S S G G G G F F b b l l B B B B S S B N b b b b G G / / G G F F S S b b b b b b S F ",
"B M B B B B n n c c n n n n d d j j b b b c c c c c l l l l B B B B B B B B B B B B n n l l w w w w w w d d d d p p p p d d p p d d d d b b B B b b d d 3 3 l l l c b b b b b b B B S S S S b b l l c c b b b b j j l l b b S S S S b b l l d d d d d d d d d d d d p p 3 3 = = & & - - 3 3 w w d p w w w w w w - - ; ; < < d p d d d d d d d d d d d d d d 3 3 3 3 w w w w < < = = & & & & < < p p d d < < - - - - - - & & = = - - < < < < - - = = = = = = 3 3 p p d d 3 3 3 3 d p p d 6 3 p p p p p p w w < < , , - - = = < < < < 3 3 0 3 w w p p p p 6 6 < < - - * * & & * * * * * * & & - - , , < < < < < < < < 6 6 6 6 6 6 6 6 , , , , , , , , < < < < , , < < 6 6 6 6 6 6 6 6 6 6 < < , , , , , , , , , , , , < < 6 6 6 6 < < < < 6 6 6 6 6 6 6 6 6 6 p p 9 9 6 6 6 6 p p p p 9 9 9 9 9 9 9 9 p p p p p p 6 6 6 6 4 4 6 6 6 6 6 6 9 9 p p p p p p p p p p p p 9 9 9 9 9 9 p p 9 9 y y p p g g j j j j j j p p p p 9 9 p p p g g g p p p p p p p p 9 9 9 9 6 6 6 6 6 6 9 9 6 9 9 9 p p p p 9 9 9 9 6 6 6 6 9 9 p p d d p p p p p p p p p p p p p p p p p p w w 6 6 6 6 p p d d d d p p 6 6 r r w w w w < < - - - - - - * * = = * * - - < < < < w w d d l l d d d d d d d d 3 3 3 3 w w 3 3 k k l l l l l l d d 3 3 3 3 w w < < < < w w 3 3 - - - - 3 3 3 3 w w p p 0 0 < < - - - < < < - < - - 3 3 l l l l - - & & & & - - p p p p < < w w l l b b l l w w w w p p l l B B S S b b d d d d l l d d p p k k b b B B B B l l d d b b S S S S B B S S S S l l b b S S G G G G F F b b l l B B B B S S B B b b b b G G / / G G S F S S b b b b b b S S ",
"S S S S V V B B B B B B B B B B n n b b c c c c n n B B V V S S D D S S V V S S S S B B l l w w p p d d k l d d p p 0 0 w w d d d d l l b b B B S S b b b l B B S S S S F F S S S S S S S S b b b b b b b b b b b b b b B B G G G G S S b b l l l l b b l b b b N N b b l l d d d d l l b b w w p p p p d d l l k k d d b b N N b b d d 0 0 < < 3 3 p p d d w w w w p p w w - - & & & & = = p p d d p p 3 3 < < 3 3 < < - ; - - - - - - - - < < - - & & O O = = - - < < - - - - 3 3 < < - - w w d d l l l l l l d d 3 3 - - , , 3 3 w w w w p p d p r r 3 3 , , - - * * * * - - , , , , - - , , < < 6 6 w w p p p p p p p p p p w w 6 6 6 6 w w p p p p p p 6 6 p p p p w w p p j j j j p p p p 6 6 6 6 < < 6 6 6 6 6 6 < < < < < < 6 3 6 6 6 6 6 6 6 6 < < r r 6 6 6 6 6 6 6 6 6 6 6 6 6 6 9 9 9 9 p p p p y y 9 9 6 6 6 6 6 6 6 6 6 6 9 9 p p p p p p p p p p p p p p p p p p p p p p p p p p g g j j j j j j g g p p p p p p p p p p p p p p p p p p p p 6 6 6 6 6 6 6 6 6 6 6 6 9 9 p p p p p p p p p p p p j j c c c c c c c c j j d d d d d d j j j j j j d d p p p p d d j j j j d d d d d d d d d d d p w w 6 6 3 3 < < < < 3 3 3 3 < < < < w w d d l l d d d d d d 0 0 - - < < 0 w k d b l l l d d d d w w = = & & ; ; & & = = - - = = & & & & < < w w w w 3 3 3 3 w w p p d d d d k k p p 3 3 < < - - = = = = * - O O ; ; < < < < < < 3 3 p w w w p p w w 3 3 p p b N G G F F b b S S S S S S b b b b S S L L L L G G l b l l N N b b l l b b F F S S B B B B G G G G S S b b b b L L F F S S S S F F G G L L L L N N l l d d l l S S F F G G ",
"S S S S V V B B B B B B B B B B n n b b c c c c n n B B V V S S D D S S V V S S D D B B l l w w p p d d k l d d p p 0 0 w w d d d d l l b b B B S S b b b b B B S S S S F F S S S S S S S S b b b b b b b b b b b b b b B B G G G G S S b b l l l l b b b b b b N N b b l l d d d d l l b b w w p p p p d d l l k k d d b b b N b b d d 0 0 < < 3 3 p p d d w w w w p p w w - - & & & & = = p p d d p p 3 3 < < 3 3 < < - - - - - - - - - - < < - - & & O O = = < < < < - < - - 3 3 < < - - w w d d l l l l l l d d 3 3 - - , , 3 3 w w w w p p p p r r 3 3 , , - - * * * * - - , , , , - - , , < < 6 6 w w p p p p p p p p p p w w 6 6 6 6 w w p p p p p p 6 6 p p p p w w p p j j j j p p p p 6 6 6 6 < < 6 6 6 6 6 6 < < < < < < 6 6 6 6 6 6 6 6 6 6 < < r r 6 6 6 6 6 6 6 6 6 6 6 6 6 6 9 9 9 9 p p p p y y 9 9 6 6 6 6 6 6 6 6 6 6 9 9 p p p p p p p p p p p p p p p p p p p p p p p p p p g g j j j j j j g g p p p p p p p p p p p p p p p p p p p p 6 6 6 6 6 6 6 6 6 6 6 6 9 9 p p p p p p p p p p p p j j c c c c c b c c j j d d d d d d j j j j j j d d p p p p d d j j j j d d d d d d d d d d d p w w w 6 3 3 < < < < 3 3 3 3 < < < < w w d d l l d d d d d d 0 0 - - < < w w k k l l l l d d d d w w = = & & ; ; & & = = - - = = & & & & < < w w w w 3 3 3 3 w w p p d d d d k k p p 3 3 < < - - = = = = - - O O ; ; < < < < < < 3 3 w w 0 w p p w w 3 3 p p N N G G F F b b S S S S S S b b b b S S G L L L F G b b l l b b b b l l b b F F S S N N B B G G G G S S b b b b L L F F S S S S F F G G L L L L N N l l d d l l S S F F G G ",
"J J G G G G G G G G S S S S G G V V B B B B B B V V D D D D V V D S D D D D J J J J B B r r p p p p d d d d p p w w p p d d b b b b b b B B S S F F G G G G S S S S B B b b b b S S S S S S b b B B S S S S S S S S B B b b S S F F S S b b b b b b b b b b k d b b b b l l l l S S F F F F b b b b l l M M S S S S S S L L S S b b d d 3 3 w w p p w w 3 3 0 0 w w 3 3 < < = = & & & & ; ; # # & & = = - - w w d d l l b b d d d d d p d d d d p p < < = = X X O O O O # # & & & & & & & & - - 3 3 w w p p d d d d w w < < - - 3 3 p p p p p p 6 6 3 3 < , - - , , < < 6 6 w w w w 6 6 6 6 < < 6 6 w w d d j j j j j j p p p p p p p p d d j j j j j j d d p p p p 6 6 6 6 p p b b M M b c j j p p 6 6 6 6 6 6 6 6 , , - - , , , , 6 6 6 6 6 6 6 6 6 6 r 6 6 6 6 6 6 6 6 6 6 6 9 9 9 9 9 9 9 9 9 9 6 6 6 6 6 6 6 6 6 6 6 6 9 9 9 9 9 9 p p p p g g g g p p j j j j g g p p p p p p p p p p p p p p p p p p p p g p p g p p p p p p p p p p p p p p p p p p p p p p p p p p 9 9 6 6 , , , , 6 6 9 9 p p p p j j c c n n M M S S b b d d w w w w p p j j j j l l c c c c l l j j d d p p d d b b l l l l l l d d p p w w w w p p d d d d d d w w < < 3 3 p p w w w p d d d d 3 3 - - - - < < w w p p < < - - 3 3 3 3 - - = = = = = = & & = = & & & & ; ; < < w w d d l l l l l l l l d d p p w w w w 3 3 = = # # & & - - < < O O & & < < p p d d d d d d d d d d l l l l l l b b F F F F B B N B N N b b b b b b S S G G G G S S b b b b S S b b l l b b B B S S b b b b S S S S b b l l l l S S S S B B B B S S S S B B b b 3 3 < < < < d d b b b b b b ",
"J J G G G G G G D G S S S S G J V V B B B B B B V V D D D D V V D D D D D D J J J J B B r r p p p p d d d d p i w w p p d d b b b b b b B B S S S F G G L G S S S S B B b b b b S S S S S S b b B B S S S S S S S S B B b b S S F F S S b b b b b b b b b b k k b b b b l l l l S S F G F F b b b b l l M M S S S S S S L L S S b b d d 3 3 w w p p w w 3 3 0 0 0 0 3 3 < < = = & & & & ; ; # # & & = = - - w w d d l l b b d d d d p p d d d d p p < < = = X X O O O O # # & & & & & & & & - - 3 3 w w p p d d d d w w < < ; ; 3 3 p p d d p p 6 6 3 3 < , - - , , < < 6 6 w r w w 6 6 6 6 < < 6 6 w w d d j j j j j j p p p p p p p p d d j j j j j j d d p p p p 6 6 6 6 p d b b M M b b j j p p 6 6 6 6 6 6 6 6 , , - - , , , , 6 6 6 6 6 6 6 6 6 6 6 6 6 6 6 6 6 6 6 6 6 6 9 9 9 9 9 9 9 9 9 9 6 6 6 6 6 6 6 6 6 6 6 6 9 9 9 9 9 9 p p p p g g g g p p j j j j g g p p p p p p p p p p p p p p p p p p p p g p p p p g p p p p p p p p p p p p p p p p p p p p p p p p 9 9 6 6 , , , , 6 6 9 9 p p p p j j c c n n M M S S b b d d w w w w p p j j j j l l c c c c l l j j d d p p d d b b l l l l l l d d p p w w w w p p d d d d d d w w < < 3 3 p p 0 w w w d d d d 3 3 - - - - < 3 w w p p < < - - 3 3 3 3 - - = = = = = = & & = = & & & & ; ; < < w w d d l l l l l l l l d d p p w w w w 3 3 = = # # & & - - < < O O & & < < p p d d d d d d d d d d l l l l l l b b F F F F B B N N B B b b b b b b S S G G G G S S b b b b S S b b l l b b B B S S b b b b S S S S b b l l l l S S S S B B B B S S S S B B b b 3 3 < < < < d d b b b b b b ",
"Y Y I I Y Y Y Y Y Y Y Y Y Y I I J J D D G G L L L L J J S S V V D D J J J J L J S S l j * * w w w w 0 0 0 w 3 3 w w d d l l b b S B F F F F S S B B b b b b b b l l 6 6 - - < < l l S S G G S S S S B B b b M M B B b b d d l b B B S S b b b b b b b b l l p p l l b b k d l l S S F F S S B B b b l l c c b b l l l l S S B B c c d d d d l l b b d d < < w w 0 0 3 3 - - = = & & = = - - = = = = = = - - - - - - < < 0 3 w w d d d d d d w w < < < < < < = = & & = = - - - - ; ; = = - - = = = = & & # # & & - - - - = = & & - - w w w w 3 3 < < - - = = & & * * , , w 6 w w 6 6 6 6 6 6 , , , , 6 6 d d c c l l p p 6 6 w w p p d d j j l l l l j j d d , , , , * - * * 6 6 M M S S S S c c d d 6 6 , , < < , , * * & & - - < < p p d d d d p p j j j j p p p p r r p p p p d d j j j j r r 6 6 6 6 5 5 5 5 6 6 6 6 6 6 p p p p p p p p j j j j j j j j j j j j j j d d p p p p p p p p r r 6 6 6 6 6 6 6 6 r r p p j j d d g g p p p p d d j j j j j j c c c c c c c c d d 6 6 * * * * - - , , 6 6 p p j j c c M M B B D D b b w w , , , , w w d d j j l l M M B B M M j j p p w w d d b b b b l b d d w w 3 3 < < < < w w w w p p w w < < - - = = - - - - 3 3 d d l l d d < < - - < < & & & & O O & & < < p p w w 0 w p p w w 3 3 3 3 3 3 3 3 w w p p < < w w k k b b b b l l d d d d - - - - - - - - 3 3 0 0 < < ; ; - - - - 3 3 k k b b l l l l l l N N F F G G F F S S F F S S S S N N l l d d b b F F ) ) _ _ / / b b l l b b b b l l l l b b b b l l b b S S S S b b l l l l l l d d l l b b b l d d d d d d p p d d p p w w p p d d d d d d ",
"Y Y I I Y Y Y Y Y Y Y Y Y Y I I J J D D G G L L L L J G S S V V D D J J J J L L S S j j * - w w w w 0 0 w w 3 3 w w d d l l b b B B F F F F S S B B b b b b b b l l 6 6 - - < < l l S S G G S S S S B B b b M M B B b b d d l b S S S S b b b b b b b b l l p p l l b b k d l l S S F F S S B B b b l l c c b b l l l l S S B B l l d d d d l l b b d d < < w w 0 0 3 3 - - = = & & = = - - = = = = = = - - - - - - < < 0 3 w w d d k k d d w w < < < < < < = = & & = = - - - - ; ; = = - - = = = = & & # # & & - - - - = = & & - - w w w w 3 3 < < - - = = & & * * , , 6 6 w w 6 6 6 6 6 6 , , , , 6 6 d d c c l l p p 6 6 w w p p d d j j l l l l j j d d , , , , * - * * 6 6 M M S S S S c c d d 6 6 , , < < , , * * & & - - < 5 p p d d d d p p j j l j p p p p r r p p p p d d j j j j r r 6 6 6 6 5 5 5 5 6 6 6 6 6 6 p p p p p p p p j j j j j j j j j j j j j j d g p p p p p p p p r r 6 6 6 6 6 6 6 6 r r p p j j d d g g p p p p d d j j j j j j c c c c c c c c d d 6 6 * * * * - - , , 6 6 p p j j c c M M B B D D b b w w , , , , w w d d j j l l M M B B M M j j p p w w p p b b b b b b d d w w 3 3 < < < < w w w w p p w w < < - - = = - - - - 3 3 d d l l d d < < - - < < & & & & @ @ & & < < p p w w w w p p w w 3 3 3 3 3 3 3 3 w w p p < < w w k k b b b b l l d d d d - - - - - - - - 3 3 0 0 < < - - - - - - 3 3 k k b b l l l k l l b b F F G G F F S S F F S S S S N N l l d d b b F F ) ) _ _ / / b b l l b b b b l l l l b b b c l l b b S S S S b b l l l l l l d d l l b b b l d d d d d d p p d d p p w w p p d d d d d d ",
"Y Y I I D D I I Y Y Y Y Y Y Y Y I I I I I I I I J J J J Y Y D D S S B B S S D D c c - - w w 3 3 w w p p w w < < 3 3 p p d d d d p p p p d d d d d d d d d d l l l l p p < < < < p p d d d d p p d d l l l l k k d d d d p p d d l l b b b b l l l l b b l l d d l l b b d d w w d d F F / / / / G G l l p p l l b b l l b b S S B B B B S S F F B B l l d d d d l l b b d d - - - - - - = = - - = = & & & & - - 3 3 3 3 < < d d l l b b l l d d w w p p d d d d w w w w w w < < p p l l d d d d 0 0 = ; # # O O & & = = - - < < 3 3 w w d d d d p p 3 3 - - - - - - - - - - < < w w w w w w - - < < < < < < w w d d j j d d < < , , w w l l B B b b d d d d w w 3 3 < < 3 3 p p j l l l d d w w d d l l l l d d w w < < - - - - w w l l l c l l b b B B l l l l d d d d j j j j c c c c d d j j p p 6 6 w w 6 6 < < , , , , < < 6 6 6 r p p p p d d j j j j c c j j d d p p p p 6 6 6 6 < , - - , , w w d d d d d d j j b b c c c c b b c c l l l l c c M M M M M M M M S S S S p p - - 6 6 , , 6 6 j j c c b b l l p p w w l l l l p p w w p p p p d d l l d d b b S S b b p p 3 3 w w d d l l l l k k d d 3 3 - - - - 3 3 w w 3 3 - - - - - - < < w w d d b b l l l l l l b b l l d d 3 3 - - # # # # - - d d d d d d d d l l l l l l d d l l b l b b b b l l l l k k d d d d p p w w 0 0 0 0 0 0 < < ; ; & & ; ; 3 3 d d d p k k S S / / ) ) S S k k N N d d b b N N N N S S L R E E L L S S L L L L S S S S R R / / R R L L L L F F S S G G F F S S S S N N b b b b b b b b k k d d k k k k l l d d p p < < < < 3 3 w w B B b b b b d d 3 3 ; ; & & ",
"Y Y I I D D I I Y Y Y Y Y Y Y Y I I I I I I I I J J J J Y Y S S D D B B S S G G c c - - w w 3 3 w w p p w w < < 3 3 p p d d d d p i p p d d d d d d d d d d l l l l p p < < < < p p d d d d p p d d l l l l k k d d d d p p d d l l b b b b l l l l b b l l d d l l b b d d w w d d F F / / / / G G l l p p l l b b l l b b S S B B B B S S F F B B l l d d d d l l b b d d - - - - - - = = - - = = & & & & - - 3 3 3 3 < < d d l l b b l l d d w w p p d d d d w w w w w w < < p p l l d d d d 0 0 = ; # # O O & & = = - - < < 0 0 p p d d d d p p 3 3 - - - - - - - - - - < < w 6 w w 6 6 - - < < < < < < w w d d j j d d < < , , w w l l B B b b d d d d 3 w 3 3 < < 3 3 p p j l l l d d w w d d l l l l d d w w < < - - - - w w l l l c l l b b B B l l l l d d d d j j j j c c c c d d j j p p 6 6 w w 6 6 < < , , , , < < 6 6 6 r p p p p d d j j j j c c j j d d p p p p 6 6 6 6 < , - - , , w w d d d d d d j j b b c c c c b b c c l l l l c c M M M M M M M M S S S S p p - - 6 6 , , 6 6 j j c c b b l l p p w w l l l l p p 6 3 p p p p d d l l d d b b S S b b p p 3 3 w w d d l l l l k k d d 3 3 - - - - 3 3 w w 3 3 - - - - - - < < w w d d b b l l l l l l b b l l d d 3 3 - - # & # # < < d d d d d d d d l l l l l l d d l l b b b b b b l l l l k k d d d d p p w w 0 0 w w 0 0 < < ; ; & & ; ; 3 3 d d d p k k S S / / ) ) S S k k b b d d b b N N N N S S L L E E L L S S L L L L S S S S R R / / R R L L L L S S S S G G F F S S S S N N b b b b b b b b k k d d k k k k l k d d p p < < < < 3 3 w w B B b b b b d d 3 3 ; ; & & ",
"/ / Y Y L L Y Y Y Y L L J J D D V V B B M M B B B B S S D D S S G G G G L L S S d d 5 5 d d w w p p p p 3 3 - - - - 3 3 3 3 = = & & & & ; ; < < - - - - = = < < - - < < d d b b l l d d < < ; ; < < w w p d d d d d d d w w d d k k l l l l d d l l b b l l b b B B S S S S S S F F G G L L L L F F b b b b F F S S S S F F G G F F B B b b l l l l l l l l d d S S L L L L B B d d w w < < < < = = & & & & - - 3 3 w w 3 3 - - - - < < 3 3 w w d d l l b b b b b b l l d d w w k k l l p w d d p p w w w w - - & & = = 3 3 l l l l b b l l l l l l l l l l d d p p < < - - * * - - - - - - - - < < w w p p d d d d d d w w w w - - - - 3 3 p p p p w w p p d d p p w w p p p p w w w w d d < < w w d d d d d d p p p p w w - - 3 3 d d d d d d b b b b l l d d p p d d j j j j l l c c d d l l d d p p w w < < * * = = * * 6 6 6 6 6 6 p p d p j j j j d d j j j j d d p p p p w r 6 6 6 6 - - - - - - < < w w w w d d l l b b c c c l l l d d d d d d d d b b B B b b j j d d p p w w p p w w w w p p d d l l l l l l l l p p p p 3 3 3 3 d d l l l l b b d d d d 0 0 < < < < w w p p d d l l l l l l d d d d l l b b l l w w 3 3 - - - - < < w w d d b b B N B B S S F F S S S S b b k l - - & & & & - - 3 3 3 3 3 3 w w d d b b b b d d l l S S G G S S B B b b d d 3 3 - - - - = = & & 3 3 < < ; ; & & @ @ & & 3 0 k k b b N N L L _ _ ) ) S S d d l b N N b b b b N N L L ) ) / / L L S S L L ) ) ) ) L L S S B B N N G G G G S S B B F F G G L L R R S S b b p p < < < < < < 0 0 d d b b d d w w < < < < w w d d l l b b b b b N l l w w - - - - ",
"/ / Y Y L L Y Y Y Y L L J J D D V V B B M M B B B B S S D D S S D D G J L L S S d p 5 5 d d w w p p p p 3 3 - - - - 3 3 3 3 = = & & & & ; ; < < - - - - = = < < - - < < d d b b l l d d < < ; ; < < 0 w d d d d d d d d w w k d k k l l l l d d l l b b l l l l B B S S S S S S F F G G L L L L F F b b b b F F S S S S F F G G F F B B b b l l l l l l l l d d S S L L L L B B d d w w < < < < = = & & & & - - 3 3 w w 3 3 - - - - < < 3 3 w w d d l l b b b b b b l l d d w w k k l l p w d d p p w w w w - - & & = = 0 3 l l l l b b l l l l l l l l l l d d p p < < - - * * - - - - - - - - < < w w p p d d d d d d w w w w - - - - 3 3 p p p p w w p p d d p p w w p p p p 0 w w w d d < < w w d d d d d d p p p p w w - - 3 3 d d d d d d b b b b l l d d p p d d j j j j l l c c d d l l d d p p w w < < * * = = * * 6 6 6 6 6 6 p p d p j j j j d d j j j j d d p d p p r r 6 6 6 6 - - - - - - < < w w w w d d l l b b c c l l l l d d d d d d d d b b B B b b j j d d p p w w p p w w w w p p d d l l l l l l j j p p p p 3 3 3 3 d d l l l l b b d d d d 0 0 < < < < w w p p d d l l l l l l d d k k l l b b l l w w 3 3 - - - - < < w w d d b b B N B B S S F F S S S S b b k l - - & & & & - - 3 3 3 3 3 3 w w d d b b b b d d l l S S G G S S B B b b d d 3 3 - < - - = = & & 3 3 < < ; ; & & @ @ & & 0 0 k k b b N N L L ] _ ) ) S S d d l l N N b b b b N N L L ) ) / / L L S S L L ) ) ) ) L L S S B B N N G G G G S S B B F F G G L L R R S S b b p p < < < < < < 0 0 d d b b d d w w < < < < w w d d l l b b b b N N l l w w - - - - ",
"Y Y Y Y L L I I I L S S S S V V B B n n j j c c B B V V B B S S S S Y Y L L b b 5 5 w w c c d d k k d d 3 3 - - = = = = ; ; & & & & & & - - 3 3 < < = = & & = = = = 3 3 b b S S S S b b k k d p w w < < - - w w k k l l l l 3 3 < < < < < < < < d d b b b b L L G G S S B B S S F F F F S S l l b b S S L L / ) G G B B S S E E L L G G b b l k d d l l l l p p b b L L _ _ E E F F N N l l < < ; - & & & & = = - - - - = = & & & & & & ; ; 3 3 d d b b S F S S G G S S l l b b B B l l p p - - & & = = < < = = O O & & 0 3 3 3 p p l k l l b b l l d d p p w w 3 3 - - & & & & - - < < 6 6 l l l l l l d d d d j l l l l l k l 3 3 - - - - < < 3 3 w w d d b b d d d d d d w w ; ; - - w w < < p p l l b b l l d d p p p p < < 3 3 d d l l l l B B S S l l p p 3 3 p p j j l l b b b b l l p p 6 3 - - = = & & & & * * < < 6 6 6 6 6 6 6 6 p p d d d d p p p p d d d d d d p p w w 6 6 6 6 3 3 * * # # & & - - w w d d l l B B b b b b l l d d d d w w 6 6 l l S S S S l l j j l l w w - - d d l l c c b b b b l l 6 6 - - - - - - - - < < d d b b b b b b d d d d w w - < - - < < p p d d l l b b l l d d d d b b b b d d d d d d 3 3 - - = = = = < < 0 0 p p d d l l b l l l d d w w w w @ @ O O O O & & - - < < w w k k S S F F G G S S F F G G L L G G E E G G B B l l l l d d d d w w d d k k l l l l k k k k b b N N L L E E ) ) ] ] ) ) S S b b S S L L S S b b N N L L ) ) ] ] ] ] R R R R ] _ #.#.] ] G G N N S S b b N N b b b b N N S S S S L L / / S S d d - - = = ; ; < < w w d d 3 3 ; = = = < < p p k k l l 3 3 w w p p d p p p w w w w ",
"Y Y Y Y L L I I L L S S S S V V B B n n j j c c B B V V B B S S S S Y Y L L b b 5 5 w w c c d d k k d d 3 3 - - = = = = ; ; & & & & & & - - 3 3 < < = = & & = = = = 3 3 b b S S S S b l k k p p w w < - - - w w k k l l l l 3 3 < < < < < < < < d d b b b b L L G G S S B B S S F F F F S S l l b b S S L L / / G G B B S S E E L L G G b b l k d d l l l l p p b b L L _ _ E E F F b b l l < < ; ; & & & & = = - - - - = = & & & & & & ; ; 3 3 d d b b S F S S G G S S l l b b B B l l p p - - & & = = < < = = O O & & 3 3 3 3 d p l k l l b b l l d d p p w w 3 3 - - & & & & - - < < 6 6 l l l l l l d d d d j j l l l l k l 3 3 - - - - < < 3 3 w w d d b b d d d d d d w w ; ; - - w w < < p p l l b b l l d d p p p p < < 3 3 d d l l l l S S S S l l p p 6 3 p p j j l l b b b b l l p p 3 3 - - = = & & & & * * < < 6 6 6 6 6 6 6 6 p p d d d d p p p p d d d d d d p p w w 6 6 6 6 3 3 * * # # & & - - w w d d l l B B b b b b l l d d d d w w 6 6 j l S S S S l l j j l l w w - - d d l l b c b b b b l l 6 6 - - - - - - - - < < d d b b b b b b d d d d w w - < - - < < p p d d l l b b l l d d d d b b b b d d d d d d 3 3 - - = = = = < < 0 0 p p d d l l b b l l d d w w w w @ @ O O O O & & - - < < w w k k S S F F G G S S F F L L L L G G E E G G B B l l l l d d d d w w d d k k l l l l k k k k b b N N L L E E ) ) ] ] ) ) S S b b S S L L S S b b N N G L ) ) ] ] ] ] R R R R _ _ @.@.] ] G G N N S S b b N N b b b b N N S S S S L L / / S S d d - - = = ; ; < < w w d d 3 3 = = = = < < p p k k l l 3 3 w w p p d d p p w w w w ",
"I I L L D D I I D D S S B B B B D D D D B B V V G G G G B B I I J J E E G G p p 5 < j j c c c b l l d d w w < < - - - - - - < < - - - - w w d d p p 3 3 < < - - < < p p l l l l d p d d l l l l p d - - & & = = 3 3 p d p p < - = = = = ; ; < < l l G G L L G G B B k d p p d d l l l l l l b b S S L L _ _ ] ] L L S S G G _ _ ) ) L L S B b b b b S S S S l l d d b b L L E E L L G G F F b b l l d d l l l l l l d d w w p p d d d d k l b l B B F F L L S S G G F F S S L L G G B B b l b b p p < < - - = = # @ O O # # - - < < w w d d l l d d w w < < * * & & & & # # * * w w l l b b B B b b j j w w 6 6 w w d d p p 3 3 = = & & = = - - < < w w d d d d d d p p p p < < & & & & ; = O O ; ; d d b b b b k k p p w w & & & & < < p d d d b b b b l l < < - - - - w w d d l l b b l l b b l l d d w w < < , , , , < < , , , , , , , , , , 6 6 6 6 p p w w w w w w 6 6 6 6 , , , , < < 3 3 - - - - , , w w d d l l c c l l c b l l j j p p 3 3 , , - - p p B B B B j j d d p p & & X X , , 6 6 d d b b B B l l , , # # & & = = = = - - d d l l l l l l d d d d d d w w - - ; ; - - < - < < p p p p w w d d B B S S S S F F S S b b p p - - = = = = ; - < < w w d d d d p p 3 3 3 3 3 3 - - ; ; < < d d b b S S G G E E L L G G L L _ _ ) ) G G S S F F G G S S N B B B S S F F S S b b S S F F L L R R L L L L L L L L / / / / L L L L F F b b N N L L R R L L F F S S F F L L ) ) ] ] R L S S S S R R / / F F S S F F S S F F F F F F L L F F S S S S G G S S k k p p < < ; ; < - < < - - = = & & & & = = - - - ; ; = & & # # & & < < d d l l l l ",
"I I L L D D I I D D S S B B B B D D D D B B V V G G G G B B J J J J E E G G p p 5 5 j j c c c c l l d d w w < < - - - - - - < < - - - - w w d d p p 3 3 < < - - < < p p l l l l p p d d l l l l p p - - & & = = 3 3 p p p p < - = = = = ; ; < < l l G G L L G G B B d d p p d d l l l l l l b b S S L L _ _ ] ] L L S S G G _ _ ) ) L L B B b b b b S S S S l l d d b b L L E E L L G G F F b b l l d d l l l b l l d d w w p p d d d d k k b b B B F F L L S S G G F F S S L L G G B B l l b b p d < < - - = = # @ O O # @ - - < < w w d d l l d d w w < < * * & & & & # # * * w w l l b b B B b b j j w w 6 6 w w d d p p 3 3 = = & & = = - - < < 0 0 d d d d d d p p p p < < & & & & ; = O O ; ; d d b b b b k k p p w w & & & & < < p d d d b b b b l l < < - - - - w w d d l l b b l l b b l l d d w w < < , , , , < < , , , , , , , , , , 6 6 6 6 p p w w w w w w 6 6 6 6 , , , , < < 3 3 - - - - , , w p d d l l c c l l b c l l l j p p 3 3 - , , - p p B B B B j j d d p p & & X X , , 6 6 d d b b B B l l , , # # & & = = = = - - d d l l l l l l d d d d d d w w - - ; ; - - - - < < p p d d w w d d B B S S S S F F S S b b p p - - = = = = - - < < w w d d d d p p 3 3 3 3 3 3 - - ; ; < < d d b b S S G G E E L L G G L L ) ) ) ) G G S S F F G G S S N B B B S S F F S S b b S S F F L L R R R R L L L L L L / / / / L L L L F F b b N N L L R R L L F F S S F F L L ) ) ] ] R R S S S S R R / / F F S S F F S S F F F F F F L L F F S S S S G G S S k k p p < < ; ; < < < < - - = = & & & & = = - - ; ; ; ; & & # # & & < < k d l b l l ",
"D D S S S S D D D D S S S S B B I I Y Y J J S S G G D D B B Y Y Y Y Y Y M M 6 6 d d M M b b b c l l l l d d d d d d d d d d w w 3 3 0 3 p p d d p p p p p p p p 0 0 w w w w - - # # # # ; - - - - - = = & & & & & & & & & & - - = = - - - - w w b b F F F F b b b b b b S S S S S S S S B B F F S S S S L L L L B B B B L L _ _ / / G G b b b b F F L L R R L L N N l l B B S S G G L L L L L L G G F F G G G G G G F F S S b b B B S S S S b b b b b b S S S S S S S S G G / / L L B B S S R R L L F F b b l l d d p p 3 3 d d w w < < 3 3 p w d d p p 0 0 < < - , , , < < p p b b F F G G F F S S M M b b l l l l d d 3 3 - - = = - - w w d d d d l l b b l l b b b b l l l l d d d d 3 3 - ; < < d d l l d d < < & & & & X X O O & & - - - - 3 3 d d d d 3 3 ; = = = < < 3 3 p p d d l l d d d d l l b b b b b b d d w w < < < < - - - - * * - - < < 6 6 < < < < , , - - - - - - , , < < 3 3 p p l l b b B B l l d d d d p p d d d d p p < < - - - - - - l l b b d d < < - - = = # # O O # # # # & & < < d d l l l l d d p p l l l l b b S S S S B B S S B B b b l l d d l l l l p p - - d d k k b b b b N N S S L L R R ) ) / / R R F F N N l k d d k k d d k k b b b b l l l l b b b b N N b b N N F F L L / / / / ) ) S S B B F F / / E E S S b b S S b b l l l l b b S S F F S S B B S S S S S S S S F F L L L L E E ) ) R R F F N N N N N N S S R R F F F F G G G G F F S S S S S S S S d d p p l l S S N N B B S S F F G G G G L L R R G G B B B B b b b b B B B B b b d d d d k k d k d d p p p p w w 0 0 < < - - - - < < w w l l b b B B b b ",
"D D S S S S D D D D S S S S B B I I Y Y J J S S J G D D B B Y Y Y Y Y Y M M 6 6 d d M B b b b c l l l l d d d d d d d d d d p p 3 3 0 0 p p d d p p p p p p p p 0 0 w w w p - - # # # # - - - - - - = = & & & & & & & & & & - - = = - - - - w w b b F F F F b b b b b b S S S S S S S S B B F F S S S S L L L L S B B B L L ) _ / / G G b b b b F F L L R R L L N N l l B B S S G G L L L L L L G G F F G G G G G G F F S S b b B B S S S S b b b b b b S S S S S S S S G G / / L L B B S S R R L L F F b b l l d d p p 3 3 d d w w < < 3 3 p w d d p p 0 0 < < - , , , < < p p b b F F G G F F S S M M b b l l l l d d 3 3 - - = = - - w w d d d d l l b b l l b b b b l l l l d d d d 3 3 - ; < < d d l l d d - - & & & & X X O O & & - - - - 3 3 d d d d 3 3 ; = = = < < 3 3 p p d d l l d d d d l l b b b b b b d d w w < < < < - - - - * - - - < < 6 6 < < < < , , - - - - - - , , < < 3 3 p p l l b b B B l l d d d d p p d d d d p p < < - - ; - - - l l b b d d < < - - = = # # O O # # # # & & < < d d l l l l d d p p l l l l b b S S S S B B S S B B b b l l d d l l l l p i - - d d k k b b b b N N S S L L R R ) ) / / R R F F N N l k d d k k d d k k b b b b l l l l b b b b N N b b N N F F L L / / / / ) ) S S B B F F / / E E S S b b S S b b l l l l b b S S F F S S B B S S S S S S S S F F L L L L E E ) ) R R F F N N N N N N S S R R F F F F G G G G F F S S S S S S S S d d p p l l S S B B B B S S F F G G G G L L R L G G B B B B b b b b B B B B b b d d d d k k d k d d p p p p w w 0 0 < < - - - - < < w w l l b b B B b b ",
"M M n n n n M M M M n n M M n n V V G G B B n n n n M M B B B B S S n n r r 6 6 b n S S B B B B B B b b l l l l b b b b b b d d p d p p p p p p d d d d l k k k d d d d d d d d 3 3 = = & & = = - - - - = = = = - - < < 0 0 0 0 3 3 p p d d d d b l b b d d b b B B F F G G G G F F S S S S b b l l l l l l l l p d d d b b N B B B B B B B S S F F F F S S L L S S B B b b l l B B L L E / L L F G S S S S B B B B b b b b l l b b B B b b d d d d d d d k b b l l l l S S G G S S l l B B B B G G L L G G S S S S S S S S N b l l l l l l l l l l d d w w d d j j l l l l B B G G L L Y Y / / E E L L F F S S S S B B l l d d d d l l B B B B b b b b b b B B F F F F S S S S F F S S b b S S B B b b b b d d - - & & = = - - - - 3 3 w w 3 3 d d N N S S b b p p w w d d d d k k b b b b d d d d d d k k b b B B b b b b d d d d p p 6 6 < < < < w w w w 6 6 3 3 < < < < 3 3 w w w w w w l l b b B B S S b b l l k k l l b b N b N N b b d d d d d d d d S S S S b b d d d d d d w w p p 3 3 < < < < w w k k b b S S S S S S G G G G G G G G G G F F G G S S B B b b l l b b B B b N b b S S F S F F F F S S S S F F L L ) ) / / R R L L F F S S N N b b l l b b N N S S S S F F F F L L F F S S N N N N S S F F S S S S l l B B S S S S b b b b b b l l S S b b l l l l b b b b B B B B l l k k b b N N S S F F G G G G L L G G S S N N B B B B S S F F b b b b b l b b S S F F S S l l l l l l l l l l l l l l l l l l l l l l d d l l B B b b d d l l l l b b S S F F S S b b l l b b b b b b b b b b l l b b b b b b b b S S F F F F B B b b b b ",
"M M n n n n M M M M n n M M n n V V G G B B n n n n M M B B B B S S n n r r 6 6 n n S S B B B B B B b b l l l l b b b b b b d d p d p p p p p p d d d d l k k k d d d d d d d d 3 3 = = & & = = - - - - = = = = - - < < 3 3 0 0 3 3 p p d d d d b b b b d d b b B B F F G L G G F F S S S S b b l l l l l l l l p d d d b b B B B B B B B B S S F F F F S S L L S S B B b b l l B B L L E / L L F G S S S S B B B B b b b b l l b b B B b b d k d d d d d k N N l l l l S S G G S S l l B B B B G G L L G G S S S S S S S S N b l l l l l l l l l l d d w w d d j l l l l l B B G G L L Y Y / / E E L L F F S S S S B B l l d d d d l l B B B B b b b b b b B B F F F F S S S S F F S S b b S S B B b b l b d d - - & & = = - - - < 3 3 w w 3 3 d d B N S S b b p p w w d d d d k k b b b b d d d d d d k k b b B B b b b b d d d d p p 6 6 < < < < w 0 w w 6 6 3 3 < < < < 3 3 w w w w w w l l b b B B S S b b l l k k l l b b b N N N b b d d d d d d d d S S S S b b d d d d d d w w p p 3 3 < < < < w w k k b b S S S S S S G G G G G G G G G G F F G G S S N N b b l l b b B B b b b b S S F S F F F F S S S S G F L L ) ) / / R R L L F F S S N N b b l k b b N N S S S S F F G F L L F F S S N N N N S S F F S S S S l l B B S S S S b b b b b b l l S S b b l l l l b b b b B B B B l l k k b b N N S S F F G G G G L L G F S S N N B N B B S S F F b b b b l l b b S S F F S S l l l l l l l l l l l l l l l l l l l l l l d d l l S S b b d d l l l l b b S S F F S S b b l b b b b b b b b b b b l l b b b b b b b b S S F F F F B B b b b b ",
"M M c c c c n n n n c c n n n n M n B B B B B B n n B B B B b b c c r r < < d d M b B B M M S S S S b b l l b b B B B B b b b b l l d d d d k k l l b b b b b b l l l l b b S S B B l l d d k k l l d d p p p p d d l l b b l l l l b b N b N N B B b b d d l l k k l l l l l l d d d d k k d d d d d d l l b b d d d d l l d d l l M B S S S S b b l l d d b b b b N N b b d d l l S S S S S S S S S S S S b b l l d d d d l l b b b b l b l k k d l l b b b b d d d d b b b b l l l l b b l l b b S S N b l l l l l l l l S S F F G G L L G G F F B B b b c c b b b b b b S S G G L L L L L L L L G L S S b b M M B B b b l l l l l l l l k k p d d d d k b b N N N b b b l l b b B B B B F F B B b b l l l l l l l l B B B B b b S S F F S S F F G G G G F F b b l l b b b b N B S S F F / / L L S S b b l l b b b b l l l l l l d d d d l l l l j j d d l l d d d d d d l l l l j j d d b b b b b l l l l l l l S S G G L L L L F F S S B B N N b b b b S S G G G G F F G G L L F F S S S S S S b b b b b b N N N b b b F F F F S S b b B B b b b b S S l l b b l l d d w w d d l l b N k k N N S S S S F F L L R R R R L L L L F F S S S S B B b N b b B N S S S S G G R R R R R R R R S S S S N N b b b b b b b b l l l l B B S S b b l l l l l l d d S S B B b b l l d d d d k d l k k k k k b b S S G G L L F F N N k k b b b b b b b b l l k k l l b b b b l l l l B B G G L L F F l l b b b b l l d d d d d d w w d d d d p p d d b b l l d d b b l b l l b l b b l l d d d d p p w w p p d d d d l l l l b b S S S S F F G G S S b b l l b b ",
"M M c c c c n n n n c c n n n n n n B B B B B B n n B M B B n b c c r r < < d d M b B B M M S S S S b b l l b b B B B B b b b N l l d d d d k k l l b b b b b b l l l l b b S S B B l l d d d k l l d d p p w p d d l l b b l l l l b b N N B B B B b b d d l l k k l l l l l l d d d d k k d d d d d d l l b b d d d d l l d d l l M M S S S S b b l l d d b b b b N N b b d d l l S S S S S S S S S S S S b b l l d d d d l l b b b b b b l l k d l l b b b b d d d d b b b b l l l l b b l l b b S S b b l l l l l l l l S S F F G G L L G G F F B B b b c c b b b b b b S S G G L L L L L L Y L G L S S b b M M B B b b l l l l l l l l k k p d d d k k l l b b b b b b l l b b B B B B F F B B b b l l l l l l l l B B B B b b S S F F S S F F G G G G F F b b l l b b b b B B S S F F / / L L S S b l l l b b b b l l l l l l d d d d l l l l j j d d l l d d d d d d l l l l j j d d b b b b b b l l l l l l S S G G L L L L F F S S B B N N b b N b S S G G G G F F G G L L F F S S S S S S b N b b b b N B b b b b F F F F S S b b B B b b b b S S l l b b l l d d w w d d l l b b k k N N S S S S F F L L R R R R L L L L F F S S S S B B b b b b B B S S S S G G R R R R R R R R S S S S N N b b b b b b b b l l b l B B S S b b l l l l l l d d S S B B b b l l d d d d k d l k k k k k b b S S L G L L F F N N k k b b b b b b b b l l k k l l b b b b l l l l B B G G L L F F l l b b b b l l d d d d d d w w d d d d p p d d b b l l d d b b b b l l b b b b l l d d d d p p w w p p d p d d l l l l b b S S S S F F G G S S b b l l b b ",
"D D S S S S D D S S M M S S V V V V S S Y Y Y Y J J G G J J J J S S d d p p b b l l p p j j B B b b l l l l b b S S F F S S S S b b d d l k b b b b b b b b l l b b b b b b l l b b B B B B b b N N N N b b l l d d d d d d d d p p p p d d l l b b b b d d l l d d p p d d l l l l d d d d w w p p 3 3 w w d d d d d d b b S S S S F F F F B B l l d d l b l l l l b b l l d d l l l l p p d d l l B B S S S S b b l l d d d d d d p p w w p p d d l l b b B B d d d d l l d d l l B B b b l k p p p w d d l l l l b b B B b b S S F F G G S S S S S S B S b b b b b b b c b b B B B B M M S S G G L L G G S S b M b b b b l l d d p p p p p p w w d d N N b b N N B B b b l l l l B B G G G G B B b b b b l l l l l l b b B B N B F F L L G G F F S S b b B B d d d d b b b b B B S S F F L L L L G G S S b b b b l l d d d d p p w w d d b b M M l l d d b b l l l l l l b b b b j j w w 3 3 w w d d l l b b S S G G L L / / G G S S b b b b b b l l l l B B G G G G S S G G E E L L G G F F S S N N l l l l l l b b b b E E L L S S N N B B S S S S G G F F S S l l d d d d l l l l d d l l S S F F N B S S E E / / G G L L F F S S S S S S S S S S N N N N N N S S F F L L L L F F S S S S S S N N b b d d k k k k l l l l l l b b S S N N l l d d l l b b B B S S b b l l d k d d l l b b l l k k b b S S F F S S N N w w l l N N N N N N b b k k b b S S G G L L S S S S G G L L G G F F S S l l d d l l b b l l d d p p d d l l b b b b l l d d b b S B b b b b b b b b b b k k p d d d d d d d l l b b B N B B B B S S b b l l k d l l b b S S ",
"D D S S S S D D S S M M S S S V V V S S Y Y Y Y J J J J J J J J S S d d p p b b l l p p l l B B b b l l l l b b S S F F S S S S b b d d l k b b b b b b b b l l b b b b b b l l b b B B B B b b N N N N b b l l d d d d d d d d p p p p d d l l b b b b d d l l d d p p d d l l l l d d d d w w w p 3 3 0 0 d d k k d d b b F F S S F F F F B B l l d d l l l l l l b l l l d d l l l l p p d d l l B B S S S S b b l k d d d d d d p p w w p p d d l l b b B B d d d d l l d d l l B B b b l k p p p p d d l l l l b b B B b b S S F F G G S S S S S S B S b b b b b b b c b b B B B B M M S S G G L L G G S S b b b b b b l l d d p p p p p p p w d d b N N b N N B B b b l b l l B B G G G G B B b b b l l l l l l l b b B B B B F F L L G G F F S S b b B B d d d d b b b b B B S S F F L L L L G G S S b b b b l l d d d d p p w w d d b b M M l l d d b b l l l l l l b b b b j j w w 3 3 w w d d b l b b S S G G L L / / G G S S b b b b b b l l l l B B G G G G S S G G E E L L G G F F S S N N l l l l l l b b b b E E L L S S N N B B S S S S G G F F S S l l d d d d l l l l d d l l S S F F N B S S E E / / G G L L F F S S S S S S S S S S N N N N N N S S F F L L L L F F S S S S S S N N b b d d d d k k b l l l l l b b S S N N l l k d l l b b B B S S b b l l k k d d l l b b l b k k b b S S F F S S N N w w l l N N N N N N b b k k b b S S G G L L S S S S G G L L G G F F S S l l d d l l b b l l d d p p d d l l b b b b l l d d b b B B b b b b b b b b b b k k p p d d d d d d l l b b B B B B B B S S b b l l k d l l b b S S ",
"Y Y Y Y Y Y Y Y I I I I I I J J J J E E / / E E Y Y Y Y / / Y Y B B d d d d d d d d d d p p d d l l b b b b B B S S G G G G B B b b l l l l b l l l d d d k b b B B b b l l l l b N S S B B S S b b l l l l l l l l d d w w - - w w d d d d b b b b l l d d b b d d d d d d w w d d l l d d d d w w d d l l k k l k l l l l b b F F G G S S b b b b N b B B B B l l d d d d l l b b b b l l w w l l b b B B B B b b d d l l l l l l l l d d p d d d l l b b b b l l l l l l l l b b b b l l l l d d d d d d d d l l b b b b S S S S F F S S B B b b B B S S l l b b B B F F F F S S S S F F G G S S B B S S G G L L G G F F b b l l B B S S k k l l B B B B F F L L G G S S G G L L S S F F F F S S b b l l l l b b B B B B B B S S S S S S S S S S S S G G G G B B l l d d b b b b b b b b S S S S L L L L S S b b l l d d p p w w p p l l B B S S M M c c S S B B b b b b B B B B l l d d - - 0 3 d d d k b b S S G G G G G G B B l l l l b b b b b b b b B B D G G G S S b b S S F F F F S S B B b b B B b b k d d d l l S S F F F F F F L L L L S S S S S S N N b b l l k k k k b b B B N N b b b b F F L L L L L L F F F F F F S S B B F F L L L L S S l l B B F F G G F F S S F F G G F F S S S S N N b b b b b b b b l l l l l l b b S S S S B B S S b b b b b b b b b b b l l l l l N B N N b b l l N N G G L L F F N N l l b b S S S S b b b b N N F F G G G G F F B B S S G G F F S S S S S S b b b b S S S S b b l l d d d d d d p p d d b b N b S S B B b b l l l l b b l l d d w w d d l l b b b b l l l l d d S S B B B B B B b b b b b b ",
"Y Y Y Y E E Y Y I I I I I I J J J J E E W / E E Y Y Y Y / / Y Y B B d d d d d d d d d d p p d d l l b b b b B B S S G G G G B B b b l l l l b b l l d d d d b b B B b b l l l l b N S S B B S S b b l l l l l l l l d d w w - - w w d d d d b b b b l l d d b b d d d d d d w w d d l l d d d d w w d d l l k k l l l l l l b b F F G G S F b b b b N N B B B B l l d d d d l l b b b b l l w w l l b b B B B B b b d d l l l l l l l l d d p p d d l l b l b b l l l l l l l l b b b b l l l l d d d d d d d d l l l l b b S S S S F F S S B B b b B B S S l l b b B B F F F F S S S S F F G G S S B B S S G G L L G G F F b b l l B B S S k k k l B B B B F F L L G G S S G G L L S S F F F F S S b b l l l l b b B B B B B N F S S S S S S S S S S S G G G G B B l l d d b b b b b b b b S S S S G G L L S S b b l l d d p p w w p p l l B B S S M M c c S S B B b b b b B B B B l l d d - - 3 3 d d k k b b S S G G G G G G B B l l l l b b b b b b b b B B D G G G S S b b S S F F F F S S B B b b B B b b k k d d l l S S F F F F F F L L G L S S S S S S N N b b l l k k k k b b B B N N b b b b F F L L L L L L F F F F F F S S S B F F L L L L S S l l B B F F G G F F S S F F G G F F S S S S N N b b b b b b b b l l l l l l b b S S S S B B S S b b b b b b b b b b c c l l l l N B N N b b l l N N G G L L F F N N l l b b S S S S b b b b N N F F G G G G F F B B S S G G F F S S S S S S b b b b S S S S b b l l d d k d d d p p d d b b b b S S B B b b l l l l b b l l d d w w d d l l b b b b l l l l d d S S B B B B B B b b b b b b ",
"Y Y I I Y Y W W / / W W Y Y J J Y Y E E E E E E Y Y Y Y L L J J c c w w p p d d w w w w d d l l b b b b B S F S F F S S b b d d d d d d l l l l l l l l b b l l b b b b d d d d l l l l l l B B b b l l k d d d d d d d d d 0 0 w w p p d d b b l l d d l l S S b b l l l l w w p p d d w w w w d d N N S S k k p p l l b b b b F F G G S S b b b b S F G G b b b b d d d d b l b b b b b b p p b b S S S S S S b b d d l l b b b b l l d d d d l l B N S S l l d d l l b b b b S B b b l l l l d d p p p p d d l l b b B B G G G G G G F F S S B B S S S S l l b b B B S S S S S S S S G G S S S S F F G G L L G G F F S S l l d k b b B B l l l l F F G G G G L L G G F F G G F F F F L L ) / L L B B l l l l b b S S F S S S G G L L L L L L G G F F G G F F B B b b b b B B S S S S S S E E G G G G G G F F S S b b d d p p w w w w d d b b B B B B b b S S B B b b b b B B B B b b d d w w d d l l l l b b S S G G L L E E G G F F S S S S B B b b b b S S S S F F F F G G / / _ _ ) ) F F G G F F S S b b l l l l b b F F E R R R F F S S S S S S S S L L F F S S b b l l k k l l b b b b N N S S S S S S S S G G / / R R L L G G F F F F S S S S N B b b N N S S F F F F L L / / ) ) E E G G S S b b b b N N l l d d b b N N B B S S G G S S b b b b l l B B F F F F N N l l l l b b k k k k k k d d b b F F G G F F L L S S N N N N N N b b k k l l l l b b S S B B l l b b F F G G ) ) E E G G S S b b b b l l d d p p p p p p d d d d b b S S B B p p l l b b b b B B F F B B d d d d d d p p p p d d l l b b b b S S S S S S F F F F S S B B ",
"Y Y I I Y Y E W / / W W Y Y J J Y Y E E E E E E Y Y Y Y L L J J c c w w p d d d w w w w d d l l b b b b B B F S F F S S b b d d d d d d l l l l l l l l b b l l b b b b d d d d l l l l l l B B b b l l k k k d d d d d d d 3 0 p p p w d d b b l l d d l l S S b b l l l l w w p p d d 0 w w w d d N N S S k k p p l l b b b b F F G G S S b b b b F F G G b b b b k d d d l l b b b b b b p p b b S S S S S S b b d d l l b b b b l l d d d d l l N N S S l l d d l l b b b b S B b b l l l l d d p p p p d d l l b b B B G G G G G G F F S S B B S S S S l l b b B B S S S S S S S S G G S S S S F F G G L L G G F F S S l l d k b b B B l l l l F F G G G G L L G G F F G G F F F F L L ) / L L B B l l l l b b S S S S S S G G L L R L L L G G F F G G F F B B b b b b B B S S S S S S R R G G G G G G F F S S b b d d p p w w w w d d b b B B B B b b S S B M b b b b B B B B b b d d w w d d l l l l b b S S G G L L E E G G F F S S S S B B b b b b S S S S F F F F G G / / _ _ ) ) F F G G F F S S b b l l l l b b F F E R R R F F S S S S S S S S L L F F S S b b l l k k l l b b b b N N S S S S S S S S G G / / R R L L G G F F F F S S S S B B b b N N S S F F F F L L / / _ ) E E G G S S b b b b N N l l d d b b N N B B S S G G S S b b b b l l B B F F F F N N l l l l b b k k k k k k k d b b F F G G F F L L S S N N N N N N b b k k l l l l b b S S B B l l b b F F G G ) ) E E G G S S b b b b l l d d p p p w p p d d d d b b S S B B p p l l b b b b B B F F S B d d d d d d p p p p d d k k b b b b S S S S S S F F F F S S B B ",
"Y Y J J D D I I W W W W Y E E E E E E Y Y Y / / ] ] ] ] ) ) S S j j w w l l l l p p d d b b l l l l b b S S L L L L G G B B d d k k l l b b b b l l l l b l b b b b B B B B B B S S F F G G S S N N b b l l d d d d d d d d p p p p p d l l B B l l d d b b d d d d l l b b l l d d d d i i 3 3 3 3 d d l l l l l l b b B B G G L L L L S S l l l l b b S S b b l l d d k k l l l l l l l l b b F F G G G G S S b b d d l l l l d d d d p p d d l l b b S S b b d d d d b b b b S S S S b b b b l l l l l l d d l l N N S S B B F F G G L L L G F F S S B B b b b b b b B B S S S S S S F F L L L L L L G G F F S S S S S S d d d d l l l l w w w w l l b b B B S S S S B B B B b b B B L L E E G G B S b b b b b b B B S S S S F F G G E E E E L L F G G G F F B B b b b b B B S S F F G F / / E E E E G G B B b b B B B B B B b b l l l l c c b b c c l l b b c c l l l l b b b b l l j j l l b b S S B S B B B B S S S S R R L L L L L L G G S S N N b b N N S S G G G G L G L L E E L L F F L G G G S S b b b b S S F F N N R R R R S S N N B B B B N N F F S S b b l l d d d d k k b b b N b b N N F F G F G G L G R R / / R R R R / / R R F F S S G G F S S S S S S S F F L L / / ) ) E E E E L L S S N N b b b b b b F F S S B B B B S S S S B B F F d d b b S S S S b b k k d d l l b b b b N N b b b b S S F F F F F F S S N N B B S S S S b b l l b b b b F F S S b b b b S S F F L L F F S S b N b b l l l l B B b b b b b b l l l l b b b b d d d d b b B B b b B B F F S S b b F F B B b b l l b b B B S S S S S S S S S S F F F F S S B B ",
"Y Y J J G D I I W W W W Y Y E E E E E E Y Y / / ] ] ] ] ) ) S S j j w w l l l l p p d d b b l l l l b b S S L L L L G G B B d d k k l l b b b b l l l l b l b b b b B B B B B B S S F F G G S S N N b b l l d d d d d d d d p p p p p p l l B B l l d d b b d d d d l l b b l l d d d d i i 3 3 3 0 d d l l l l l l b N B B G G L L L L S S l l l l b b S S b b l l d d k k l l l l l l l l b b F F G G G G S S b b d d l l l l d k d d p p d d l l b b S S b b k d d d l b b b S S S S b b b b l l l l l l d d l l b b S S B B F F G G L L G G F F S S B B b b b b b b B B S S S S S S F F L L L L L L G G F F S S S S S S d d d d l l l l w w w w l l b b B B S S S S B B B B b b B B L L E E G G B S b b b b b b B B S S S S F F G G E E E E L L G G G G F F B B b b b b B B S S F F G G / / E E E E G G B B b b B B B B B B b b l l l l c c b b c b l l b b c c l l l l b b b b l l j j l l b b S S B B B B B B S S S S E R L L L L L L G G S S N N b b N N S S G G G G G G L L E E L L F F L G G G S S b b b b S S F F N N R R R R S S N N B B B B N N F F S S b b b l d d d d k k b b b b b b N N F F F F G G G G L R / / R R R R / / R R F F S S G G F F S S S S S S F F L L / / ) ) E E E E L L S S N N b b b b b b F F S S B B B B S S S S B B F F d d b b S S S S b b d k d d l l b b b b N N b b b b S S F F F F F F S S N N B N S S S S b b l l b b b b F F S S b b b b S S F F L L F F S S b b b b l l l l B B b b b b b b l l l l b b b b k d d d b b B B b b B B F F S S b b F S B B b b l l b b B B S S S S S S S S S S F F F F S S B B ",
"Y Y I I J J J J J J I I W W / / ` ` { ] | | *.*.<.<.-.-.X.X.B B l l l l b b B B b b M M F F b b b b b b S S G G G G G G S S l l b b B B S S S S B B N N B B S S B B b b B B S S S S F F G G S S S S B B b b b b l l l l k k l l l l b b B B S S b b l l b b p d d d l l b b b b b b l l d d l l d d d d l l l l b b S S B B G G G G G G S S l l l l b b N N b b l l l l l l b b b N b b l l N N S S S S S S S S b b d d l l b b l l l l l l l l b b B B S S l l d d b b B B b N B B S S S S b b b b S S B S b b b b B B S S G G L L / / ) ) / / L L G G S S S S S S S S S S F F G G L L L L ) ) ) / E E G G S S S S S F G G b b b N S S B B l l d d l l b b b b S S S S S S S S S S F F G G L L G G G G L L F F b b l l l l B B b b B B S S F F F F G G L L L L S S b b b b B B S S F F L L S S B B B B b b d d l l B B S S S S B B l l d d d d d d p d w w d d d d d d d d d d d d p p p p l l b b S S F F F F S S b b l l B B S S S S F F F F B B b b l l l l F F E E E E F F b b b b b b l l l l d d p p p p d d b b S S B B L L L L G G L L R R R R R R L L F F S S S S B B S S S S F G F F N N N N F F R R / / R R L L R R E E ) ) ] ] ] ] ) ) E E R R S S B B b b b b N N B B S S S S L L L L L L L L F F S S G G / / / / / / L L L L L L G G G G / / F F S S B B S S S S b b l l l l B S F F F F S S N N B B F F G G F F L L R R / / ) ) ) ) / / L L S S F F G G L L G G L L L L L L L L G G S S b b b b l l b N S S l l l l b b b b b N G G L L G G G G L L L L G G F F S S G D G G G G F F S S S S S S S S b b b b w w 0 3 3 3 0 0 w w w w w w ",
"Y Y I I J J J J J J I I W W / / ` ` { ] X.| *.*.<.<.-.-.X.X.B B l l l l b b B B b b M M F F b b b b b b S S G G G G G G S S l l b b B B S S S S B B N N B B S S B B b b B B S S S S F F G G S S S S B B b b b b l l l l k d l l l l b b B B S S b b l l b b p d d d l l b b b b b b l l d d l l d d d d l l l l b b S S B B G G G G G G S S l l l l l l b N b b l l l l l l b b b b b b l l N N S S S S S S S S b b d d l l b b l l k l l l l l b b B B S S l l d d b b B B b b B B S S S S b b b N S S S S b N b b B B S S G G L L / / ) ) / / L L G G S S S S S S S S S S F F G G L L L L ) ) / / E E G G S S S S S F G G b b b b S S B B l l d d l l b b b b S S S S S S S S S S F F G G L L G G G G L L F F b b l l l l B B b b B B S S F F F F G G L L L L S S b b b b B B S S F F L L S S B B B S b b d d l l B B S S S S B B l l d d d d d d d d w w d d d d d d d d d d d d p p p p l l b b S S F F F F S S b b l l B B S S S S F F F F B B b b l l l l F F E E E E F F b b b b b b l l l l d d p p p p d d b b S S B B L L L L G G L L R R R R R R L L F F S S S S B B S S S S F F F F N N N N F F R R / / R R L L R R E E ) ) ] ] ] ] ) ) R R R R S S B B b b b b N N B B S S S S L L L L L L L L F F S S G G / / / / / / L L L L L L G G G G / / F F S S B B S S S S b b l l l l B B F F F F S S N N B B F F G G F F L L R R / / ) ) ) ) / / G G S S F F G G L L G G L L L L L L L L G G F F N b l l l l b N S S l l l l b b b b b b G G L L G G G G L L L L G G F F S S G D G G G G F F S S S S S S S S b b b b w w 0 3 3 3 0 0 w w w w w w ",
"W W W W ` ` { { / / W W { { { { #.#.-.-.<.<.6.6.<.<.@.@.Y Y b b B B S S S S D D G G G G G G S S S S S S S S B B B B b b l l p p k k b b B B S S S S S S S S L L S S l l d d k k d d d d k k l l l l l l b b B B B B B B b b b b S S F F S S S S B B b b S S L L G G S S S S S S b N b b b b b b b b b b b b d d d d b b l l S S S S S S F F G G G G G G G G S S b b b b S S L L / / E E L L F F F F S S S S S S S S b b N B G G S S b b b b b b b b B B S S l l b b L L / / G G S S F F G G L L E E E E L L G G F F G G G G S S B B b b b b b b l l d k d d B B B B B B F F L L / / _ _ ] ] ) ) / / E E L L G G F F S S S S l l b b B B S F F F S S F F G G G G L L L L L L L L E E L L S S S S S S S S S S l l < < = = - - < < & & - - w w w w d d B S F S S S l l p p w w d d l l B B G G M M j j d d b b S S G G G G S S c c d d w w 6 6 < < 3 6 6 6 6 6 w w p p p p w w 6 6 6 6 3 3 6 6 p p d d l l B B F F F F S S b M l l l l l l b M B B b b d d d d - - d d B B S S M M d d w w w w < < # # O O # # * * - - w w l l S S N N b b b b F F G G G G L L L L G G F F F F S S S S S S F F b b d d d d d d l l b b S S G G G G E E _ _ ] ] ] ] _ _ E E F F b b l l d d l l l l b b b b B B G G b b l l S S G G S S S S G G / / ] ] X.X....._ _ L L L L _ _ #.#._ _ E E L L L L G G S S S S L L E E / / R R L L L L R R ) ) / / ] ] @.@.@.@.@.@.@.@.....] ] L L L L R R E E L L R R / / ) ) / / E E L L G G / / ] ] ) ) L L F F F F R R / / / / _ _ ] ] ] ] L L R R / / ) ) R R F F F F E E G G S S b b l l d d p p 3 3 - - = = = = = = & & = = - - < < ",
"W W W W { { { { W / W W { { { { #.#.-.-.<.<.6.6.<.<.@.@.Y Y b b B B S S S S D D G G G G G G S S S S S S S S B B B B b b l l p p k d b b B B S S S S S S S S L L S S l l d d k k d d d d k k b l l l l l b b B B B B B B b b b b S S F F S S S S B N b b S S L L G G S S S S S S N N b b b b b b b b b b b b d d d d b b l l S S S S S S F F G G G G G G G G S S b b b b S S L L / / E E L L F F F F S S S S S S S S b b N B G G S S b b b b b b b b B B S S l l b b L L / / G G S S F F G G L L E E E E L L G G F F G G G G S S B B b b b b b b l l d k d d B B B B B B F F L L / / _ _ ] ] ) ) / / E E L L G G F F S S S S l l b b B B S F F F S S F F G G G G L L L L L L L L E E L L S S S S S S S S S S l l < < = = - - < < & & - - w w w w d d B B S S S S l l p p w w d d l l B B G G M M j j d d b b S S G G G G S S c c d d w w 6 6 < < 6 6 6 6 6 6 w w p p p p w w 6 6 6 6 3 3 6 6 p p d d l l B B F F F F S S b b l l l l l l b b B B b b d d d d , , d d B B S S M M d d w w w w < < # # O O # # * * - - w w l l S S N N b b b b F F G G G G L L L L G G F F F F S S S S S S F F b b d d d d d d l l b b S S G G G G E E _ _ ] ] ] ] _ _ E E F F b b l l d d l l l l b b b b B B G G b b l l S S G G S S S S G G / / ] ] X.X....._ _ L L L L _ _ #.#._ _ E E L L L L G G S S S S L L E E / / R R L L L L R R ) ) / / ] ] @.@.@.@.@.@.@.@.....] ] L L L L R L E E L L R R / / ) ) / / E E L L G G / / ] ] ) ) R R F F F F R R / / / / _ _ ] ] ] ] L L R R / / ) ) R R F F F F E E G G S S b b l l d d p p 3 3 - - = = = = = = & & = = - - < < ",
"( ( { { *.*.<.<.*.*.X.X.| X.` ` { { | | | { ] ] / / S S j j b b F F L L G G D D L L G G S S S S F F G G S S b b l b l l l l k k l l l l l l b b b b l l p p l l d d 3 3 < < - - < < < < < < & & = = - - w w d d l l l l l l l l S S G G S S S S S S G G / / / / E E G G L L / / R R G G L L G G S B B B F F L L E E L L S S G G G G L L E E / / E E L L L L G G F F G G L E _ _ ] ] ] ] _ _ _ ] _ _ / / E E E E G G F F G G / / G G S S S S S S B B S S G G L L E E _ _ ] ] E E G G R E ) ) _ _ ) ) E E S S b b l l b b B B b b l l l l l l b b l l d d d d 3 3 w 0 p p l l S S E E _ _ _ _ ) ) L L S S B B b b b b l l d d & & - - < < p p b b b b b b S S S S S S S S B B b b b N l l 3 3 - - 3 3 l l B B b b p p < < < < # # X X & & < < < < p p b b B B l l 3 3 = = - - 6 6 d d b b D D S S M M S S D D D D F F S S c c p p r r 6 6 6 6 6 6 w 6 p p d d d d d d d d p p p p w w 6 6 6 6 w w w w w w d d c c b b b b M b B B b b b b B B S S b b j j d p , , - - < < j j b b b b j j d d p p & & O O - - d d l l B B L L S S d d = = = = 0 0 0 0 0 0 d d N N b b b b N N N N b b l l k k < < = = & & < < d d k k l l l l b b F F L L / / / / / / F F l l p p < 3 - - < < d d d d b b S B b N p p 0 0 l l l l - - = = < < d d B B G G L L L L F F L L ] ] -.-.@.@._ _ ) ) / / L L / / ] ] / / / / E E L L F F F F L L R E R R / / ) ) E E R R / / ) ) ) ) ] ] ] ] ...._ _ L L G G R R / / L R L L L L / / %.%.w.w.9.9.....E E ) ) %.%.7.7.,.,.@.@./ / F F S S S S L L E E G L S S G G _ _ ] ] E E b b w w = = & & = = = = d d l l l l d d w w 3 3 3 3 ",
"( ( { { *.*.<.<.*.*.X.X.| X.` ` { { | | { { ] ] / / S S j j b b F F L L G G D D L L G G S S S S F F G G S S b b b b l l l l k k l l l l l l b b b b l l p p l l d d 3 3 < < - - < < 3 3 < < & & = = - - w w d d l l l l l l l l S S G G S S S S S S G G / / / / E E G G L L / / R R G G L L G G S S B B F F L L E E L L S S G G G G L L E E / / E E L L L L G G F F G G L L _ _ ] ] ] ] _ _ _ _ _ _ / / E E E E G G F F G G / / G G S S S S S S B B S S G G L L / / _ _ ] ] / / G G R R ) ) _ _ ) ) E E S S b b l l b b B B b b l l l l l l b b l l d d d d 3 3 w w p p l l S S E E _ _ _ _ ) ) L L S S B B b N b b l l d d & & - - < < p p b b b b b b S S S S S S S S B B b b N N l l 3 3 - - 3 3 l l B B b b p p < < < < # # X X & & < < < < p p b b B B l l 3 3 = = - - 6 6 d d b b D D S S M M S S D D D D F F S S c c p p w w 6 6 6 6 6 6 w w p p d d d d d d d d p p p p w w 6 6 6 6 w w w w w w d d c c b b b b M M B B b b b b B B S S b b j j d d , , - - < < j j b b b b j j d d p p & & O O - - d d l l B B L L S S d d = = = = 0 0 0 0 0 0 d d N N b b b b N N N N b b l l k k < < = = & & < < d d k d l l l b b b F F L L / / / / / / F F l l p p 3 3 - - < < d d d d b b B B b N p p 0 0 l l l l - - = = < < d d B B G G L L L L F F L L ] ] -.-.@.@._ _ ) ) / / L L / / ] ] / / / / E E L L F G F F L L R R R R / / ) ) / E R R / / ) ) ) ) ] ] ] ] ....] _ L L G G R R / / L L L L L L / / %.%.w.w.9.9.....E E ) ) %.%.7.7.,.,.@.@./ / F F S S S S L L E E G L S S G G _ _ ] ] E E b b w w = = & & = = = = d d l l l l d p 6 w 3 3 3 3 ",
"W / ` ` O.O.#.#.O.O.{ { W W J J L L L L J J S S c c d d p p S S G G L L G G F F F F S S l l l l N N B B b b l l b b b b N N b b b l l l l l b b b b d d 3 3 = = < < 3 3 - - - - - - < < - - & & - - - - - - - - - - < 3 w w l l G G / / / / L L S F G G / / G G G G S S G G / / ) ) _ _ #.#.#.#./ / G G / / $.$.6.6.-.-.) ) L L L L E E / / E E G G G G G G / / / / / / / / / / / / L L G G / / / / / / E E L L S S S S G G L L G G G G E E / / E E E E / / ) ) ) / _ _ _ _ L E F F G G L L S S b b d d - - & & & & - - w w p p d d l l b b b b b b d d 3 3 & & = = - ; 3 3 l l S S G G F F / / G G b b d d l l l l l l d d 3 3 3 3 - - - - d d l l k k b b b b l l l l k k < < = = - - - - & & 3 3 b b G G L L G G S S b b w w ; ; d d S S b b B B L L L L S S l l p p l l b b B B F F L L B B B B S S B B w w - - , , , , p p p p p p d d d d j j l l c c c c b c c c c c c c l j j j d d l j d d w w w w 3 3 < < 6 6 p p B M B B S S D D D D S S M M b b M M j j j j S S L L L L S S B B S S d d < < d d S S G G L L E E F F b b 0 0 < < 3 0 < < < < < < b b b b N N S S S S N N k k d d 3 3 - - < < l l F F G G S S b b b b M M F F G G F F S S b l d d = = & & & & - - w w d d l l B B B B b b b b b b d d - - & & & & # # - - < < p p d d l l S S / / ] ] / / L L L L E E / / _ _ @.@.R R F F N N k k d d d d d d d d b b b b k k d d w w d d B B G G ........@.@.#.$.] ] / / L L L L R R L R L L R R ....-.-.%.%.....R R / / $.$.q.q.5.5.] ] G G N N N N L L / / R R F F F F ) ) @.@.%.%.] ] G G l l 3 3 < < w w d d b b B B S S b b d d p p p p ",
"W W ` ` O.X.#.#.O.O.{ ` W W J J L L L L J J S S c c j d p p S S G G L L G D F F F F S S l l l l N N B B b b l l b b b b N N b b l l l l l l b b b b d d 3 3 = = < < 3 3 - - - - - - < < - - & & - - - - - - - - - - < 3 w w l l G G / / / / L L S F G G / / G G G G S S G G / / ) ) _ _ #.#.#.#./ / G G / / $.$.6.6.-.-.) ) L L L L E E / / E E G G G G G G / / / / / / / / / / / / L L G G / / / / / / E E L L S S S S G G L L G G G G E E / / E E E E / / ) ) ) ) _ _ _ _ L L F F G G L L S S b b d d - - & & & & - - w w p p d d l l b b b b b b d d 3 3 & & = = - ; 3 3 l l S S G G F F / / G G b b d d l l l l l l d d 3 3 3 3 - - - - d d l l d l b b b b l l l l l k < < = = - - - - & & 3 3 b b G G L L G G S S b b w w - ; d d S S b b B B L L L L S S l l p p l l N b B B F F L L B B B B S S B B w w - - , , , , p p p p p p d d d d j j l l c c c c b b c c c c c c l j j j d d l j d d w w w w 3 3 < < 6 6 p p B B B N S S D D D D S S M M b b M M j j j j S S L L L L S S B B S S d d < < d d S S G G L L E E F F b b 0 0 < < 3 0 < < < < < < b b b b N N S S S S N N k k d d 3 3 - - < < l l F F G G S S b b b b M B F F G G F F S S b l d d = = & & & & - - w w d d l l B B B B b b b b b b d d - - & & & & # # - - < < p p d d l l S S / / _ _ / / L L L L E E / / _ _ @.@.R R F F N N k k d d d d d d d d b b b b k k d d w w d d B B G G ........@.@.#.#.] ] / / L L L L R R R R L L R R ....-.-.%.%.....R R / / $.$.q.q.5.5.] ] G G N N N N G G / / R R F F F F ) ) @.@.%.%.] ] G G l l 3 3 < < 0 0 d d b b B B S S b b d d p p p p ",
"E E ( ( E E G G G G J J S S n n S S Y Y E E L L B B l l l l L L G G G G F F S S b b v v p p d d l l d d w w w w d d b b S S d d p p p p d d S S G G F F b b w w N N F F N b d d p p w w 3 3 l l b b b b d d < < = = - - 3 3 S S / / @.@.#.#.) ) B B l l S S L L G G l l l l S S L L ] ] 5.5.5.5.X.X./ / / / X.X.-.-.%.%.) ) S S F F G G L L G G S S G G R R #.#.@.@.] ] ) ) G G b b d d w w w w d d l l l l d d 3 3 w w l l d d l l S S E E ) ) / / L L L L F F F F E E ) ) L L B B d d < < - - ; ; & & & & & & - - d d l l S S S S S S S S S S B B l l p p < < < < < < 3 3 d d b b b b l l G G S S N N B B F F G G G G F F B B b b 3 3 < < d d l l l l N N L L B B S S S S p p = = w w b b d d l l M M S S G G D D B B l l l l 6 6 b b G G S S S S E E / / G G B B c c S S G G S S S S D D L L S S b b d d , , * * , , , , 6 6 p p j j j j c c c c M M M M M M B B B B M M M M M M c c c c c c l l j j p p , , & & * * < < w w d d b b S S D D S S S S S S S S b b B B L L E E L L S S S S L L M M p p d d l l b b b b c c S S F F B B l b l l k k 0 0 < < B B S S F F L L G G S S k k d d - - < < d d B B S S S S F F L L S S S S S S F F B B d d w w p p - - - - 0 0 b b F F G G L L / / / / E E L L L L E E L L S S d d = = < < w w d d d k d d d d B B / / S S b b F F E E / / ) ) ] ] / / F F b l p p w w w w 0 0 0 3 d d w w < < ; ; = = < < k k N N L L L L ) ) $.$.,.,.%.$.] ] L L F F L G F G S S F F R R ] ] @.@.%.-.....@.@.,.,.%.%.] ] / / / / F F ] ] %.%.@.@._ _ ] ] @.@.%.%.] ] ) ) L G B B l l l l b b B B b b S S F F B B l l b b B B ",
"E E ( ( Y E G G G G J J S S n n S S Y Y E E L L B B l l j j L L G G G G F F S S b b x x p p d d l l d d w w w w d d b b S S d d p p p p d d S S G G F F b b w w N N F F b b d d p p w w 3 3 l l b b b b d d < < = = - - 3 3 S S / / @.@.#.#.) ) B B l l S S L L G G l l l l S S L L ] ] 5.5.5.5.X.X./ / / / X.X.-.-.%.%.) ) S S F F G G L L G G S S G G R R #.#.@.@.] ] ) ) G G b b d d w w w w d d l l l l d d 3 3 w w l l d d l l S S E E ) ) / / L L L L F F F F E E ) ) L L B B d d < < - - ; ; & & & & & & - - d d l l S S S S S S S S S S B B l l p p < < < < < < 3 3 d d b b b b l l G G S S N N B B F F G G G G F F B B b b 3 3 < < d d l l l l N N L L B B S S S S p p = = w w b b d d l l M M S S G G D D B B l l l l 6 6 b b G G S S S S E E / / G G B B c c S S D G S S S S D D L L S S b b d d , , * * , , , , 6 6 p p j j j j c c c c M M M M M M B B B B B M M M M M c c c c c c l l j j p p , , & & * * < < w w d d b b S S D D S S S S S S S S b b B B L L E E L L S S S S L L M M p p d d l l b b b b c c S S F F B B l l l l k k 0 0 < < N N S S F F L L G G S S k k d d - - < < d d B B S S S S F F L L S S S S S S F F B B d d w w p p - - - - 0 w b b F F G G L L / / / / E E L L L L E E L L S S d d = = < < w w d d d k d d d d B B / / S S b b F F E E / / ) ) ] ] / / F F l l p p w w w w 0 0 0 0 d d 0 w < < ; ; = = < < k k N N L L L L ) ) $.$.,.,.%.%.] ] L L F F L L F G S S F F R R ] ] @.@.%.%.....@.@.,.,.%.%.] ] / / / / F F ] ] %.%.@.@._ _ ] ] @.@.%.%.] ] ) ) L L B B l l l l b b B B b b S S F F B B l l b b B B ",
"I I Y Y Y Y I I L L J J J J D D Y Y L L L L L L b b l l G G D D G G G G S S b b d d 0 0 u u 0 0 0 0 0 0 d d k k l l l l l l < < ; ; ; ; 0 3 N b / / ] ] ) ) b b B B G G G G b b d d l l b b G G S S B B l l l l x x d d 3 3 S S L L / / ] ] #.#...../ / E E X.X.X.X./ / G G G G R R ] ] %.%.$.$.) ) / / ....@.@.] ] R R F F F F S S S S S S S S / / #.#.-.-.#.#./ / F F G G S S d d ; ; & & O O - - d d 0 0 < < 3 3 w p p p < < d d S S L L / / / / / / / / b b l l S S L L F F l k d d d d l l d d < < & & - - b b G G L L E E / / E E R R / / / / L L G G S S d d ; ; < < 0 0 d d l l b b S S b N b b b b S S G G S S b b d d p p w w k d B B S S S S b b S S N N b b b b b b b b b b b b c c M M S S L L G G S S b b c c b b j j l l S S L L L L G G L L L L G G S S S S S S D D D D G G S S D D S S S S S S M M c c p p 6 6 w w p p j j c c M M B B S C S S S S S S D D S S S S C C n n c c c c d d 6 6 6 6 w w c c S S S S S S D D G G G G G G G G D D S S S S S S D D L L Y Y Y Y L L L Y M M j j j j c c l l c c S S L L G G B B b b b b b b b b l l b b l l l l b b S S B B S S G G S S F F b b p p w w b b F F F F B B b b b b l l d d d d d d l l d d d d l l b b B B b b b b F F E E G G E Y / / F F B B b b k d & & - - 3 3 p p l l B B S S S S E E L L S S N N S S L L L L G G S S A A b b N N F F S S v v f f k k N N b b k k k k d d 0 0 d d d d b b N N S S ) ) %.%.@.@.E E F F G G S S N N R R ] ] X.X.........] ] ) ) _ _ ] ] / / L L L L ] ] <.<.q.q.,.,.] ] R R R R E E / / G G G G L L / / E E L L E E L L L L G G S S G G L L G G ",
"I I Y Y Y Y I I L J J J J J D D Y Y L L L L L L b b l l G G D D G G G G S S b b d d 0 0 u u 0 0 0 0 0 0 d d k k k k l l l l < < ; ; ; ; 0 0 b b / / ] ] ) ) b b B B G G G G b b d d l l b b G G F S B B l l l l x x d d 3 3 S S L L / / ] ] #.#...../ / E E X.X.X.X./ / G G G G R R ] ] %.%.$.$.) ) / / ....@.@.] ] R R F F F F S S S S S S S S / / #.#.-.-.#.#./ / F F G G S S d d ; ; & & O O - - d d 0 0 - - 3 3 w w p p < < d d S S L L / / / / / / / / b b l l S S L L S S l l d d d d l l d d < < & & - - b b G G L L E E / / E E R R / / / / L L G G S S d d ; ; < < w w d d l l b b S S b N b b b b S S G G S S b b d d p p w w k k B B S S S S b b S S N N b b b b b b b b l b b b c c M M S S L L G G S S b b c c b b j j l l S S L L L L G G L L L L G G S S S S S S D D D D G G S S D D S S S S S S M M c c p p 6 6 w w p p j j c c M M B B S S S S S S S S D D S S S S C C n n c c c c d d 6 6 6 5 w 6 c c S S S S S S D D G G G G G G G G D D S S S S S S D D L L Y Y Y Y L L L Y M M j j j j c c l l c b S S L L G G B B b b b b b b b b l l b b l l l l b b S S B B S S G G S S F F b b p p w w b b F F F F B B b b b b l l d d d d d d l l d d d d l l b b N N b b N b F F E E G G E Y / / F F B B b b k d & & - - 3 3 p p l l B B S S S S E E L L S S N N S S L L L L G G S S S A b b N N F F S S v v f f k k N N b b k k k k d d 0 0 d d d d b b N N S S ) ) %.%.@.@.E E F F F G S S B N R R ] ] X.X.........] ] ) ) _ _ ] ] / / L L L L ..] <.<.q.q.,.,.] ] R R R R E E / / G G G G L L / / E E L L E E L L L L G G S S G G L L G G ",
"J J I I I I I I Y Y Y Y Y Y L L L L L L Y Y S S b b B B F F F F G G F F S S b b k k d d d d < < - - < < w w d d k k d d d d d d p p d d d d b b L L R R F F k k - - w w S S F F S S S S F F S S S S F F G G G G G G G G G G S F F F G G / / _ _ ) ) E E / / X.X.,.,.,.,.X.X./ / E E E E ) ) ] ] / / ] ] @.@....._ _ / / L L S S B B S S F F L L _ _ $.$.#.#.L L B B l k l l l l d d 3 3 < < d k l l b b b b l l l l b b S B S S b b b b S S G G G G F F S S B B b b F F L L G G B B b b b b d d p w - - & & 3 3 b b S S B S G G L L F F N N S S S S b b d d l l d d d d k k l l k k d d d d p p d d l l B B S S G G S S M M d d b b S S G G G G F F S S B B S S B B b b b b S S F F F F S S M M M M S S D D L L S S c c j j l l l l M M L L / / / / E E E E / / L L G G D D L L L L L L L L L L L L D D S S S S S S M M c c p p d d j j c c M M S S S S S S D D D D D D D D D D D D D D C C M M c c c c j j j j c c M M S S M C S S D D D D G G G G G G D D D D D D D D L L Y Y E Y Y Y L L / / L L S S M M c c j j c c S S G G S S B B B B S S G G G G L L S S l l d d l l N N S S F F G G ) ) ) ) L L S S S S F F L L L L F F F F S S b b k k d d d d l l S S b b d d d d d d d d k k B B l l d d b b F F S S S S b b p p p p < < = = = = 3 3 l l B B B B F F F F S S b b b b b b b b b b F F S S b b b b F F K K H H L L L L F F b b k k k k 0 0 0 0 d d d d k k k k 0 0 0 0 k k b b N N N N F F F F L L ) ) X.X.....] ] ] ] ) ) E E L L L L F F S S L L / / #.#.,.,.$.$.) ) R R L L L L E E G G G G G G G G G G L L E E Y Y E E L L G G S S B B S S ",
"J J I I I I I I Y Y Y Y Y Y L L L L L L Y Y S S b b B B F F F F G G F F S S b b k k d d d d < < - - < < 0 w d d k k d d d d d d p p d d d d b b L L R E F F k k - - w w S S G G S S S S F F S S S S F F G G G G G G G G G G S F F F G G / / _ _ ) ) E E / / X.X.,.,.,.,.X.X./ / E E E E ) ) ] ] / / ] ] @.@....._ _ / / L L S S B B S S F F L L _ _ $.$.#.#.L L B B k k l l l l d d 3 3 < < d d l l b b b b l l l l b b B B S S b b b b S S G G G G F F S S B B b b F F L L G G B B b b b b d d p w - - & & 3 3 b b S S S S G G L L S S N N S S S S b b d d l l d d d d k k l l k k d d d d p p d d l l B B S S G G S S B M d d b b S S G G G G F F S S B N S S B B b b b b S S F F F F S S B M M M S S D D L L S S c c j j l l l l B B L L / / / / E E E E / / L L G G D D L L L L L L L L L L L L D D S S S S S S M M c c p p d d j j c c M M S S S S S S D D D D D D D D D D D D D D C C M M c c c c j j j j c c M M S S S S S S D D D D G G G G G G G D D D D D D D L L Y Y E Y Y Y L L / / L L S S M M c c l j c c S S G G S S B B B B S S G G G G L G B S l l d d l l N N S S F F G G ) ) ) ) L L S S S S F F L L L L F F F F S S b b k k d d d d l l S S b b d d d d d d d d d d B B l l d d b b F F S S S S b b p p p p < < = = = = 3 3 l l B B B B F F F F S S b b b b b b b b b b F F S S b b b b F F L L H K L L L L F F b b k k k d 0 0 0 0 d d d d k k k k 0 0 0 0 k k b b N N N N F F F F L L ) ) X.X.....] ] ] ] ) ) E E L L L L F F S S L L / / #.#.,.,.$.$.) ) R R L L L L E E G G G G G G G G G G L L E E Y E E E L L G G S S B B S S ",
"B B B B S S D D D D D D D D L L S S L L L L b b b b F F S S S S S S S S b b b b N N N N b b d d p p d d k k l l b b b b N N L L S S N b k k b b L G / / L L S S l l l l B B F F G G G G F F G G G L / / _ _ _ _ / / L L L L R E L L G G L L R R L L G G L L #.@.6.6.7.7.X.X.E E G G G G L L / / / / _ _ ] ] ) ) _ _ ....@.@./ / L L D F F F F F G G S S l l < < 0 0 d d d d d d w w w w d d d d d d l l S S G G G G G G G G F F N B b b B B S S S S b b l l l l l l b b S S S S b b b b l l = = = = - - < < w w d d l l l l G G G G B B d d d d l l p p < < p p d d l l b b B B b b l l p p d d b b S S G G G G G G S S b c b b F F / / ) ) / / L L G G F F b M l l p p p p M M E E _ _ ) ) Y Y D D S S S S S S M M j j 6 6 6 6 w w c c D D L L L L G G G G L L G G D D S S D D D D D D D D D D D D S S M M M M M M n n c c c c c c n n M M S S S S D D D D D D D D D D J J J J J J D D D D S S M M M M M M n n n n n n M M M M M M B B S S D D D D D D S S S S S S S S S S D D G G D D S S D D S S n n p p 5 5 5 5 r r j j M M b b M M F S L L ) ) ] ] ] ] S S l l w w p p b b S S D D G G / / / / L L D D S S S S S S S S Y Y E E L L D D b b l l c c b b S S B B b b b b b b k k w w d d p p w w l l S S G G G G N N w w 6 6 p p w w < < - - - - d d l l p p w w 0 0 0 0 0 0 0 0 < < 3 3 < < 0 0 0 0 k k S S L L G G L L / / N N d d k k k k d d k k k k < < 3 3 p d d d 0 0 < < 0 0 b b N N S S N N S S L L / / L L F F G G R R / / ) ) ) ) / / R R E E ) ) ] ] ...._ _ / / / / ) ) ] ] L L L L L L L L L L E E _ _ ] ] _ _ _ _ ] ] _ _ / / G G G G ",
"B B B B S S D D D D D D D D L L S S L L L L b b b b F F S S S S S S S S b b b b N N N N b b d d p p d d k k l l b b b b N N L L S S N b k k b b L L / / L L S S l l l l B B F F G G G G F F G G L L / / _ _ _ _ / / L L L L R E L L G G L L R R L L G G L L #.@.6.6.7.7.X.X.E E G G G G L L / / / / _ _ ] ] ) ) _ _ ....@.@./ / L L G F F F F F G G S S l l < < 0 0 d d d d d d w w w w d d d d d d l l S S G G G G G G G G F F B N b b B B S S S S b b l l l l l l b b S S S S N N b b l l = = = = - - < < w w d d l l l l G F G G B B d d d d l l p p < < d d d d l l b b B B b b l l p p d d b b S S G G G G G G S S b b b b F F / / ) ) / / L L G G F F M M l l p p p p M M E E _ _ ) ) Y Y D D S S S S S S M M j j 6 6 6 6 w w c c D D L L L L G G G G L L G G D D S S D D D D D D D D D D D D S S M M M M M M n n c c c c c c n n M M S S S S D D D D D D D D D D J J J J J J D D D D S S M M M M n n n n n n n n M M M M M M B B S S D D D D D D S S S S S S S S S S D D G G D D S S D D S S n n p p 5 5 5 5 r r j j M M b b M M S S L L ) ) ] ] ] ] S S l l w w p p b b S S D D G G / / / / L L D D S S S S S S S S Y Y E E L L D D b b l l c c b b S S B B b b b b b b k k w w d d p p w w l l S S G G G G b b w w 6 6 p p w w < < - - - - d d l l p p w w 0 0 0 0 0 0 0 0 < < 3 3 < < 0 0 0 0 k k S S L L F F L L / / N N d d k k k k d d k k k k < < 3 3 p p d d 0 0 < < 0 w b b N N S S N N S S L L / / L L F F G G R R / / ) ) ) ) / / R R E E ) ) ] ] ...._ _ / / / / ) ) _ ] L L L L L L L L L L E E _ _ ] ] _ _ _ _ ] ] _ _ / / G G G G ",
"c c c c c c c c n n n n c c M M c c M M M M c c M M S S S S B B B B N N N N F F / / / / R R ) _ _ _ _ _ ) ) R R L L R R / / R R S S b b l l B B E E ] ] ] ] _ _ _ _ ] ] / / L L L L L L S S S S F F L L / / / / Q ^ G G F F L L L L L L L L R R / / ) ) E E / / X.X.....) ) E E E E / / _ _ ] ] / / / / / / L L L L ) ) ....G G S S b b b b b b b b d d = = 3 3 p p d d p p p p p p d d d d d d d d l l S S G G L L G G G G B B b b l l d d w 0 - - - - - - - - - - < < w w p p l l l l p p - - 3 3 l l b b d d 3 3 p p b b S S S S b b d d d d p p 3 3 0 0 N N N N b b b b B B S S B B l l S S G G L L E E Y Y L L S S M M S S S S F F L L Y Y Y Y G G S S B B b b d d p p B B ) ) @.@.X.X.) _ Y Y S S M M M M c c l l j j 9 9 p p j j M M M B M B B B S S S S B B M M M M M M B M M M M M M M M M M M n n M M M M M M n n M M M M M M V S S S S S D D D D D D S S D D D D D D D D D D D D D D S S B B C C M M M M M M n n M n M M M M S S S S S S B B M M M M M M M M M M M M M M M M c c M M M M M M j j p p g g c c c c c c b b M M D D Y Y ) ) ] ] | | L L S S l l c c B B S D D G L L / / L L L L G G G G S S S S G G E E E E Y Y G G S S B B B B S S B B B B B B S S G G B B d d d d l l b b S S G G L L G G B B d d w w b b D D G G S S B B B B S S l l 3 3 = = - - 3 3 < < & & @ @ @ @ ; ; 0 0 l l S S F F F F F F G G b b b b S S F F G G L L F F b b 3 3 ; ; 0 0 w w < < < < d k N N b b d d k k S S S S b b k k l l S S L L ) ) @.@.@.@._ _ / / ) ) / / R R L L / / X.X.,.,.8.8.) ) ) ) / / L L L L / / ) ) ) ) ] ] ] ] ] ] ] ] X.X.@.@.X.X.",
"c c c c c c c c n n n n c c M M c c M M M M c c M M S S S S B S B B N N N N F F / / / / R R ) ) ) _ _ _ ) ) R R L L L R / / R R S S b b l l B B E E ] ] ] ] _ _ _ _ ] ] / / L L L L L L S S S S G F L L / / / / Q Q G G F F L L L L R R L L R R / / ) ) E E / / X.X.....) / E E E E / / _ _ ] ] / / / / / E L L L L ) ) ....G G S S b b b b b b b b d d = = 3 3 p p d d p p w p p p d d d d d d d d l l S S G G L L G G G G B B b b l l d d 0 w - - - - < - - - - - < < w w p p l l l l p p - - 3 3 l l b b d d 3 3 p p b b S S S S b b d d d d p p 3 3 3 0 N N N N b b b b B B S S B B l l S S G G L L E E Y Y L L S S M M S S S S F F L L Y Y Y Y G G S S B B b b d d p p B B ) ) @.@.X.X.) ) Y Y S S M M M M c c l l j j 9 9 p p j j M M B B B B B B S S S S B B M M M M M M M M M M M M M M M M M M n n M M M M M M n n M M M M M M V V S S S S D D D D D D S S D D D D D D D D D D D D D D S S B B C C M M M M M M n n M n M M M M S S S S S S B B M B M M M M M M M M M M M M M M c c M M M M M M j j p p g g c c c c c c b b M M D D Y Y ) ) ] ] | | L L S S l l c c B B S D D G L L / / L L L L G G G G S S S S G G E E E E Y Y G G S S B B B B S S B B B B B B S S G G B B d d d d l l b b S S G G L L G G B B d d w w b b D D G G S S B B B B S S l l 3 3 = = - - 3 3 < < & & @ @ @ @ ; ; 0 0 l l S S F F F F F F G G b b b b S S F F L L L L F F b b 3 3 ; ; 0 0 w w < < < < d k N N b b d d k k S S S S b b d d l l S S L L ) ) @.@.@.@._ _ / / ) ) / / R R L L / / X.X.,.,.8.8.) ) / ) / / L L L L / / ) ) ) ) ] ] ] ] ] ] ] ] X.X.X.X.X.X.",
"c c c c c c c c c c c c j j j j l l j j l l S S D D S S G G F F S S N N S S / / @.@.$.$.@.@.@.@.$.$.-.-.%.%.] ] L L G G L L L L N N N N R R _ ] ........] ] X.X.....$.$.,.,.@.@./ / / / ) ) ....X.X.....] ] ] ] +.+._ _ / / D D L L R R L L / / %.%.5.5.$.$./ / / / E E ) ) ] ] _ _ ) ) _ _ $.$.) ) R R L L S S b b b b b b B B b b l l b b b b b b l l - - d d i i < < ; ; w w B B F F S S L L L L F F N N N N S S F F S S L L S S d d 3 3 = & # # & & - - 3 3 - - - - , , w w b b S S B B G G G G G G F F l l 3 3 d d B B F F F F S S S S B B d d d d b b G G G G B B b b b b S S S S B B F F G G L L L L Y Y Y Y L L G G L L D D S S D D I Y Y Y L L D D D D L L G G D D L L ) ) ] ] / / Y Y L L S S M C S S S S S S S S M M M M B B S S S S S S S S S S S S S S S S S S S S S S S S S S S S S S S S S S D D D D D D D D S S S S S S S S Z Z S S D D D D D D D D D D D D D D D D Z Z S Z S S Z Z M M C C D D D D D D D D S S D D D D D D D D S S S S C S S S S S Z Z Z C S S S S S S M M M M S S S S M M M M S S D D S S B M M M M M S S D D Y Y Y E / / / / Y Y J J J J L L L L L L L L Y Y L L L L L L L L D D L L Y Y L L L L D D D D D D S S S S M M B B b b j d l l B B b b j j l l l l S S G G L L L L G G B B b b b b M M S S L L / / _ _ / / Y Y G G b b p p d d l l l l d d p p d d l l d d d d l l b b b b N N b b l l S S F F S S G G G L N N d d < < w w B B B B 0 0 - - p p l l b b B B S S G G S S B B B B S S S S S S L L ....$.$.....) ) ] ] / / L L L L R R ) ) @.@.%.%.) ) / / L L L L _ _ @.@.X.X._ _ _ _ _ _ E E L L _ _ %.%.5.5.",
"c c c c c c c c c c c c j j j j l l j j l l S S D D S S G G F F S S N N S S / / @.@.$.$.@.@.@.@.$.$.,.-.%.%.] ] L L G G L L L L N N N N R R _ _ ........] ] X.X.....$.$.,.,.@.@./ / / / ) ) ....X.X.....] ] ] ] +.+.] ] / / D D L L R R L L / / %.%.5.5.$.$./ / / / E E ) ) ] ] _ _ ) ) _ _ $.$.) ) R R L L S S b b b b b b B B b b l l b b b b b b l l - - d d i i < < ; ; w w B B F F S S L L L L F F N N N N S S F F S S L L S S d d 3 < = & # # & & - - 3 3 - - - - , , w w b b S S B B G G G G G G F F l l 3 3 d d B B F F F F S S S S B B d d d d b b G G G G B B l l b b S S S S B B F F G G L L L L Y Y Y Y L L G G L L D D S S D D I Y Y Y L L D D D D L L G D D D L L ) ) ] ] / / Y Y L L S S C C S S S S S S S S M M M M B M S S S S S S S S S S S S S S S S S S S S S S S S S S S S S S S S S S D D D D D D D D S S S S V S S S Z Z S S D D D D D D D D D D D D D D D D Z Z S Z Z Z Z Z M M C C D D D D D D D D S S D D D D D D D D S S S S S S S S S S Z Z S C S S S S S S M M M M S S S S M M M M S S D D S S B B M M M M S S D D I Y Y Y / / / / Y Y J J J J L L L L L L L L Y Y L L L L L L L L D D L L Y Y L Y L L D D D D D D S S S S M M B B b b j j l l M M b b j j l l l l S S G G L L L L G G B B b b b b M M S S L L / / _ _ / / Y Y G G b b p p d d l l l l d d p d d d l l d d d d l l b b b b N N b b l l S S F F S S G G L L N N d d < < w w B B B B 0 0 - - p p l l b b B B S S G G S S B B B B S S S S S S L L ....$.$.....) ) ] ] / / L L L L R R ) ) @.@.%.%.) ) / / L L L L _ _ @.@.X.X._ _ _ _ _ _ E E L L _ _ %.%.5.5.",
"n n n n n n n n n n n n M M n n S S b b B B / / / / L L / / L L G G S S F F / / ] ] ........#.#.%.%.7.7.w.w.q.q.-.-.#.#.#.#.#.#.] ] ....-.%.-.-.%.%.@.@.....X.X.....#.#.%.%.$.$.%.%.,.,.5.5.X.X....._ _ ) ) _ _ +.+.....' ' @.@.] ] _ _ R R E E %.%.6.6.#.#._ _ E E L L ) ) @.@.] ] ] ] @.@.%.%.] ] R R G G S S b b N N B B L L G G F F F F B B b b d d = = 0 0 b b N N l b d d k k S S F F G G L L F F b b b b B B N N l l F F l l w w d d l l b b b b b b S S l l d d j j b b G G / / ) ) ] ] / / F F B B b b l l b b S S F F G G G G G G F D b b d d b b l l l l d d p p d d b b S S S S S S D D D D D D L L Y Y Y Y L L L L I I L L L L Y Y Y Y L L L L L L Y Y Y Y L L L L Y Y Y Y L L S S S S S S S S S S S S S S S S S S S S D D D D D D D D S S S S S S S S D D D D D D D D D D D D D D J L I I U I I I I I U U D D D D D D S S S S Z Z S S Z Z Z Z P P U U U U U U U U U U D D D D Z Z Z Z Z Z S S D D D D D D D D I I U U I I I I J J D D D D S S D D D D S S S S S S D D S S S S M M S S S S M M M M S S S S M M S S S S M M M M M M S S S S D D D D L J J J D D D D D D D D D D D D S S B B S S S S B B S S L L L L D D S S S S D D S S M M c c c c d d w w w w d d d d w w d d l l S S G G G G G G D D S S S S S S M M l l l l M M G G L L L L L L F F S S S S S S S S S S F F B B S S l l d d p p w w w w d d l l b b b b l l p p d d d d < < = = p p L L ] ] E E p p - - p w b b F F L L L L G G S S G G _ _ L L G G S S L L ....#.@.] ] / / L L F F F F F F F F F F F F L L G G B B l l S S ) ) @.@.@.@.] ] / / ) ) / / E E / / #.#.-.-.",
"n n n n n n n n n n n n M M n b S S b b B B / / / / L L / / L L G G S S F F / / ] ] ........#.#.%.%.7.7.w.w.q.q.-.-.#.#.#.#.#.#.] ] ....-.-.-.-.%.%.@.@.....X.X.....#.#.%.%.$.$.%.%.,.,.5.5.X.X....._ _ ) ) _ _ +.+.] ] ' ' @.@.] ] _ _ R R E E %.%.6.6.#.#._ _ E E L L ) ) @.@.] ] ] ] @.@.%.%.] ] R R G G S S b b N N B N L L G F F F F F B B b b d d = = 0 0 b b N N l l d d k k S S F F G G L L F F b b b b B B N N l l F F l l w w d d l b b b b b b b S S l l d d j j b b G G / / ) ) ] ] / / F F B B b l l l b b S S F F G G G G G G F F b b d d b b l l l l d d p p d d b b S S S S S S D D D D D D L L Y Y Y Y L L L L L I L L L L Y Y Y Y L L L L L L Y Y Y Y L L L L Y Y Y Y L L S S S S S S S S S S S S S S S S S S S S D D D D D D D D S S S S S S S S D D D D D D D D D D D D D D J L I I U I I I I I U U D D D D D D S S S S Z S S S Z Z Z Z P P U U U U U U U U U U J J D D Z Z Z Z Z Z S S D D D D D D D D I I U U I I I I J J D D D D S S D D D D D S S S S S D D S S S S M M S S S S M M M M S S S S M M S S S S M M M M M M S S S S D D D D L L J D D D D D D D D D D D D D S S B B S S S S M M S S L L L L D D S S S S D D S S M M c c c c d d w w w w d d d d w w d d l l S S G G G G G G D D S S S S S S B M l l l l M M G G L L L L L L F F S S S S S S S S S S F F B B S S l l d d p p w w w w d d l l b b b b k l p p d d d d < < = = p p L L ] ] E E p p - - w w b b F F L L L L G G S S G G _ _ L L G G S S L L ....#.#.] ] / / L L F F F F F F F F F F F F L L G G B B l l S S ) ) @.@.@.@.] ] / / ) ) / / E E / / #.#.-.-.",
"S S S D D D D D D D J J Y Y L L G G G G E E _ _ ) ) ) ) _ _ / / L L L L L L / / / / ] ] @.@.] ] ) ) ) ) $.$.5.5.5.5.,.,.-.-.5.5.5.5.7.7.5.5.$.$.@.@.#.#.@.@.........] ] ) ) ] ] ,.,.q.q.7.7.] ] / / R R ) ) ] ] +.+.$.$.%.%.5.5.] ] / / F F S S / / ] ] L L F F S S S S G G E E E E _ _ %.%.@.@.] ] / / G G S S L L _ _ _ _ F F F F G G L L G G S S l l - - 0 0 F F ] ] ) ) b b < < < < 0 0 d d k k l l b b S S S S b b k k w w - - 3 3 b b G G G G D D F F G G S S S S S S G G L L / / / / L L S S l l l l b b S S S S S S S S G G G G F D D F B B l l d d w w p p d d d d d d j j c c B M S S D D D D D D D D D D L L L L S S S S S S S S S S S S S S S S D D S S Z S M M M M S S S S D D C C M M S S S S S S M M M M M M M M S S S S S S S S S S S S B M S S S S D D D D D D D D D D D D D D J J I I U U U U I I P U D D D D D D D D S S Z Z Z Z Z Z D D P P U U U U Y Y Y Y U U U U D D Z Z S S Z Z S S D D D D D D D D U U U I I I I I U U P D D D D D D D S S S S S S S S Z Z Z Z C C C C Z Z M M C C Z Z Z Z M M M M S S S S S S M M M M C C M M M M M M M M M M M M M M M M M M M M C C M M M M M M M M M M S S D D D D S S S S S S S S S S M M c c p p p p p d l l M M c c j j j j S S L L L L D D L L L L S S S S D D D D M M j j p p j j M M S S D D G G F F S S B B B B B B M M B B S S S S b b b b j j d d b c B B F S M M d d p p p p d d d d B B S S E E / / b b = = & & < < b b B B S S S S B B b b S S / / N N N N B B L L _ _ / / S B l l ; ; < < d d b b N N N N S S L L G G l l < < 0 3 d d b b b b b b S S G G E E / / / / ) ) _ ) ",
"S S S S S D D D D D J J I I L L G G G G E E _ _ ) ) ) ) _ _ / / L L L L L L / / / / ] ] @.@.....) ) ) ) $.$.5.5.5.5.,.,.-.-.5.5.5.5.7.7.5.5.$.$.@.@.#.#.@.@.........] ] ) ) ] ] ,.,.q.q.7.7.] ] / / R R ) ) ] ] +.+.$.$.-.%.5.5.] ] / / F F S S / / ] ] L L F F S S S S G G E E E E _ _ %.%.@.@.] ] / / G G S S L L _ _ _ _ F F F F G G L L G G S S l l - - 0 0 F F ] ] ) ) N N < < < < 0 0 d d k k l l b b S S S S b b k k w w - - 3 3 b b G G L L D D F F G G S S S S S S G G L L / / / / L L S S l l l l b b S S S S S S S S G G G G F F F F B B l l d d w w p p d d d d p d j j c c B B S S D D D D D D D D D D L L L L S S S S S S S S S S S S S S S S D D S S Z S M M M M S S D D D D C C M M S S S S S S M M M M M M M M S S S S S S S S S S S S B M S S S S D D D D D D D D D D D D D D J J I I U U U U I I P U D D D D D D D D S S Z Z Z Z Z D D D P P U U U U Y Y Y Y U U P P D D Z Z Z S S Z S S D D D D D D D D U U U I I I I I U U P D D D D D D D S S S S S S S S Z Z Z Z C C C C Z Z M M C C Z Z Z Z M M M M S S S S S S M M M M C C M M M M M M M M M M M M M M M M M M M M C C M M M M M M M M M M S S D D D D S S S S S S S S S S M M c c d d p p p p l l M M c c j j j j S S L L L L D D L L L L S S S S D D D D B B j j p p j j M M S S G D G G F F S S B B B B B B M M B B S S S S b b c c j l d d b c B B S S M M d d p p p p d d d d B B S S E E / / b b = = & & < < b b B B S S S S B B b b S S / / N N N N B B L L _ _ / / S B l l ; ; < < d d b b N N N N S S L L G G l l < < 3 3 d d b b b b b b S S G G E E E E / / ) ) _ ) ",
"E E E E E E E E E E / / / / / / F F L L ) ) E E E E ) ) ) ) E E R R / / _ ) ] ] ] ] %.%.8.8.%.%.L L l l N N / / ............] ] %.%.5.5.$.$./ / / / ] ] ....) ) E E / / ] ] ....@.@.%.%.,.,.-.-.] ] / / ) ) ) ) L L ^ ^ ] ] _ _ S S d l d d d d F F E E F F b B G G G G S S l l p p l l F F / / ] ] _ _ G L S S L R _ _ / / S S S S L L E E Y E G G b b < < # # k k R R ) ) L L B N k l k k l k d d d d N N F F F F N N b b b b l l b b F F G G S S B B S S S S b b S S L L G G F F S S c b d d d d j j c c S S F D D D S S L L ) ) ) ) L L / / / / L L b b b b S S S S S S c c d d l l M M S S D D G G D D S S S S S S D D D D S S M M M M Z Z S S S S C C M M M M M M S S S S S S Z Z S S S D S S M M C C S S S S S S D D S S S S S S B B S S S S S S S S D D D D D D D D D D D D D D D D J J I I I I I I U U I I I I U P P P D D D D D D Z Z D D D D D D D D D P U U Y Y Y Y U U J J Z Z Z Z Z Z D D D D D D D P D D J J U U I I I I I I I I I I I I U U P P D D D D D D S S S S Z Z S S Z Z C C M M M M C C M M Z Z S S M M Z Z S S S S S S S S S S S S S S M M M M M M M M S S M M M M M M M M M M M M M M S S S S D D M M M M M M S S S S B M M M c c c c c c c c S S L L D D S S J J E E ) ) Y Y L L Y Y Y Y S S b b S S S S b b l l c c c c j j w p w w p p d d c c F F Y L Y Y G G B B S S S S b b b b l l c c S S b b b b l l d d l l l l l l F F G G S S S S F F b b p p - - - - 3 3 < < < < d d b b l l d d b b B B B B S S L L R R N N 0 0 - - < < < < 0 0 d d d d d d b b F F L L l l - - = = = = - - < < p p w w w w d d B B F F F F S S ",
"E E E E E E E E E E / / / / / / F F L L ) ) E E E E ) ) ) ) E E R R / / ) ) ] ] ] ] %.%.8.8.%.%.L L l l N N / / ............] ] %.%.5.5.$.$./ / / / ] ] ....) ) E E / / ] ] ....@.@.%.%.,.,.-.-.] ] / / ) ) ) ) L L ^ ^ ] ] _ _ S S k l d d d d F F E E F F b M G G G G S S l l p p l l F F / / ] ] _ _ G G S S L R _ _ / / S S S S L L E E Y Y G G b b < < # # k k R R ) ) L L B N k l k k l k d d d d N N F F F F N N b b b b l l b b F F G G S S B B S S S S b b S S L L G G F F S S c b d d d d j j c c S S D D D D S S L L ) ) ) ) L L / / / / L L b b b b S S S S S S c c d d c l M M S S D D G G D D S S S S S S D D D D S S M M M M Z Z S S S S C C M M M M M M S S S S S S S C Z Z S D S S M M C C S S S S D S D D S S S S S S B M S S S S S S S S D D D D D D D D D D D D D D D D J J I I I I I I I I I I I I P P P P D D D D D D D Z D D D D D D D D D D U U U Y Y Y U U J J Z D Z Z Z Z D D D D P D D D D D D J U U U I I I I I I I U U I I I U P P D D D D D D S S S S Z Z S S Z Z C C M M M M M C M M Z Z S S M M Z Z S S S S S S S S S S S S S S M C M M M M M M S S S M M M M M M M M M M M M M S S S S D D M M M M M M S S S S M M M M c c c c c c c c S S L L G D S S J J E E ) ) Y E L L Y Y Y Y S S b b S S S S b b l l c c c c j j w p w w p p d d c c F F Y L Y Y G G B B S S S S b b b b l l c c S S b b b b l l d d l l l l l l F F G G S S S S F F b b p p - - - - 3 3 < < < < d d b b l l k d b b B B B B S S L L R R N N 0 0 < - < < < < 0 0 d d d d d d b b F F L L b l - - = = = = - ; < < p p w w w w d d B B F F F F S S ",
"E E W W ( ( / / ` ` { { ) ) G G G G L L L L L L L L ) ) X.X.@.@._ _ R R L L R R / / @.@.6.6.5.5.@.@._ _ ] ] $.$.#.#.....] ] ) ) $.$.5.5.,.,.$.$.@.@.%.%.7.7.$.$._ _ / / ] ] #.#.@.@.] ] ] ] L L / / / / L L S S k k u u d d d d ; ; = = 3 3 d d N N G G R R F G b b l l l l 0 0 < < 0 0 3 0 b b F F R R L L B B b b B B F F b b B B b b d d 6 6 3 6 6 6 < < # # p p S S G G F F S S F F F F S S b b k k k k b b b b N N N N B B B B B B B B S S D D D D F F ) ) ] ] E E S S b b j j p p l l w w j j c c c c M M D D D D S S S S L L Y Y L L E E ] ] ] ] / / L L G G G G G G S S S S M M M n S S S S M B S S S S S S S S S S D D D D D D J J U U U U D D D D D D D D D D D D D D D D D D D D D D D D S S S S S S S S S S Z Z S S S S S S S S D D D D D D S S D D D D D D D D D D U U I I I I I I I I I I Y I Y Y Y Y I I U U P P D D D D P P D D D D P P Y I U U U U Y Y U U D D U U Y Y U U D D D D U U D D D D D D D D P P U U I I I I Y I I Y I I I I I I U U J J D D D D D D D D D D D D Z Z Z Z S S S S S S S S S S S S Z Z Z S C C Z Z C C S S S S D D S S S S Z Z Z Z S S S Z Z Z S S S S Z Z Z S S S D S S S S S S Z S S Z C M M M M M M M M M M M M M M M M M M S S S S D D D D D D Y Y Y Y L L L L D D S B n n c c S S M M M M n n c c c c j j p d 6 6 d p j j c c D D / / / / D D b b l l c c S S G G D D D D Y Y G G S S M M b b b b B B L L / / Y Y S S B B L L / / E E b b - - 6 6 w w 3 3 w w l l S S S S l l w w p p k k l l l l d d 3 3 3 3 l l B B S S b b d d d d b b S S B B d d w w d d d d w w < < - - < < - - w w l l l l l l l l ",
"E E W W ( ( / / ` ` { { ) ) G G G G L L L L L L L L ) ) X.X.@.@._ _ R R L L R R / / @.@.6.6.5.5.@.@._ _ ] ] $.$.#.#.....] ] ) _ $.$.5.5.,.,.$.$.@.@.%.-.7.7.$.$._ _ / / ] ] #.#.@.@.] ] ] _ L L / / / / L L S S k k u u d d d d ; ; = ; 3 3 d d N N G G R R F G b b k l l k 0 0 < < 0 w 3 0 b b F F R R L L B B b b B B F F b b B B b b d d 6 6 3 6 6 6 < < # # p p S S G G F F S S F F F F S S b b k k k k b b b b N N N N B B B B B B B B S S D D D D F F ) ) ] ] Y E S S b b j j p p l l w w j j c c c c M M D D D D S S S S L L Y Y Y Y E E ] ] ] ] / / L L G G G G D G S S S S M M M M S S S S M M S S S S S S S S S S D D D D D D J J U U U U D D D D D D D D D D D D D D D D D D D D D D D D S S S S S S S S S S Z Z S S S S S S S S D D D D D D S S D D D D D D D D D D U U I I I I I I I I I I I I Y Y Y Y I I U U P P D D D D P P D D D D P P I I U U U U Y Y U U D D U U Y Y U U D D D D U U D D D D D D D D P P U U I I I I I I I I I I I I I I U U J J D D D D D D D D D D D D Z Z Z Z S S S S S S S S S S Z S Z Z Z S C C Z Z C C S S S S D D S S S S Z Z Z Z S S Z Z Z Z S S S S Z Z Z Z S S S S S S S S Z Z S S C C M M M M M M M M M M M M M M M M M M S S S S D D D D D D Y Y I Y L L L L D D S S n n c c S S M M M M n n c c c c j j p d 6 6 d d j j c c D D / / / / D D b b l l c c S S G G D D D D Y Y G G S S M M b b b b M M L L / / L Y S S B B L L / / E E b b - - 6 6 w w 3 3 w w l l S S S S l l w w p p d d l l l l d d 3 3 3 3 l l B B S S b b d d d d b b S S B B d d w w d d d d w w < < - - < < - - w w k k l l l l l l ",
"{ { #.#.#.#.{ { X.X.#.#.{ { G G G G F F S S S S L L ) ) ....%.%.#.#.X.X.X.X.@.@.X.X.%.%.e.e.y.y.-.-.....@.@.] ] R R L L / / ....] ] _ _ ) ) / / _ _ ] ] X.X.R R B B k k N N G G L L G G S S N N F F S S b b l l d d u u f f p p < < 0 0 p p d d b b F F L L b b d d l l b b l l b b N N k k p p b b S S F F B B b b b b b b S S D D S S l l p p p p p p w w d d F F ) ) / / G G S S L L / / R R F F b b b b S S F F L L L L G G G G G G G G D D B B b b B B _ _ ] ] E E S S B B l l 6 6 w w j j b b M M c c M M S S S S M M j j M M S S D D L L E E Y Y D D D D D D D D S S S S M M M M M M C C M M M M C S S S S S D D D D D D D D D D D D J J D D D D D D D D D D D D D D D D D D D D D D D D D D S S D D S S S S S S Z C S S S S S S S S D D D D D D D D S S S S S S S S D D D D D D D D J J J J U U U U U U I I P P D D P P D D D D D D U U P P U U I I Y Y Y Y Y Y I I I U Y Y ! ! I I I I I I I I U U D D D D D D D D D D J D U U U U U I U U U U J U D D D D D D S S S S S S Z Z Z Z S S S S S S S S S S Z S Z Z Z Z Z Z Z Z M M Z Z Z Z S S S D D D D D D D D D D D D D D D D D D D S S S S Z Z Z Z S S S S Z Z Z Z Z Z M M M M M M M M M M M M M M M M M M M M M M S S S S C C S S D D D D S S S S M M M M c c c c S S M M M M n n n c c c c c c c j j j l j j j j M M D D S S c c n n c c M M D D Y Y E E / / ) ) ) ) Y Y D D D D D D L L / / ) ) Y Y L L D D D D F F B B l l d d w w w w w w p p l l S S B B c c d d d d d d w w & & O O & & < < l l S S F F S S b b b b B B B B b b B B S S F F S S b b d d 3 3 p p d d b b b b l l d d d d ",
"{ { #.#.#.#.{ { X.X.#.#.{ { G G G G F F S S S S L L ) ) ....%.%.#.@.X.X.@.@.@.@.X.X.%.%.e.e.y.y.-.-.....@.@.] ] E E L L / / ....] ] _ _ ) ) / / _ _ ] ] X.X.R R B B k k N N L L R R G G S S B B F F S S b b l l d d u u f f p p < < 0 0 p p d d b b F F L L b b k d l l b b l l b b N N k k p p b b S S F F B B b b b b b b S S D D S S l l p p d p p p w w d d F F ) ) / / G G F S L L / / R R F F b b b b S S G F L L L L G G G G G G G G D D B B b b B B _ _ ] ] E E S S B B l l 6 6 6 6 j j b b M M c c M M S S S S M M j l M M S S D D L L E E Y Y D D D D D D D D S S S S M M M M M M C C M M M M C S S S S S D D D D D D D D D D D D J D D D D D D D D D D D D D D D D D D D D D D D D J D D S S D D S S S S S S Z Z S S S S S S S S D D D D D D D D S S S S S S S S D D D D D D J J J J U U U U U U U U I I U D D D P P D D D D D P U U P P U U I I Y Y Y Y Y Y I I I I Y Y ! ! U U Y I I I I I U U D D D D D D D D D D J D U U U U U I U U U U J U D D D D D D S S S S S S Z Z Z Z S S S S S S S S S S Z Z Z Z Z Z Z Z Z M M M Z Z Z Z S S S D D D D D D D D D D D D D D D D D D D S S S S Z Z Z Z S S S S Z Z Z Z Z Z M M M M M M M M M M M M M M M M M M M M M M S S S S S C S S D D D D S S S S M M M M c c c c S S M M M M n n n c c c c c c c j j j j j j j j M M D D S S c c n n c c M M D D Y Y E E / / ) ) ) ) Y Y D D D F D D L L / / ) ) Y Y L L D D D D F F B B l l d d w w w w w w p p c l S S B B c c d d d d d d w w = & O O & & < < l l S S F F S S b b b b B B B B b b B B S S F F S S b b d d 3 3 p p d d b b b b l l d d d d ",
"<.<.6.6.<.<.>.>.6.6.>.>.] ] L L L L G G S S N N F F L L R R ........] ] ] ] @.@.....%.%.i.i.i.i.#.#.L L / / / / B B k k b b N N b b k k d d d d k k d d 0 0 ; ; 0 0 d d l l S S L L S S b l d d b b N N N N S S b b d d k k v k b b S S S S N N N N S S S S S S S S S S F F F F L L F F l l - - - - p p l l N B B B b b b b F F D D S S b b l l l l l l l l l l F F E E L L G G G G / / _ _ X.X._ _ E E L R E E / / _ _ ] ] _ _ / / / / / / L L B B b b M M M M D D D D B B B B n n c c n n c c M M B M M M B B S S S S S S M M M M S S S S D D L L D D S S D D D D D D D D D D S S S S S S S S S S S S S S D D D D D D S S D D D D D D D D D D D D D D D D D D D D D D D D D D D D D D D D U U D D D D D D D D S S Z Z Z Z S S C C C C S S S S S S S S S S S S S S S S S S D D D D D D D D J J D D D D U D U U D D D D D D D D D D Z Z D D P P U U I I U I Y Y Y Y Y Y Y Y U U Y Y ~ ~ ~ ~ Y Y I I I I J D D D D D S S Z Z D D D D P P U U U U U U P P D D D D D D D D S S S S Z Z M M M M S S Z Z Z Z Z Z Z Z Z Z Z Z C C M M M M M M Z Z Z Z S S D D D D D D D D D D D D D D D D D D D D D D S S S S S S S S S S Z Z C C Z Z M M C C Z Z S S S S S S Z Z S S S S S S S S S S S S S S M M S S S S S S S S S S M M M M M M S S M M M M M M M M M M M M M M M M c c c c n n S S L L J J S S B B S S S S D D L L L L Y L Y Y / / L L S S D D Y Y / / / / / / Y Y L L D D S S l l p p p p j j p p p p w w p p j j l l l l j j d d b b b b d d # #     O O - - b b N N B B b b b b b b b b l l G G L L G G S S l l p p - - & & & & < < l l B B l l k d d d ",
"<.<.6.6.<.<.>.>.6.6.>.>.] ] L L L L G G S S N N F F L L R R ........] ] ] ] @.@.....%.%.i.i.i.i.#.#.L L / / / / B B k k b b N N b b k k d d d d k k d d 0 0 ; ; 0 0 d d l l S S L L S S b b d d b b N N N N S S b b d d d d v v b b S S S S N N N N S S S S S S S S S S F F F F L L F F l l - - - - p p l l N N B B b b b b F F D D S S b b l l l l l l l l l l F F E E L L G G G G / / _ _ X.X._ _ E E L L E E / / _ _ ] ] _ _ / / / / / / L L B B b b M M M M D D D D B M B B n n c c c c c c M M M M M M B B S S S S S S M M M M S S S S D D L L D D S S D D D D D D D D D D S S S S S S S S S S S S S S D D D D D D S S D D D D D D D D D D D D D D D D D D D D D D D D D D D D D D D D U U D D D D D D D D S S Z Z Z Z S S C C C C S S S S S S S S S S C S S S S S S S D D D D D D D D J J D D D D U U U U P P D D D D D D D D Z Z D D P P U U U I U U Y Y Y Y Y Y I Y I U Y Y ~ ~ Y ~ Y Y I Y I I J J D D D D S S Z Z D D D D P U U U U U U U U P D D D D D D D D S S Z S Z Z M M M M S S Z Z Z Z Z Z Z Z Z Z Z Z M C M M M M M M Z Z Z Z S S D D D D D D D D D D D D D D D D D D D D D D S S S S S S S S S S Z Z C M C Z C M C C Z Z S S S S S S Z Z S S S S S S S S S S S S S S M M S S S S S S S S S S M M M M M M S S M M M M M M M M M M M M M M M M c c c c c n S S L L J J S S B B S S S S D D L L L L Y Y Y Y / / L L S S D D Y Y / / / / / / Y Y L L D D S S l l p p p p j j p p p p w w p p j j l l l l j j d d b b b b d d & &     O O - - b b N N B B b b b b b b b b l l G G L L G G S S l l p p - - & & & & < < l l S B b b k d d d ",
"*.*.#.#.X.X.X.X.@.@._ _ G G S S L L L L G G F F F F G G G G E E L R F F G G E E / / @.@.u.u.s.s.,.,._ _ ] ] ) ) S S k k k k l b N N b b d d < < - - - - ; ; > > b b G G F F S S F F N N d d 0 0 k k N N H H L L S S u u > > u u N N L L L L R R ^ ^ / ^ ^ ^ L L F F F F F F H H G G S S k k = = O O X X = = l l S S S S b b b b b b b b l l l l l l l l d d d d l l b b B B F F L L / / ) ) ] ] _ _ _ _ / / L L G G E E _ _ ) ) / / / / E E L L G G G G G G G G E E / / Y Y D D M M S S D D M M S S S S S S D D D D D D D D D D D D D D D D L L L L L L I I D D D D D D J D L L L I I I I I I I I I I I U U U U U U D D D D D D D D D D D D D D D D D D D D U U U U I I I I U U I I U U J J U U P P D D D D D D D D S S S S S S S S S S S S S S D D D D S S D D D D D D D D J J J J J D D D D J D D D D U U I I I I U U P P D D D D D D D D U U U U Y Y Y Y I I Y Y Y Y Y Y Y Y Y L Y Y / / ~ Y I I L L D D D D D D D D D D J J U U I I I I U I U U D D D D D D D D D D D D D D D D D D D D S S S S S S S S D D S S S S S S Z Z Z Z Z Z S S S S D D D D D D D D D D D D D D D D D D D D D D D D D D D D D D D D D D D D D D D D D D D D D D D D D D D D D D D D D D D D D D D D S S S S Z Z D D D D D D D D D D D D D D D D S S S S S S Z Z M M M M C C S S S S M M n n C S D D L L L L L L Y Y / / ) ) E E L L L L L L L L Y Y D D S S D D L L Y Y G G S S D D S S M B M M c c j j d d d d j j p p d d j j j j j j j j l l d d b N F F b b 3 0 = = < < l l F F S S b b l l d d p w w w p p B B S S b b k d w w - - - - = =     O O - - p p p p k k b b ",
"*.*.#.#.X.X.X.X.@.@._ _ G G S S L G L L G G F F F F G G G G E E L R F F L L E E / / @.@.u.u.s.s.,.,._ _ ] ] ) ) S S k k k k l b N N b b d d < < - - - - ; ; > > b b G G F F S S F F N N d d 0 0 k k N N H H L L S S u u > > u u N N L L L L R R ^ ^ ^ ^ ^ ^ L L F F F F F F H H H G S S k k = = O O O X = = l l S S S S b b b b b b b b l l l l l l l l d d d d l l b b B B F F L L / / ) ) ] ] _ _ _ _ / / L L G G E E _ _ ) ) / / / / E E L L G G G G G G G G E E / / Y Y D D M M S S D D M M S S S S S S D S D D D D D D J D D D D D D D L L L L L I I I D D D D D D D D L L L L I I I I I I I I I U U U U U U U D D D D D D D D D D D D D D D D D D D D U U U U I I I I I I I I U U J J U U P P D D D D D D D D S S S S S S S S S S S S S S D D D D S S D D D D D D D D J J J J J J D D D J J J D D U U I I I I U U U U D D D D D D D D U U U U Y Y Y Y I I Y Y Y Y Y Y Y Y L L Y Y / / Y Y I I L L D D D D D D D D D D J L U U I I I I U I U U D J D D D D D D D D D D D D D D D D D D S S S S S S S D D D S S S S S S Z Z Z Z Z Z S S S S D D D D D D D D D D D D D D D D D D D D D D D D D D D D D D D D D D D D S S D D D D D D D D D D D D D D D D D D D D D D D D D D S S S S Z Z D D D D D D D D D D D D D D D D S S S S S S Z Z M M C C S S S S S S M M n n S S D D L L L L L L Y Y / / ) ) Y E L L L L L L L L Y Y D D S S D D L L Y Y G G S S D D S S M B M M c c j j d d d d j j p p d d j j j j j j j j l l d d N N F F b b 3 3 = = < < l l S F S S b b l l d d p w w w p p B B B B b b k d w w - - - - = =     O O - - p p p p k k b b ",
"Y Y Y Y L Y L L S S S S D D L L L L R R L L F F S S F F L L ) ) E E L L R R ) ) ) ) @.@.q.q.q.q.7.7.0.0.0.0.-.-.] ] _ _ X.X.L L R R G G k k - - < < d d k k k k S S F F N N b b F F F F N N A A S S S S A S S S v v ; & O O & & p u k k b b S S G G H H H H S S v v d d l l S S S S A A S S b b 3 3 & & - - b b G G G G S S M M N B M M b b b b c l l c j j b b c c b b B B F F L L L L L L L L E E / / / / Y Y L L L L / / E E / / / / L L / / ] ] @.@.X.X.) ) ) ) / / Y Y D D S S D D D D D D J J J J D D D D U U I I J J I I U U U U Y Y Y Y Y Y I I Y Y D D D D D D L L I I Y Y Y Y Y Y Y Y Y Y Y Y Y Y Y Y Y T Y Y Y Y Y Y Y Y I I I I I I I I I I I I Y Y Y Y Y Y Y Y Y Y Y Y Y Y Y Y Y Y I I I I U U I I I I I I U U Y I I I J J I I I I I I I I I I I I L L L I I I I I I L L L I I D D D D D D J J I I I I I I I I Y I I Y I I I L D D D D L L I I D D I I I Y / / _ _ / / L Y Y Y Y Y L L D D S S D D L L I I I I L L I L L I I I L L D J D D D D D D D D D D I I I I J J J U I I L D D D I I I I I I I I I I I I U U U U U U U U P P P P D D D P U U I I I I I I Y Y I I I I I I I I U U P P J J J J J J J J J J I Y I I I I Y I I I I I I I U U U U D J D D D D S S S S Z Z M M M M Z Z S S S S D D D D D D D D D D D D D D D D Z Z C C S S S S S S M M M M M M S S M M c c c c Y Y ) ) _ _ Y Y D D D D I I Y Y L L D D D D J J I I D D B B c c c c l l l l b b M M c c c c l l c c c c c c b b c c l l c c M M j j l l b b b b l l l l B B G G L L G G S S b b d d 3 3 w w d d S S N N b b S S B B p p = = = = X X     X X X X O O = = p p ",
"Y Y Y Y L L L L S S S S D D L L L L L R L L F F S S F F L L ) ) E E L L R R ) ) ) ) @.@.q.q.q.q.8.7.0.0.0.0.-.-.] ] _ _ X.X.L L R R G G k k - - < < d d k k k k S S F F N N b b F F F F N N A A S S S S A A S S v v ; ; O O & & u u k k b b S S G G H H H H S S v v d d l l S S S S A A S S b b < < & & - - b b G G G G S S M M M B M M b b b b c c l c j j b b c c c c B B F F L L L L L L L Y E E / / / / Y Y L L L L / / E E / / / / L L / / ] ] @.@.X.X.) ) ) ) / / Y Y D D S S D D D D D D U J U U D D D D U U I I U U I I U U U U Y Y Y Y Y Y I I Y Y D D D D D D L L I I Y Y Y Y Y Y Y Y Y Y Y Y Y Y Y Y Y Y Y Y Y Y Y Y Y Y I I I I I I I I I I I I Y Y Y Y Y Y Y Y Y Y Y Y Y Y Y Y Y Y I I I I U U I I I I I I U U I I I I J J I I I I I I I I I I L I L L I I I I I I I L L L I I D D D D D D D D I I I I I I I I Y I Y Y I I I L D D D D L L I I D D I I I Y / / _ _ ( / L Y Y Y Y Y L L D D S S D D L L I I I I L L I L L I I I L L D D D D D D D D D D D D I I I I J J J I I I L D D D I I I I I I I I I I I I U U U U U U U U P P P P D D D P U U I I I I I I Y Y I I I I I I I I U U P P J J J J J J J J J J I I I I I I Y I I I Y I I I U U U U D D D D D D S S S S Z Z M M M M Z Z S S S S D D D D D D P P D D D D D D D D Z Z C C S S S S S S M M M M M M S S M M c c n c Y Y ) ) _ _ Y Y D D D D L L Y Y L L D D D D J L I I D D B B c c c c l l l l b b M M c c c c l l c c c c c c b b c c l l c c M M j j l l b b b b l l l l B B G G L L G G S S b b d d 3 3 w w d d S S N N b b S S B B p p = = = = X X     X X X X O O = = p p ",
"B B B B S S Y Y L L L L / / E E L L L L L L L L L L ) ) ....@.#.....@.@.%.%.%.%.@.@.$.$.-.-.....$.$.,.,.5.5.%.%.X.X.] ] ...._ _ ) ) R R N N k k k k b b b b b b N N v v k k N N R R / / L L R R F F k k < < > > & & o o o . & & - - > - < < b b S S S S F F N b f f < < f f S S F F H H / / / / S S k d b b G G L L S S M M B B B B B B B B B B S S S S S S S S S S B B B B B B B B S S D D G G F F G G E E ) ) ) ) / / Y L E E / / / / G G E E X.X.#.#.X.X.Y Y S S M M S S D D J J L L D D U U U U U U I I I I I Y Y Y Y Y Y Y Y Y T T / / / / I I D D D D D D D D D D D D I I I I Y Y Y Y Y Y Y Y ~ ~ / ( ( ( _ _ ( ( ( ( / / / / ~ ~ Y Y Y Y Y ~ ~ ~ Y Y ~ ~ ~ ~ ~ ~ / / / / / / ~ ~ ~ ~ ~ ~ ~ ~ Y Y Y Y T T ~ ~ ~ ~ ~ ~ / / ~ ~ Y Y Y Y Y Y Y Y Y Y Y Y Y Y L L Y Y Y Y I Y I I L L D D D D D D D D D D D D U U U U U U D D D D D D S S n n M M S S D D Y Y Y Y L L ) ) #.#.@.@.! ! L L Y L L L S S M M M M B B S S D D D D D D D D D D D D D D D D S D S S S S D D D D L L J J J L L L L L I I I I Y Y Y Y Y Y Y Y Y Y Y Y Y Y Y Y Y Y Y Y Y Y Y Y Y Y Y Y Y Y Y Y ~ ~ ~ ~ ~ ~ Y Y Y Y Y Y I I U U I I I I I I I I I I Y Y Y Y Y Y Y Y Y Y Y Y I I I I U U D D D D D D D S S S Z Z M M n n M M M M Z Z S S D D P D P P P P D D D D D D S S C Z M M M M S S M M M M C C S S M M n n n n S S D D L L S S n n M M S S D D M M M M S S D D D D S S M M n n l l c c c c c c j j p p d d l l S S S S S S M M c c l l l l c c l l d d l l b b b b b b b b b b S S S S B B B B b b l l b b F F / / S S b b F F S S d d - - = = & & # # & & 3 3 w w 3 3 3 3 ",
"B B B B S S Y Y L L L L / / E E L L L L L L L L L L ) ) ....@.@.....@.@.%.%.%.%.@.@.$.$.-.-.....$.$.,.,.5.5.%.%.X.X.] ] ...._ _ ) ) R R N N k k k k b b b b b b N N v v k k N N R R / / L L R R F F k k < < > > & & o o o . & & - - > > < < b b S S S S F F N b f f < < f f S S F F H H / / / / S S k k b b F G L L S S M M B B B B B B B B B B S S S S S S S S S S B B B B B B B B S S D D G G F F G G E E ) ) ) ) / / Y L E E / / / / G G E E X.X.#.$.X.X.Y Y S S M M S S D D J J L L D D U U U U U U I I I I I I Y Y Y Y Y Y Y Y T T ( / / / I I D D S D D D D D D D D D I I I I Y Y Y Y Y Y Y Y ~ ~ / / ( ( _ _ ( ( ( ( / / / / ~ ~ ~ ~ Y Y ~ ~ ~ ~ Y Y ~ ~ ~ / ~ ~ / / / / / / ~ / ~ ~ ~ ~ ~ Y Y Y Y Y T T ~ ~ ~ ~ ~ ~ / / ~ ~ Y Y Y Y Y Y Y Y Y Y Y Y Y Y L L Y Y Y Y I I I I L L D D D D D D D D D D D D U U U U U U D D D D D D S S n n M M S S D D Y Y Y Y L L ) ) #.#.@.@.! ! L L Y Y J L S S M M M M M B S S D D D D D D D D D D D D D D D D S D S S S S D D D D L L L J J J L L L J I I I I Y Y Y Y Y Y Y Y Y Y Y Y Y Y Y Y Y Y Y Y Y Y Y Y Y Y Y Y Y Y Y Y ~ ~ ~ ~ ~ ~ Y Y Y Y Y Y I I I I I I I I I I I I I I Y Y Y Y Y Y Y Y Y Y Y Y I I I I J J D D D D D D S S S S Z Z M M n n M M M M Z Z S S D D D D P P D P D D D D D D S S C Z M M M M S S M M M M C C S S M M n n n n S S D D L L S S n n M M S S D D M M M M S S D D D D S S M M M n c c c c c c c c j j p p d d c c S S S S S S M M c c j l l l c c j l k k l l b b b b b b b b b b S S S S B B B B b b l l b b F F / / S S b b F F S S d d ; - = = & & # # & & 3 3 w w 3 3 3 3 ",
"Y Y D D L L ] ] | | ) ) / / G G F F F F R R _ _ @.@.,.,.9.9.@.@.....$.$.-.-.@.@.] ] ] ] ) ) / / / / ) ) ) ) E E S S k k 0 0 b b S S S S b b b b b b d d ; ; N N N N b b k v N N S S A S b b S S b b 0 0 & & ; ; & & O O O O = = 3 3 0 0 b b / / ) ) ^ ^ ) ) / / H H b b b b H H G G L L ) ) L L S S B B S S F F S S b b b b b b b b l l c c M M S S D D D D G G S S c c c c b b M M S S D D S S M M S S J L Y Y Y Y L L D D G G L L G G B B S S L L E E L L / / D D S S L L L L I I L L S S D D D D D D U U I I Y Y Y Y ~ ~ ~ ~ / / / / ~ ~ Y Y I I D D Z Z S S D D D D L L I I Y Y Y Y Y Y T Y ~ ~ / / ( ( _ _ [ [ [ [ _ _ ( ( ( ( / / ~ ~ ~ / / / / / ~ ~ / / / / ( ( ( ( ( ( _ _ _ _ _ ( ( ( / / ~ ~ ( ( ( ( ( ( ( ( ( ( / / / / ~ ~ Y Y Y Y Y Y Y Y Y Y Y Y Y Y Y Y Y Y I I I I J J D D D D D D D D D D D D D D D D D D M M S S B B n n c c S S G G L L ] ] ] ] ) ) ) ) @.@.] ] / / / / ) ) / / Y Y D D S S M M M M M M S S D D D D D D D D D D S S S S S S S S D D D D D D D D D D D D D D L L J J I L I I Y Y I Y Y Y Y Y T Y Y Y / / ~ ~ T T Y Y Y Y Y Y Y Y T T ~ ~ / / / ~ ~ ~ ~ ~ Y Y I I I I I I I I I Y Y Y Y I Y Y Y Y Y Y Y Y Y Y Y Y Y Y I I I I U U D D D D D D D D S S Z Z M M M M Z Z S S D D D D D D S S S S D D D D S S S S C C M M M M M M M M M M C C S S D D L L D D S S D D D D S S M M C C S S S S n n c c n n M M S S S S M M S S B B M M M M c c j j p p d d c c D S G G D D S S M M M M B B M M S S S S S S F F F F S S b b b b B B l l l l b b l l l l B B L L R E b b p p d d l l l l d d l l l l d d N N / / / / G G S S ",
"Y L D D L L ] ] | | ) ) / / G G F F F F R R ' ' @.@.,.,.9.9.@.@.....$.$.-.-.@.@.] ] ] ] ) ) / / / / ) ) ) ) E E S S k k 0 0 b b S S S S b b b b b b d d ; ; N N N N b b k v N N S S S S b b S S b b 0 0 & & ; ; & & O O O O = = 3 3 0 0 b b / / ) ) ^ ^ ) ) / / H G b b b b H H G G L L ) ) L L S S B B S S F F S S b b b b b b b b l l c c M M S S D D D D G G S S c c c c b b M b S S D D S S M M S S L L Y Y Y Y L L D D G G L L G G B B S S L L E E L L / / D D S S L L L L I I L L S S D D D D D D U U I I Y Y Y Y ~ ~ ~ ~ / / / / ~ ~ Y Y I I D D Z Z S S D D D D L L I I Y Y Y Y Y Y T Y ~ ~ / / ( ( _ [ [ [ [ [ _ _ ( ( ( ( / / ~ ~ / / / / / / ~ ~ / / / / ( ( ( ( ( ( _ _ _ _ _ _ ( ( / / ~ / / / ( ( ( ( ( ( ( ( / / / / ~ ~ Y Y Y Y Y Y Y Y Y Y I I Y Y Y Y Y Y I I I I J J D D D D D D D D D D D D D D D D D D M M S S B B n n c c S S G J L L ] ] ] ] ) ) ) ) @.@.] ] ! ! / / ) ) / / Y Y D D S S M M M M M M S S D D D D D D D D D D S S S S S S S S D D D D D D D D D D D D D D J L J J L L I I Y Y I I Y Y Y Y T T Y Y / ~ ~ ~ T T Y Y Y Y Y Y Y Y T T ~ ~ / / / / ~ ~ ~ ~ Y Y I I I I U I I I Y Y Y Y Y Y Y Y Y Y Y Y Y Y Y Y Y Y Y Y I I I I U U D D D D D D D D S S Z Z M M M M Z Z S S D D D D D D D S S S D D D D S S S S C C M M M M M M M M M M C C S S D D J L D D S S D D D D S S M M C C S S S S n n c c n n M M S S S S M M S S M M M M M M c c j j p p d d c c D S G G D D S S M M B M B B M M S S S S S S F F F F S S b b b b B B l l l l b b l l l l B B L L E E b b p p d d l l l l d d l l l l d d B N / / / / G G S S ",
"#.#.X.X.| | #.#.@.@._ _ _ _ ] ] ] ] ........$.$.%.%.$.$.@.@.) ) R R ] _ ] ] L L L L / / F F F F G G L L R R F F k k 3 3 < < k k S S H H G G L L L L B B d d 0 0 w w w w w w 0 0 0 0 0 0 d d l l b b v v N N H H S S v v u u < < d d v v S S ' ' R R N N A S +.+.] ] L L S S H H F F S S G G G G F F G G L L L L F F G G Y Y L L G G S S S S S S G G Y Y / / / / S S j j j j M M S S D D D D S S D D Y Y Y Y L L S S D D J J S S G G G G D D D D L L Y Y L L L L D D Y Y / / I I I I Y Y U U U P D D D D J U U U U U I I I I Y Y Y Y I I D D D D I I I I D D D D D D L L Y Y Y Y Y Y Y ~ Y Y / / / / / ( ( ( _ _ _ _ ( ( ( ( _ ( ( ( ~ ~ ~ ~ ~ ~ / / ~ ~ ~ ~ ( ( ( ( _ _ _ _ ( ( _ [ _ _ _ _ ( ( ( ( / / ( ( ( ( ( _ _ _ ( ( ( ( / / ~ ~ Y Y Y Y Y Y Y Y Y Y I I Y Y Y Y Y Y Y Y Y Y L L L L D D D D D D D D D D D D D D D D S S S S S S S S D D / / ] ] | | %.%.-.-.| | / / / / L L ! ! $.$.-.-.%.%.#.#._ _ E E G G S S S S S S S S S D D D D D D D D D D D S S D D D D J L I I I I L L J J L L J J L L I I I I I I I I I I Y Y Y Y Y Y Y Y Y Y Y Y Y Y Y Y Y Y Y Y Y Y ~ ~ ~ ~ ~ ~ ~ ~ Y Y Y Y Y Y I I U U U U I I I I U U Y Y Y Y Y Y Y Y Y Y Y Y Y Y I I U U P P D D D D D D D D D D Z Z D D D D D D D D D D S S M M M M M M Z Z S S S S Z Z M M M M M M n n M M M M M M M M S S D D S S S S Z Z M M S S S S S S S S Z Z S S S S M M S Z S S Z Z S S S S S S B B M M S S S S S S S S S S S S L L Y Y L L L L / / _ ) ) ) ] ] / / / / Y Y L L Y Y / / ) ) G G b b d d d d w w w w c c G G / / S S d d w 0 d d l l b b b b N N d d b b L L L L S S F F ",
"#.#.X.X.| | #.#.@.@._ _ _ _ ] ] ] ] ........$.$.%.%.$.$.@.@.) ) R R ] ] ] ] L L L L / / F F F F G G L L R R F F k k 3 < < < k v S S H H L G L L G G N S d d 0 0 w w w w d w 0 0 0 0 0 0 d d l l b b v v N N H H S S v v u u < < d d v v S S ' ' R R N N S S +.+.] ] L L S S H H F F S S G G G G F F G G L L L L F F G G E Y L L G G S S S S S S G G L Y / / / / S S j j j j M M S S D D D D S S D D Y Y Y Y L L S S D D J J S S G G G G D D D D L L Y Y Y Y L L D D Y Y / / I I I I Y Y U U U U D D D D J U U U U U I I I I Y Y Y Y I I D D D D U I I I D D D D D J L L Y Y Y Y Y Y ~ ~ Y Y / / / / ( ( ( ( _ _ _ _ ( ( ( ( _ _ ( ( ~ ~ ~ ~ ~ ~ ~ / ~ ~ ~ ~ ( ( ( ( _ _ _ _ ( ( ( [ _ _ _ _ ( ( ( ( / / ( ( ( ( ( ( _ _ ( ( ( ( / / Y Y Y Y Y Y Y Y Y Y Y Y Y Y Y Y Y Y Y Y Y Y Y Y L L L J D J D D D D D D D D D D D D D D S S S S S S S S D D / / ] ] | | %.%.-.-.| | / / / / L L Y Y $.$.-.-.%.%.#.#._ _ E E G G S S S S S S S S D D D D D D D D D D D D S S D D D D L L I I I I I L J J L L J J L L I I I I I I I I I I Y Y Y Y Y Y Y Y Y Y Y Y Y Y Y Y Y Y Y Y Y Y ~ ~ ~ ~ ~ ~ T T Y Y Y Y Y Y I I U U U U I I I I U U Y Y Y Y Y Y Y Y Y Y Y Y Y Y I I U U P P D D D D D D D D S D Z Z D D D D D D D D D D S S M M M M M M Z Z S S S S Z Z M M M M M M n n M M M M M M M M S S D D S S S S Z Z M M S S S S S S S S Z Z S S C S M M S S S S S Z Z Z S S S S B B M M S S S S S S S S S B S S L L Y Y L L L L / / _ ) ) ) ] ] / / E E Y Y L L Y Y / / / ) G G b b d d d d w w w w c c G G / / S S d d w 0 d d l l b b b b N N d d b b L L L L S S F F ",
":.>.X.X.] ] %.%.#.#._ _ ] ] $.$...........] ^ ^ K K S S F F S S H H ^ ^ F F b b N N S A G G N N F F N N N N L L F F S S S S R R ' ' @.@.=.=.$.$.@.@.+.+.@.@.) ) S S k k w w 0 0 w w l l b b L R ] ] ) ) ^ ^ ....$.$.) ) S S H H L L G G F F S S 3 < > > b b @.@.] ] L L b b b b b b v v b b F F / / ] ] ] ] ) ) ) ) _ _ _ _ ] ] ....X.X.....) ) / / / / / / ) ) Y I S S D D I I Y Y Y Y I I I I L I I I I I I I I I I I J J J J L J I I I I Y Y Y I I I I I I I Y Y Y Y I I J J D D J J I I I I I I J U U U J J J J J J U U U U D D D D J J I I Y Y Y Y ~ ~ Y Y Y Y Y Y I I I I I I Y Y ~ ~ / / / / ( ( ( ( ( ( ( ( ( ( / / / / ~ ~ T T Y Y Y Y Y Y / / ( ( ( ( _ _ _ _ _ _ } } } } _ _ ( ( ( ( / / ~ ~ ~ ~ ~ ~ / / Y Y Y Y Y Y Y Y Y Y I U U U I I Y Y Y Y I I I Y L L L L I I Y Y Y Y I I L L L L L L L L S S S S S S C C F F Y Y _ _ _ _ | | %.%.%.%.] _ @.@.$.$.] ] ) / _ _ ) ) / / _ _ $.$.X.X.] ] X.X.#.#.| | / / / / / / L L S S c c M M L L L L D D S S I I Y Y Y Y I I Y Y I I D D D D D D D D D D L L L L D D S S I I I I D D U U I I Y Y I I I I Y Y Y Y Y Y Y Y ~ ~ / / Y Y Y Y Y Y Y Y Y I I I U U U U U U I I P P D D U U I I I I I I I I I I U U U P D D D D D D S S Z Z M M Z Z D D U U I I I I D D S S Z Z Z Z M M M M M M Z Z Z Z Z Z Z Z Z Z Z Z Z Z Z Z Z Z Z Z Z Z M M S S Z Z S S D D D D D D D D D D C C Z Z S S S S S S S S Z Z Z Z S S S S S S S S S S S S D D D D I I / / / / Y Y Y Y _ _  . .@.@._ _ ] ] _ _ / / L L D D D D G G D D n n j j l j j j p p p p l l S S G G L L L L G G G G L L E E _ _ L L N N b b N N B B N N ",
":.:.X.X.] ] %.%.#.#._ _ ] ] $.$.........] ] ^ ^ K K S S F F S S H H ^ ^ F F b b N N S S G G N N F F N N N N L L F F S S S S R R ' ' @.@.=.=.$.$.@.@.+.+.@.@.) ) S S k k w w 0 0 w w l l b b L R ] ] ) ) ^ ^ ....$.$.) ) S S H H L L G G F F S S 3 3 > > b b @.@.] ] L L b b b b v b v v b b F F / / ] ] ] ] ) ) ) ) _ _ _ _ ] ] ....X.X.....) ) / / / / / / _ ) Y Y S S D D I I Y Y Y Y I I I I L I I I I I I I I I I I J J J J L L I I I I Y Y Y Y I I I I I I Y Y Y Y I I J J D D D D I I I I I I J J J U J J J J J J U U U U D D D D J J I I Y Y Y Y ~ ~ Y Y Y Y Y Y I I I I I I Y Y ~ ~ / / / / ( / ( ( ( ( ( ( ( ( ( / / / ~ ~ T T Y Y Y Y Y Y / / ( ( ( ( _ _ _ _ _ _ } } } } _ _ ( ( ( ( ( / ~ ~ ~ ~ ~ ~ / / Y Y Y Y Y Y Y Y Y Y I I U U I I Y Y Y Y I I Y Y L L L L I I Y Y Y Y I I L L L L L I L L S S S S S S C C F F Y Y _ _ _ _ | | %.%.%.%.] ] @.@.$.$.] ] / / _ _ ) ) / / _ _ $.$.X.X.] ] X.X.#.#.| | / / / / / / L L S S c c M M L L L L D D S S I I Y Y Y Y Y Y I I I I D D D D D D D D D D L L L I D D S S I I I I D D U U I I Y Y I I I I Y Y Y Y Y Y Y Y ~ ~ / / Y Y Y Y Y Y Y Y Y I I I U U U U U U I I P P D D U U I I I I I I I I I I U U D D D D D D D D S S Z Z M M Z Z D D P J U I I I D D S S Z Z Z M M M M M M M Z Z Z Z M M Z Z Z Z Z Z Z Z Z Z Z Z Z Z Z Z M M S S Z Z S S D D D D D D D D D D C C Z Z S Z S S S S S S Z Z Z Z S S S S S S S S S S S S D D D D I I / / / / Y Y Y Y _ _  . .@.@._ _ ] ] _ _ / / L L D D D D G G D D n n j j j j j j p p p p j j S S G G L L L L G G G G L L E E _ _ L L N N b b N N B B N N ",
"@.@._ _ ] ] -.-.%.%.X.X.@.@.....] ] ) ) F F v v N N L L ^ ^ ) ) R R L L A A v v p p < < 3 3 < < > > ; ; d d S S S S F F / / ....+.+.@.@.$.$.@.@.] ] _ _ _ _ _ _ ] ] R L N N B B S S B B b b S S L L L L L L / / L L A A A N L L ' ' / / L L L L H H L L ] ] ' ' ) ) S S f f f f k v v v S S R R ) ) ] ] _ _ / / _ _ X.X.%.%.X.X.%.%.-.-.=.=.#.#.X.X.] ] ] ] @.@.] ` / / Y Y / / / / Y Y Y Y Y Y Y Y Y Y Y Y Y Y Y Y Y Y I Y I I Y Y Y Y Y Y Y Y Y Y Y Y Y Y Y Y Y Y Y Y I Y I I U U I I I Y Y Y I I I I I I I I I I I I I I I I I I I I Y Y / / ) ) _ _ _ _ Y Y Y Y Y Y L L I I Y Y / / / ( ( ( ( ( ( ( ( ( / / ( ( ( ( ( ( / / / / ~ ~ ~ ~ ~ ~ / / ( ( ( ( ( ( ( ( ( ( ( ( [ [ ( ( ( ( ( ( ( ( ( ( / / / / / / ~ ~ Y Y I I U U I I U U D D D D D D P P D D D D D D D D I I Y Y / / / / / / Y Y L L Y Y Y Y L L D D F F S S / / ) ) _ _ ) ) L L ) ) ) ) L L H H G G S S G G ) ) ) ) L L G G G G G G F F L L / / / / / / _ _ _ _ / / L L B B M M S S D D D D I I Y Y I I Y Y Y Y ~ ~ Y Y I I D D D D D D D D L L L L D J D D D D S S S S D D U U Y Y Y Y Y Y Y Y Y Y Y Y Y Y ~ ~ / / / / Y Y Y Y Y Y Y Y I I I I I I I I I I Y Y Y Y Y Y Y Y Y Y Y Y Y Y Y Y Y Y Y Y Y Y I I U U D D D D S S D D U U Y Y Y Y Y Y Y Y I I P P D D D D D D D D D D D D D D D D D D D D D D D D D D D D D D D D D D D D J J I I I I I I I I J J D D D D D D D D D D D D D D D D D D D D D D S S S S S S S S S S D D Y Y Y Y J J L L Y Y _ _ ] ] E E Y Y L L S S M M c l c c c c S S M M M M F F S S c c c c M M Y Y L L G G E E ] ] $.$.#.@.] ] @.@._ _ L L G G F F F F F F ",
"@.@._ _ ] ] -.-.%.%.X.X.@.@.....] ] ) ) F F v v N N L L ^ ^ ) ) R R L L A A v v p p < < 0 3 < < > > ; ; d d S S S S F F / / ....@.+.@.@.$.$.@.@.] ] _ _ _ _ _ _ ] ] R L N N B B S S B B b b S S L L L L L L / / L L A A A N L L ' ' / / L L L L H H L L ] ] ' ' ) ) S S f f f f k k v v S S R R ) ) ] ] _ _ / / _ _ X.X.%.%.@.X.%.%.-.-.=.-.#.#.X.X.] ] ] ] @.@.] ] / / Y Y / / / / Y Y Y Y Y Y Y Y Y Y Y Y Y Y Y Y Y Y I Y I I Y Y Y Y Y Y Y Y Y Y Y Y Y Y Y Y Y Y Y Y I I I I U U I I Y Y Y Y I I I I I I I I I I I I I I I I I I I I Y Y / / ) ) _ _ _ _ Y Y Y Y Y Y L L I I Y Y / / ( ( ( ( ( ( ( ( ( ( / ( / ( ( ( ( ( / / / / ~ ~ ~ ~ ~ ~ / / ( ( ( ( ( ( ( ( ( ( ( ( [ [ ( _ ( ( ( ( ( ( ( ( / ( / / / / Y ~ Y Y I I U U I I U U D D D D D D D P D D D D D D D D I I Y Y / / / / / / Y Y L L Y Y Y Y L L D D F F S S / / ) ) _ _ ) ) L L ) ) ) ) L L H H G G F S G G ) ) ) ) L L G G G G G G F F L L / / / / / / _ _ _ _ / / L L B B M M S S D D D D I I Y Y I I I Y Y Y ~ ~ Y Y I I D D D D D D D D L L L L D D D D D D S S S S D D U U Y Y Y Y Y Y Y Y Y Y Y Y Y Y ~ ~ ~ / / / Y Y Y Y Y Y Y Y Y Y I I I I I I I I Y Y Y Y Y Y Y Y Y Y Y Y Y Y Y Y Y Y Y Y Y Y I I U U D D D D S S D D U U Y Y Y Y Y Y Y Y I I P P D D D D D D D D D D D D D D D D D D D D D D D D D D D D D D D D D D D D J J I I I I I I I I U J D D D D D D D D D D D D D D D D D D D D D D S S S S S S S S S S D D Y Y Y Y L J L L Y Y _ _ ] ] E E Y Y L L S S M M l l c c c c S S M M B M F F S S c c c c M M Y Y L L G G E E ] ] $.$.#.#.] ] @.@._ _ L L G G F F F F F F ",
"/ / ] ] %.%.-.-.#.#.$.$.-.-.$.$.%.%.,.,.@.@.) ) ' ' $.$.%.%.3.3.@.@.] ] L L A A f f 3 3 k d d d ; ; @ @ ; ; k k k k k k b b H H F F S S S S A A b b b b N N k k N N N N B B G G S S l l l l l l F F R R / / / / L L L L ^ R ] ] %.%.$.$.+.+.=.=.-.-.@.@.....) ) ' ' ^ ^ S S A A F F G G L L G G L L L J G G S S S S E E ] ] ] ] #.#.%.%.=.=.#.#.| | ] ] ` ` | | ) ) / / Y Y Y Y Y Y Y Y Y Y / / ~ ~ / ~ ~ ~ ~ ~ Y T T T Y Y / / ~ ~ / / ( ( _ _ _ _ _ _ _ _ ( ( / / / ~ ~ ~ Y Y Y Y Y Y ~ ~ ~ ~ ~ ~ ~ ~ / / / / / / / / / / / / / / / / _ _ | | | | | | | | _ _ ) ) / / / / / / ( ( | | | | | | | } } } [ [ _ _ _ _ _ _ } } _ _ _ _ [ [ ( ( [ [ _ _ } } } } } } [ [ [ [ _ _ } } } } _ _ _ _ [ [ ( _ _ ( ( ( ( ( ~ ~ Y Y U U P P P P U U Y Y Y Y Y Y Y Y Y Y Y Y I I Y Y / ( ` ` ) ) ) ) ) ) ) ) / / / / / / Y Y L L L L Y Y _ _ ) ) / / L L S S H H L L L L G G L L L L / / _ _ _ _ / / ^ ^ L L L L G G L L L L S S B B D D S S G G L L E E Y Y L L L L Y Y / / / / / / ) ) _ _ _ _ / / / / I I Y Y Y Y Y Y L L L L L J L L D D D D D D U U I I Y Y Y Y Y I Y Y ~ ~ / / ~ ~ ~ ~ ~ ~ / / / / ~ ~ / / ~ ~ T T T T ~ ~ Y Y Y Y ~ ~ ~ ~ ~ ~ ~ ~ Y Y Y Y Y Y Y Y ~ ~ ~ ~ ~ ~ T T Y Y Y Y Y Y I I Y Y Y Y Y Y ~ ~ / ~ ~ ~ T T Y Y Y Y Y Y Y Y Y Y Y Y Y Y Y Y I I I I I I U U U U D D D D P P P P U U I U U I I I Y Y Y Y Y Y I I I I J J D D D D D D D D D D D D D D D D D D S S S S S S S S S S S S D D D D S S S S D D I I Y Y D D S S B B n n c c c c c c M M D D L L / / ) ) I I M M n n S S _ _ Y Y S S D D ) ) X.X.] ] E E E E L L L L R L L L L L E E ",
"/ / ] ] %.%.-.-.#.#.$.$.-.-.$.$.%.%.,.,.@.@.) ) ' ' $.$.%.%.3.3.@.@.] ] L L A A f f 3 3 k k d d ; ; @ @ ; ; k k k k k k b b H H F F S S S S A A b b b b N N k k N N N N B B G G S S l l l l l l F F R R / / / / L L L L ^ R ] ] %.%.$.$.+.+.=.=.-.-.@.@.....) ) ' ' ^ ^ S S S S F F G G L L G G L L J J G G S S S S E E ] ] ] ] #.#.%.%.-.-.#.#.| | ] ] ` ` | | ) ) / / Y Y Y Y Y Y Y Y Y Y / / / / / / ~ ~ ~ ~ Y T T T Y Y / / ~ ~ / / ( ( _ ( _ _ _ _ _ _ ( ( / / / / ~ ~ Y Y Y Y Y Y ~ ~ ~ ~ ~ ~ ~ ~ ~ / / / / / ( ( / / / / / / / / _ _ | | | | | | | | _ _ ) ) / / / / ~ ~ ( ( | | | | | | | | } } [ [ _ _ _ _ [ _ } } _ _ _ _ [ [ ( ( [ _ _ _ } } } } } } [ [ [ [ _ _ } } } } [ [ _ _ _ _ ( _ ( ( ( ( ( ( ~ ~ Y Y U U P P D P U U Y Y Y Y Y Y Y Y Y Y Y Y I I Y Y ( ( ` ` ) ) ) ) ) ) ) ) / / / / / / Y Y L L L L Y Y _ _ ) ) / / L L S S H H L L L L G G L L L L / / _ _ ' _ / / ^ ^ L L L L G G L L L L S S B B D D S S G G L L E E Y Y L L L L Y Y / / / / / / ) ) _ _ _ _ / / / / I I Y Y Y Y Y Y L L L L J J L L D D P D P P U U I I Y I Y Y Y Y Y Y ~ Y / / ~ ~ ~ ~ ~ ~ ~ ~ / / ~ ~ / / ~ ~ T T T T ~ ~ ~ Y Y Y ~ ~ ~ ~ ~ ~ ~ ~ Y Y Y Y Y Y Y Y ~ ~ ~ ~ ~ ~ T T Y Y Y Y Y Y I I Y Y Y Y Y Y ~ ~ / ~ ~ ~ T T Y Y Y Y Y Y Y Y Y Y Y Y Y Y Y Y I I I I I I U U P U D D D D P P P P U U U U I I I I Y Y Y Y Y Y I I I I J J D D D D D D D D D D D D D D D D D D S S S S S S S S S S S S D D D D S S S S D D I I Y Y D D S S B B n n c c c c c c M M D D L L / / ) ) I I M M n n S S _ _ Y Y S S F F ) ) X.X.] ] E E E E L L L L R L L L L L E E ",
"M M / / %.%.$.$.X.X.$.$.%.%.] ] ....=.=.w.w.t.t.w.w.u.u.a.i.5.5.+.+._ _ ) / / / L L S S L L L L L L F F F F L L R R L L F F F F H H F F N A f f u u b b H H ^ ^ L L S S k k v v S F L L L L S S / / ] ] ] ] ] _ +.+.$.$.=.=.%.%.-.-.%.%.%.%.9.9.9.9.+.+.G G ) ) +.+.] ] Y ! G G L L ) ) ] ] / / E E L L J J S S B B S S J J Y Y / / ` ` ] ] ] ] / / E E E E / / Y Y Y Y Y Y Y Y Y Y Y Y / / / / / / / / ~ ~ ~ ~ ~ ~ ~ ~ / / / / / / ( ( _ _ | | | | | | | | | | ` ` _ _ ( ( / / ( ( / / / / ( ( ( ( _ _ _ _ | | | | | | | | | | | | | |  . .O.O.#.#.o.o. . . . . . .| | } } | | | |  . .O.O.| | | | | | } } } } } } } } | | | | | | | | | | } } | | | | } } } } } } _ _ } } } } } } [ [ _ _ ( ( ( ( ( ( / / / / / / Y Y Y Y Y Y I I Y Y ~ ~ / / / / / / ) ) | | / / / / ] ] ] ] ` ` ] ] | | | | ) ) Y Y L L D D S S D D / / L L S S N b A A A N S S G G L L / / ^ ^ L L L L ) ) _ ] _ _ ) ) G G G G L L / / / / S S b b S S S S S S L L / / L L S S B B S S L L Y Y _ _ | | | { ) ) / / ) ) / / ) ) ] ] ` ` / / Y Y I I Y Y L L I I I I I I I I Y Y Y Y I I Y Y Y Y Y Y Y Y Y Y Y Y Y Y T T ~ ~ ~ ~ ~ ~ ~ ~ / / / ~ / / / / ~ ~ / ~ T T Y Y Y Y Y Y I I I I Y Y Y Y Y Y Y Y Y Y Y Y Y Y Y Y Y Y Y Y T Y ~ ~ / / ~ ~ ~ ~ ~ ~ Y Y Y Y Y Y Y Y Y Y T T Y Y Y Y Y Y I I U U P P D D D D P P P D U U J J J J J J U U U U I I J J J J D D D D D D D D D D D D D D D D D D S S S S S S S S S S S S M M S S S S M M C C S S D D D D S S S S M M M M C C S S D D D D L L Y Y ) ) ] ] ~ ~ S S M M D D ] ] / / G G S S L L E E Y Y L L L L L L L L G G G G G G / / ",
"M M / / %.%.$.$.X.X.$.$.%.%.] ] ....=.=.w.w.t.t.w.w.u.u.a.a.5.5.+.+._ _ ) / / / L L S S L L L L L L F F F F L L R R L L F F F F H H F F N N f f u u b b H H ^ ^ L L S S k k v v S S L L L L S S / / ] ] ] ] _ _ +.+.$.$.=.=.=.%.-.-.%.%.%.%.9.9.9.9.+.+.G G ) ) +.+.] ] Y ! G G L L ) ) ] ] / / E E L L J J S S B B S S J J Y Y / / ` ` ] ] ] ] / / E E E E / / Y Y Y I Y Y Y Y Y Y Y Y / / / / / / / / ~ ~ ~ ~ ~ ~ / / / / / / / / ( ( _ _ | | | | | | | | | | ` ` _ _ ( ( / / ( ( / / / / ( ( ( ( _ _ _ _ | | | | | | | | | | | | | |  . .O.O.#.#.o.o. . . . . . .| | } } | | | |  . .O.O.|  .| | | | } } } } } } } } | | | | | | | | | | } } } } | | } } } } } } _ _ } } } } } } [ [ _ _ ( ( ( ( ( ( / / / / / / Y Y Y Y Y Y I I Y Y ~ ~ / / / / / / ) ) | | / / / / ] ] ] ] ` _ ] ] | | | | ) ) Y Y L L D D S S D D / / L L S S b b A A A A S S G G L L / / ^ ^ L L L L ) ) _ _ _ _ ) ) G G G G L L / / / / S S b b S S S S S S L L / / L L S S B B S S L L Y Y _ _ | | | { ) ) / / ) ) / / ) ) ] ] ` ` / / Y Y I I Y Y L L I I I I I I I I Y Y I I I I Y Y Y Y Y Y Y Y Y Y Y Y Y Y T T ~ ~ ~ ~ ~ ~ ~ ~ / / / ~ / / / / ~ ~ ~ ~ T Y Y Y Y Y Y Y I I I I Y Y Y Y Y Y Y Y Y Y Y Y Y Y Y Y Y Y Y Y Y Y ~ ~ / / ~ ~ ~ ~ ~ ~ Y Y Y Y Y Y Y Y Y Y T T Y Y Y Y Y Y I I U U U P D D D D P P P D U U J J U J J J U I U U U I J J J J D D D D D D D D D D D D D D D D D D S S S S S S S S S S S S M M S S S S M M C C S S D D D D D S S S M M M M C C S S D D D D L L Y Y ) ) ] ] ~ ~ S S M M D D ] ] / / D D S S L L E Y Y Y L L L L L L L L G G G G G G / / ",
"p p l l F F R R ] ] @.@.....^ ^ F F S S ] ] =.=.%.%.7.7.q.q.$.$.L L A A S A G G L L H H ^ ^ +.+.@.@.%.%.,.,.,.,.%.%.....) ) =.=.,.3.=.=./ / N N f f A A R R ....) ) H H 0 0 u u @.@.5.5./ / / / _ _ ] ] _ _ ) ) ) ) ] ] ....$.$.@.@.] ] X.X.%.%.%.%._ _ G G o.X.$.$.@.@./ / D D / / @.@.>.2.#.#.| | ) ) / / Y Y I I L L L L I I Y Y / / / / / / / / Y Y Y Y / / / / Y / / / Y Y Y Y Y Y ~ ~ ~ ~ ~ ~ / / ~ ~ ~ ~ / / / / / / / / / / ( ( ( ( _ _ _ _ ` ` ` ` } } _ _ ( ( ( ( ( ( _ _ ( ( ( _ _ _ _ _ | | | | | | | | | | | | | |  .| | |  . .#.#.#.#. . .| |  . .| | | | | | | | | | | | | | | | } | _ _ _ _ ( ( ( ( [ _ [ [ } } } } } } | | | | } } } } } } } } _ _ ( ( ( ( ( / / / ~ ~ T Y ( ( / / ~ ~ T Y Y Y Y Y / ~ / / / / / / / / Y Y Y Y I I Y Y / / ] ] / / Y Y / / ) ) ) ) ] ] #.#.| | _ _ Y Y F F S S S S S S Y Y L L L G / ^ ' ' / / L L ^ ^ / / / / G G F F R ^ ] ] $.$.@.@._ ] / / ^ ^ R R / / / / G G F F L L ] ] / / G G G G F S b b S S D D G G L L / / ] ] ] ] / / / / / / G J Y Y / / / / Y Y L L D D D D D D I I Y Y I I I I I I Y Y I I J J I I I I I I J J D D P P U U Y Y Y Y Y Y T T ~ ~ ~ ~ ~ ~ / / T T Y Y Y Y Y Y Y Y Y Y Y Y Y Y Y Y Y Y Y Y Y Y Y Y Y I I I Y I Y T T T T Y Y T Y Y Y Y Y Y Y Y Y Y Y Y Y Y Y Y Y Y T T Y ~ ~ ~ Y Y Y Y I I U U J J D J U U U U U U D D J J J J J J U U D D D D D D D D D D D D D D D D D D D D D D D D S S S S S S S S S S S S S S S S M M M M C S D D D D D D D D D D D D D D D D D D D D D D D D L L Y Y / / Y Y D D D D Y Y Y Y L L J J G G L L Y Y Y Y E E Y Y L L S S S S D D / / X.X.",
"p p l l F F R R ] ] #.#.....^ ^ F F S S ] ] =.=.%.%.7.7.q.q.$.$.L L A A S A G G L L H H ^ ^ +.+.@.@.%.%.,.,.,.,.%.%.....) ) %.=.,.3.=.=./ / N N f f A A R R ....) ' H H 0 0 u u @.@.5.5./ / / / _ _ ] ] _ _ ) ) ) ) ] ] ....$.$.@.@.] ] X.X.%.%.%.%._ _ G G o.] #.$.@.@./ / D D / / $.$.>.2.#.#.| | ) ) / / Y Y I I L L L L I I Y Y / / / / / / / / Y Y Y Y / / / / Y Y Y ~ Y Y Y Y Y Y ~ ~ ~ ~ ~ ~ / / ~ ~ ~ ~ / / / / / / / / / / ( ( ( ( _ _ _ _ ` ` } ` ` } _ _ ( ( ( ( ( ( _ _ ( ( ( ( _ _ _ _ | | | | | | | | | | | | | |  . .| |  . .#.#.#.#. . .| |  . .| | | | | | | | | | | | | | | | | | _ _ ( _ ( ( ( ( [ _ [ [ } } } } } } | | | | } } } } } } } } _ _ ( ( ( ( ( ( / / ~ ~ T Y ( ( / / ~ ~ T T Y Y Y Y / ~ / / / / / / / / Y Y Y Y I I Y Y / / ] ] / / Y Y / / ) ) ) ) { { #.#.| | _ _ Y Y F F F F S S S S Y Y L L L G / ^ ' ' / / L L ^ ^ / / / / G H F F ^ ^ ] ] $.@.@.@._ ] / / ^ ^ ^ ^ / / / / G H F F L L ] ] / / G G G G S S b b S S D D G G L L / / ] ] ] ] / / / / / / G G Y Y / / / / Y Y L L D D D D D D I I Y Y I I I I I I Y I I I J J U U I I I I J U D D P P U U Y Y Y Y Y Y T T ~ ~ ~ ~ ~ ~ / / T T Y Y T Y Y Y Y Y Y Y Y Y Y Y Y Y Y Y Y Y Y Y Y Y Y Y Y I Y Y Y Y ~ T T T Y T Y Y Y Y Y Y Y Y Y Y Y Y Y Y Y Y Y Y Y T Y Y ~ ~ Y Y Y Y I I U U J U D J U U U U J U D D D D J J J J U U D D D D D D D D D D D D D D D D D D D D D D D D S S S D S S S S S S S S S S S S M M M M S S D D D D D D D D D D D D D D D D D D D D D D D D L L Y Y / / Y Y J D D D Y Y Y Y L L J J G G L L Y Y Y Y E E E E L L S S S S D D / / X.X.",
"d d < < < < 0 0 S S ' ' @.@...../ / N N N N F F / / %.%.%.%.5.5.' ' S S f f 3 3 f f S S ] ] %.%.) ) ....7.7.w.w.,.,.) ) F F ' ' $.$.=.=.' ' H H H H ^ ^ ' ' =.=.+.+.' ' ^ ^ +.+.g.g.k.k.5.5.X.X._ _ $.$.5.5.%.%._ _ / E E E _ _ _ _ _ _ ] ] ] ] ] ] _ _ _ _ ] ] o.o.@.@._ _ Y Y _ _ *.*.2.2.#.#.| | ) ) / / / / / / ~ / Y Y / / / / ) ( ( ( ( ( / / E Y Y Y Y Y Y Y Y Y / / Y Y Y Y Y Y ~ ~ ~ ~ / / / / ~ ~ / / / / / / / / ( ( ( ( _ _ _ ( ( ( ( ( ( ( ( ( ( ( ( ( _ _ _ _ _ _ } } | } | | | | | | | |  .| | | | | | | | | } } } } } } | | | | | | | | | | | | | | | | | | | | | | } } _ ( } } } } } } } } [ [ [ [ [ [ [ [ } } } } } } | | | | | | | | | | | | } } ( ( ( ( ~ ~ Y Y Y Y I I / / ~ / Y Y Y Y I I Y Y Y Y / / / / _ _ ) ) / / Y Y Y Y / / ) ) ] ] / / Y Y Y Y E E / / ] ] @.@.] ] @.@.] ] ) ) ] ] ) ) / / _ _ ) ) @.@.9.9.0.0.@.@.^ R L L / / / / _ _ =.=.3.3.%.%.$.$.$.$.@.@.5.5.-.-.+.+.' ' ) ) / / / / ] ] y.y.9.9.%.%.] ] ) ) / / _ _ @.@.] ] ] ] ] ] | | | | ` ` E E L L S S L L Y Y / / E E L L L L G G Y Y / / / / Y Y I I I I I I J J J J U U U U U U P P D D P P U U Y Y Y Y Y T ~ ~ / / / / ( ( ( ( T T ~ ~ ~ ~ ~ ~ T T ~ ~ T T T T / / / / / / ~ ~ Y Y Y Y Y Y Y Y ~ ~ / ~ ~ T Y Y Y Y Y Y I I I I I I I I I I I I Y Y Y Y Y Y Y Y Y Y Y Y Y Y I I I I I I I I Y Y I I I I J J J J J J U U P P D D D D D D D D J J J J D D J J D D D J D D D D D D S S S S S S S S D D S S M M S S S S D D D D D D D D D D D D D D J J D D D D D D D D D D U U I I I I I I I I Y Y S S S S D D I I E E Y Y L L D D S S S S B B S S L L / / ] ] ",
"d d < < < < 0 0 S S ' ' @.+...../ / N N N N F F / / %.%.%.%.5.5.' ' S S f f 0 0 f f S S ] ] %.%.) ) ....7.7.w.w.,.,.) ) F F ' ' $.$.=.=.' ' H H H H ^ ^ ' ' =.=.+.+.' ' ^ ^ +.+.g.g.k.k.5.5.X.X._ _ $.$.5.5.%.%._ _ / / E E _ _ _ _ _ _ ] ] ] ] ] ] _ _ _ _ ] ] o.o.@.@._ _ Y Y _ _ *.*.2.2.#.#.| | ) ) / / / / / / ~ ~ Y Y / / / / ) ) ) ( ( ( / / E E Y Y E Y Y Y Y Y / / Y Y Y Y Y Y ~ ~ ~ / ~ / ~ ~ ~ ~ / / / / / / / / ( ( ( ( _ _ ( ( ( ( ( ( ( ( ( ( ( ( ( ( _ _ _ _ _ _ } } | | | | | | | | | | | | | | | | | | | | } } } } } } | | | | | | | | | | | | | | | | | | | | | | } } _ _ } } } } } } } } [ [ [ [ [ [ [ [ } } } } } } } } | | | | | | | | | | } } ( ( ( ( ~ ~ Y Y Y Y I I / / / / Y Y Y Y I I Y Y Y Y / / / / _ _ ) ) / / Y Y Y Y / / ) ) ] ] / / Y Y Y Y E E / / ] ] @.@.] ] @.@.] ] ) ) ] ] ) ) / / _ _ ) ) @.@.9.9.0.0.@.@.^ R L L / / / / _ _ =.=.3.3.%.%.$.$.$.$.@.@.5.5.-.-.+.+.' ' ) ) / / / / ] ] y.y.9.9.%.%.] ] ) ) / / _ _ @.@.] ] ] ] ] ] | | | | ` ` E E L L S S L L Y Y / / E E Y Y L L G G Y Y / / / / Y Y I I I I I I J J J J U U U U U U P P D D P P U U Y Y Y Y Y Y ~ ~ / / / / ( ( ( ( T T ~ T ~ ~ T T T T ~ ~ T T T T / / / / / / ~ ~ Y Y Y Y Y Y Y Y ~ / / / ~ ~ Y Y Y Y Y I I I I I I I I I I I Y Y Y Y Y Y Y Y Y Y Y Y Y Y Y Y I I I I I I I I Y Y I I I I J J J U U U U U P P D D D D D D J D J J J J D D D D D D D J D D D D D D S S S S S S S S D D S S M M S S S S D D D D D D D D D D D D D D J J D D D D D D D D D D U U I I I I I I I I Y Y S S S S D D I I E E Y Y L L D D S S S S M M S S L L / / ] ] ",
"F F N N b b 0 0 0 0 F F ] ] ) ) ] ] L L L L L L / / w.w.s.s.w.w.-.-.] ] S S k k l v G G @.@...+.R R ] ] w.w.w.w.$.$.^ ^ K K A A ^ ^ ] ] ] ] $.@.4.4.4.4.$.$.0.0.4.4.=.=.+.+.$.$.9.9.q.q.9.9.&.%.@.@.5.5.u.u.e.e.%.%.] ] ) ) / / ) ) ] ] ] ] _ _ ] ] o.o.| | / / / / ` ` ] ] ( ( ` ` | | ` `  . .| | ` ` _ _ ( ( ` ` _ _ _ _ _ _ _ _ _ _ _ _ _ _ ( ( / / / / I I I I Y Y ~ ~ / / / / / / / / _ _ ( ( ( ( ( ( ( ( ( ( ( ( ( ( [ [ _ _ _ _ [ [ _ _ _ _ _ _ ( ( _ _ _ _ | | | | | | | | | | | | | |  . . .|  . . . .| | | | | | } } _ _ ( ( ( ( [ [ _ _ } } [ [ | | | | | | | | | | | | | | | | | | | | | |  . . . .| | | | | | | | | | | | | | | | | |  . . . .| | | | } } ( ( ( ( / / / / T T ~ ~ ~ ~ ~ ~ Y Y Y Y Y Y Y T / / / / | | | | _ _ / / _ _ | | | | ] ] ) ) / / Y E E E / / ] ] ] ] X.X.>.>.-.-.$.#.-.%.@.@.) ) ) ) =.=.9.9.s.s.s.s.5.5.+.+.] ] +.+.^ ^ ] ] ,.3.3.3.+.+.) ) ' ' _ _ -.,.=.=.] ] / ) ' ' ] ] ] ] +.+.u.u.u.u.q.q.-.-.] ] ^ ^ ) ) ] ] $.$.%.%.%.%.#.#.X.X._ _ / / L L E E / / ) ) ] _ ] ] _ _ ) ) / / / / ` ] ] ] / / Y Y Y Y I I J D I I I I U I U U Y Y Y Y Y Y Y Y T T Y Y ~ ~ / / / / / / / / / / ~ ~ / / ~ ~ ( ( / / / / ( ( ( ( ( ( ( ( ( ( ( ( / / ~ ~ ~ ~ Y Y ~ ~ T T Y Y Y Y I I I I P P D D U U U U U U I I Y I Y Y Y Y Y Y I I I I I I I I I I I I I I I I I I U U U J D D D D D D D D D D D D D D D D D D D D D D D D D D I I L L D D D D D D D D D D D D D D S S M M S C D D D D D D D D D D D D D D D P P U U U I U I I I I U U U U U U I I I I I U U U I I L L J J Y Y / / I I D D C C S S S S S S S S D D S S M M ",
"F F N N b b 0 0 0 0 F F ] ] ) ) ] ' L L L L K L / / w.w.s.s.w.w.-.-.] ] S S k k l v H G @.@.+.+.R R ] ] w.w.w.w.$.$.^ ^ K K A A ^ ^ ] ] ] ] @.@.4.4.4.4.$.$.q.q.4.4.=.=.+.+.$.=.9.9.q.q.9.9.&.&.@.@.5.5.u.u.e.e.%.%.] ] ) ) / / ) ) ] ] ] ] _ _ ] ] o.o.| | / / / / ` ` ] ] ( ( ` ` | | ` `  . .| | ` ` _ _ ( ( ` ` _ _ ( ( _ _ _ _ _ _ _ _ _ _ ( ( / / / / I I I I Y Y ~ ~ / / / / / / / / _ _ ( ( _ ( ( ( ( ( ( ( ( ( ( ( [ [ _ _ _ _ [ [ _ _ _ _ ( ( ( ( _ _ _ _ | | | | | | | | | | | | | |  . . . . . . . .| | | | | | } } _ _ ( _ ( ( [ [ ` ` } } [ [ | | | | | | | | | | | | | | | | | | | |  .|  . . . .| | | | | | | | | | | | | | | | | |  . . . .| | | | } } ( ( ( ( / / ~ / T T ~ ~ ~ / ~ ~ Y Y Y Y Y Y Y T / / / / | | | | _ _ / / _ _ | | | | ] ] ) ) / / E E E E / / ] ] ] ] X.X.>.>.-.-.#.#.%.%.@.@.) ) ) ) =.=.9.9.s.s.s.s.5.5.+.+.] ] +.+.^ ^ ] ] ,.,.3.3.+.+.) ) _ _ _ _ -.-.=.=.] ] / / ' ' ] ] ] ] +.+.u.u.u.u.q.q.1.-.] ] Q ^ / / ] ] $.$.%.%.%.%.#.#.X.X._ _ / / L L E E / / ) ) _ _ ] ] _ _ ) ) / / / / ` ` ] ] / / Y Y Y Y I I J J I I I I U I U U Y Y Y Y Y Y Y Y T T Y Y ~ ~ / / / / ( ( / / / / ~ ~ ~ / ~ / ( ( / / / / / / ( ( ( ( ( ( ( ( ( ( / / ~ ~ ~ ~ Y Y ~ ~ T T Y Y Y Y I I I I P P D D U U U U J J I I Y Y Y Y Y Y Y Y I I I I I I I I I I I I I I I I I I U U P J D D D D D D D D D D D D D D D D D D D D D D D D D D I I L L D D D D D D D D D D D D D D S S M M S C D D D D D D D D D D D D D D D D P P U U I U I I I I I I U U U U I I I I U U U U I I L L J J Y Y / / I I D D C C S S S S S B S S D D S S M M ",
"/ / E E / / F F d d d d S S R R ) ) R R ' ' L L L L y.y.n.n.3.3.+.+.] ] ' ' ] ] ] ] / / / / / / @.@.y.y.d.d.%.%.L L K K / / / / +.+.@.@.@.@.3.3.9.9.+.+.A A ' ' 0.0.4.4.' ' ) ) / / ^ ^ ] ] X.X._ _ o.o.&.&.@.@.| X.| | ) ) ) ) ) ) ) ) ) ) / / o.o.$.$.o.o.o.o.) ) ` ` | | ` ` | |  . .( ( ( ( } } | | } } _ _ } } ` _ ( ( ( ( ( ( _ _ _ _ [ [ [ [ ( ( / / / / ~ ~ / / _ _ _ _ _ _ ) ) _ _ } } | | ` ` _ _ _ _ _ _ _ _ ( ( _ ( ( ( ( ( ( ( _ _ _ _ _ _ _ _ ( ( } } | | | | | | _ _ } } | | _ _ _ } | | | | | | | | | | | | | | } } _ _ ( ( ( ( _ _ _ _ ( ( | | | | | | | | | |  . . .| |  . . .O.O.O.O.#.#.#.#.#.#. . .| |  . . . .| | | | | | | | | | | | | | } | } } _ _ [ [ [ [ [ [ _ ( ~ ~ ( ( / / / / ~ ~ ~ ~ / / _ _ / /  . .#.#.] ] ) ) ] ] X.X.] ] ) _ _ _ ) ) / / / / ) ) ] ] ] ] #.#.6.6.<.<.@.@.X.X./ / B B b b / / ] ] -.-.-.-.] ] ^ ^ ^ ^ / / L L F F L L / / ^ ^ ^ ^ / / H H L L R R H H H H ^ ^ / / L L H G ] ] @.@.$.$.' ' S S d d S S / / L E @.@.>.-.%.%.] ] / / / / / E Y Y Y Y E E / / / / / / E E L L Y Y _ _ ` ` / / Y Y Y Y Y Y I I I I I I U U Y Y Y Y T T ~ ~ T ~ Y Y Y Y T Y T T T T T T Y Y Y Y ~ ~ / / / / ( ( ( ( / / / ( ( ( / / ~ ~ ~ ~ ~ ~ ~ ~ ~ ~ ~ ~ ~ ~ Y Y Y Y Y Y Y Y I I P P D D D D D D D D D D D D J J I I I I U U D D D D J J J J J J D D D D D D D D D D D D D S S S S S S S S S S S S S Z Z Z Z C Z S S D D D D D J D D D D L L I I I I I I I I J J S S M M Z Z S S D D D D D D P P U U P U D D D D P P U U Y Y I I I I I I Y Y Y Y I I I I U U D D S S S S D D S S S S M M C S C C M M n n M M C M S S S S ",
"/ / E E / / F F d d d d S S R R ) ) R R ' ' L L L L y.y.n.n.3.3.+.+.] ] ' ' ] ] ] ] / / / / / / @.@.y.y.d.d.%.%.L L K K / / / / +.+.@.@.@.@.3.3.9.9.+.+.A A ' ' 0.0.4.4.' ' ) ) / / ^ ^ ] ] X.X._ _ o.o.&.&.@.@.X.X.| | ) ) ) ) ) ) ) ) ) ) / / o.o.$.$.o.o.o.o.( ) ` ` | | ` ` | |  . .( ( ( ( } } | | } } _ _ } } [ [ ( ( ( ( ( ( ( ( _ _ [ [ [ [ ( ( ~ / / / ~ ~ / / _ _ _ _ _ ) ) ) _ _ } } | } } } _ _ _ _ _ _ _ _ ( ( ( ( ( ( ( ( ( ( _ _ _ _ _ _ _ _ ( ( } } | | | | | | _ _ } } | | _ _ _ _ | | | | | | | | | | | | | | } } _ _ ( ( ( ( _ _ _ _ ( ( | | | | | | | | | |  . . . .| |  . .O.O.O.O.#.#.#.#.#.#. . .| |  . . . .| | | | | | | | | | | | | | } } } } ( ( [ [ [ [ [ [ _ _ / ~ ( ( / / / / ~ ~ ~ ~ / / _ _ / /  . .#.#.] ] ) ) ] ] X.X.] ] ) ) _ _ ) ) / / / / ) ) ] ] ] ] #.#.6.6.<.<.@.@.X.X./ / B B b b / / ] ] -.-.-.-.] ] ^ ^ ^ ^ / / L L F F L L / / ^ ^ ^ ^ / / H H L L R R H H H H ^ ^ / / L L G G ] ] @.@.$.$.' ' S S d d S S / / L L @.@.-.-.%.%.] ] / / / / / / Y Y Y Y E E / / / / / / E E L L Y Y ) _ ` ` / / Y Y Y Y Y Y I I I I I I U U U Y Y Y T T ~ ~ T T Y Y Y Y T T T T T T T T Y Y Y Y ~ ~ / / / / ( ( ( ( / / ( ( ( ( / / ~ ~ ~ ~ ~ ~ ~ ~ ~ ~ ~ ~ ~ ~ Y Y Y Y Y Y Y Y I I P P D D D D D D D D D D D D J J U I I I J U D D D D J D J J J J D D D D D D D D D D D D D S S S S S S S Z S S S S S Z Z Z Z C C S S D D D D D J D D D D L L I I I I I I I I J J D S M M Z Z S S D D D D D D U U U U U U D D D D J J U U Y Y I I I I I I Y Y Y Y I I U I U I D D S S S S D D D D C Z M M S S C C M M n n M M C M S S S S ",
"/ / R R R R F F N N d d < < N N / / ) ) R R L L N N S S ....F F f d S S ] ] ] ] ^ ^ / / / ^ ^ R ] ] =.=.] ] L L S S F F ) ) -.-.$.$.3.3.7.7.$.$./ / H F N N ^ ^ r.r.r.r.@.@.+.+.' ' Q Q / / _ _ ) ) / / / / / / ) ) ) ) _ _ / / / / Y Y L Y / / ) ) ] ] | | | | ` ` ` ` ` ` } } } } | | | | | | | | | | |  . . . . .| | } } } } } } _ _ } } } } _ _ ( ( ( ( ( ( / / / / / / _ _ ` ` | | | | } } } ` _ _ _ _ ( ( _ _ / / / / ~ ~ Y Y Y Y Y Y ~ ~ ~ ~ ~ ~ Y T ( ( ( ( ( ( _ _ _ _ _ _ _ _ [ [ T T / / ( ( ( ( ( ( ( ( ( ( ( ( ( ( / / / / ~ ~ ~ ~ ~ ~ / / ( ( ( ( ( ( } } | | | | | | | | } } | |  . .O.O.O.O. . .| | | | | | | | | | | | | | } } _ _ ( ( / ( ( ( ( ( ( ( ( ( ( ( ( [ ( ( ( ( ( ( / / ~ ~ ~ / / / / / / / / / / / / / / / / / / / E E L L L L L L L L L L L L L L L L L L Y Y _ _ X.X.#.#.| ] ) ) E E G G B S b b b b N A b b < < & & u u b b F F / / ^ ^ / / ^ ^ L L ^ ^ L L ^ ^ ^ ^ L R L L ^ ^ S S u u & & - - v v b b l l l l b b F F ^ ^ R R _ _ X.X.] ] E E G G F F S S G G S S B B S S G G G G G D D D S S D D D D D D D D I I J J J J J J U U U U U U U U Y Y Y Y Y Y Y Y Y Y Y Y Y Y Y Y Y Y Y Y Y Y T T Y Y Y Y T Y ~ ~ ~ ~ / / ( ( ( ( ( ( / / / / / / ~ ~ Y Y Y Y Y Y Y Y Y Y I I I I D D D D S S C C Z C C C S S S S D D D D D D I I D D D D D D D D J J D D D D D D D D D D D D D D S S Z Z M M Z Z Z Z S S S S Z Z S S C C C C D D D D D D J J D D D D D D D D D D D D S S Z Z Z Z S D D D U U U U U U P P U U Y I I I I I I I Y Y I I U P D D P P P P D D S S Z Z M M M M M M M M C C M M M M n n n n n n n n M M M M M M ",
"/ / R R R R F F N N d d < < N N / / ) ) R R L L B N S S ....F F f f S S ] ] ] ] ^ ^ ^ ^ / / ^ R ] ] =.=.] ] L L S S F F ) ) -.-.$.$.3.3.7.7.$.$./ / H F N N ^ ^ r.r.r.r.@.@.+.+.' ' Q Q / / ' ' ) ) / / / / / / ) ) ) ) _ _ / / / / Y Y L Y / / ) ) ] ] | | | | ] ] ` ` ` ` } } } } | | | | | | | | | | | |  . . . .| | } } } } } } _ _ } } } } _ _ _ _ ( ( ( ( / / / / / / _ _ ` ` | | | | } ` ` ` _ _ _ _ ( ( _ _ / / / / ~ ~ Y Y Y Y Y Y ~ ~ / / ~ ~ Y T / / ( ( ( ( _ _ _ _ _ _ _ _ [ [ T T / / ( ( ( ( ( ( ( ( ( ( ( ( ( ( / / / / ~ ~ ~ ~ ~ ~ / / ( ( ( ( ( ( } } | | | | | | | | } } | |  . .O.O.O.O. . .| | | | | | | | | | | | | | } } ( ( ( ( / / ( ( ( ( ( ( ( ( ( ( [ [ ( ( ( ( ( ( / / ~ ~ ~ / / / / / / / / / / / / / / / / / / / E E L Y L L L L L L L L L L L L L L L L Y Y _ ) X.X.#.#.| | ) ) E E G G B B b b b l A A b b < < & & u u b b F F / / ^ ^ / / ^ ^ L L ^ ^ L L ^ ^ ^ ^ R R L L ^ ^ S S u u & & - - v v b b l l l l b b F F ^ ^ ^ R _ _ X.X.] ] E E G G F F S S G G S S B B S S D G G G D D D D S S D D D D D D D D L L U U J J J J U U U U U U U U Y Y Y Y Y Y Y Y Y Y Y Y Y Y Y Y Y Y Y Y Y Y T T Y Y Y Y T Y ~ ~ ~ ~ / / ( / ( ( / ( / ( / / / / ~ ~ Y Y Y Y ~ Y Y Y Y Y I I I I D D D D S S Z C Z Z C C S S S S D D D D D D I I D D D D D D D D J J D D D D D D D D D D D D D D S S Z Z M M Z Z S Z Z S S S Z Z S S C C C C D D D D D D J J D D D D D D D D D D D D S S Z Z Z Z S S D D U U U U U U D D U U I I I I I I I I Y Y I I U U D D P D P P D D S S Z Z M M M M M M C C C C M M M M n n n n n n n n M M M M M M ",
"b b N N F F K K N N 0 0 & & & & 0 0 l l S S L L l l < < p p & & O O v v ] ] ] ] S S b b S S H H H H H G A A b b b b A A ^ ^ +.+.....%.%.7.7.,.,./ / v v ; ; R R =.=.3.3.$.$.q.r.y.y.&.&.G G / / ! ! ! Y ! ! ~ ~ / / / / / / / / / / Y Y Y L ! ! ~ ~ ( ( _ ` ) ) ( ( ~ ~ ~ / ( ( ` ` } } | | | | | | | | | |  . .O.O. . .| | | | | | | | | | } } } } _ _ ( ( / / / / / / / / _ _ ` ` | | ] ] ` _ _ _ _ _ ( ( ( ( / / ~ ~ T Y ~ ~ ~ ~ ~ ~ ~ ~ / / / / / / / / ~ ~ ~ ~ ~ ~ ~ ~ ~ ~ ~ ~ ~ ~ ~ ~ / / ( ( _ _ _ _ _ _ _ _ ( ( / / / / ~ ~ Y Y Y Y ~ ~ ~ ~ ~ ~ / / _ _ _ _ | | | | | | | | | | | | | | | |  . . . . . . . .| |  . .| | | | | | | | } } _ _ ( ( ( ( ( ( ( ( _ _ _ _ _ _ ( _ ( ( / / ~ ~ ~ ~ T T Y Y Y Y Y Y Y Y I I I I L L L L D D G G D G L L L L c c c c c c M M B B B S S S S S F F Y Y ) ) ) ) / / L L G G F F b b l l S S L L v v & & < < b b H H ^ ^ L L L R / / L L L L H F H H / / / / L L H H A A u u & & > > S S L L b b b b L L / / L L G G R R E E L L F F S S S S B B b b c c j j d d l l S S G J J J S S S S S S D D S S D D D D D D D D D D D D P P U U Y Y Y Y T T T T ~ ~ ~ ~ ~ ~ T T Y Y Y Y Y Y Y Y Y Y Y Y Y Y Y Y ~ ~ / / ( ( / / / / ~ ~ ~ ~ ~ ~ / ~ ~ ~ Y Y ~ ~ Y Y Y Y Y Y Y Y J U D D S S S S Z Z Z Z C C S S S S S S D D U U J J D D D D D D D D D D S S S S D D D D D D D D D D D D D D D D D D D D D D D D S S S S Z Z M M S S S S D D D S S S D D D D S S S S Z Z Z Z S S S S D D U U I I I I U U U U Y Y Y Y I I I I U U D D D D D D D D D D D D S Z M M M M n n n n M M M M M M n n n n n n M M M M M M M M M M ",
"b b N N F F K K N N 0 0 & & & & 0 0 l l S S L L l l < < p p & & O O l v ] ] ] ] S S b b S S H H H H H G A A b b b b A A ^ ^ +.+.....%.%.7.7.%.,./ / v v ; ; R R =.=.3.3.$.$.q.r.y.y.&.&.G G / / ! ! ! Y ! ! ~ ~ / / / / / / / / / / Y Y Y L ! ! ~ ~ ( ( ` ` ) ) ( ( ~ ~ ~ ~ ( ( ` ` } } | | | | | | | | | |  . .O.O. . .| | | | | | | | | | } } } } _ _ ( ( ( / / / / / / / _ _ ` ` | | ] ] _ _ _ _ _ _ ( ( ( ( / / ~ ~ Y Y ~ ~ ~ ~ ~ ~ ~ ~ / / / / / / / / ~ ~ ~ ~ ~ ~ ~ ~ ~ ~ ~ ~ ~ ~ ~ ~ / / ( ( _ _ _ _ _ _ _ _ ( ( / / / / ~ ~ Y Y Y Y ~ ~ ~ ~ ~ ~ / / _ ( _ _ | | | | | | | | | | | | | | | |  . . . . . . . .| |  . .| | | | | | | | } } _ _ ( ( ( ( ( ( ( _ _ _ _ _ _ _ ( _ ( ( / / ~ ~ ~ ~ T T Y Y Y Y Y Y Y Y I I I I L L L L J D G G G G L L L L c c c c c c M M B B S S S S S S F F Y Y ) ) _ _ / / L L G G F F b b l l S S L L v v & & < < b b H H ^ ^ L L R L / / L L L L H F H H / / / / L L H H A A u u & & > > S S L L b b b b L L / / L L G G R R E E L L F F S S S S B B b b c c j j d d l l S S G D J J S S S S S S D D D S D D D D D D D D D D D D P P U U Y Y Y Y T T T T ~ ~ ~ ~ ~ ~ T T Y Y Y Y Y Y Y Y Y Y Y Y Y Y Y Y ~ ~ / ( ( ( / / / / ~ ~ ~ ~ ~ ~ ~ ~ Y Y Y Y ~ ~ Y Y Y Y Y Y Y Y J U D D S S Z Z Z Z Z Z C C S S S S S S D D U U J J D D D D D D D D D D S S S S D D D D D D D D D D D D D D D D D D D D D D D D S S S S Z Z M M S S S S D D D D S S D D D D S S S S Z Z C Z Z Z S S D D U U I I I I U U U U I Y Y Y I I I I U U D D D D D D D D D D D D S S M M M M n n n n M M M M M M n n n n n n n n M M M M M M M M ",
"d d k k L L / / L L b b d d - - O O @ @ w w S S N N p p - - k k & & > > / / @.@.L L v v b b S S S S S S S S S S S S F F ' ' -.-.5.5.w.w.y.y.,.,.L L u u ; ; v v ' ' 3.3.q.q.s.s.s.s.-.-.L L L L L L ! ! ~ ~ ~ ~ Y Y Y ~ / / / / ! ! ! ! Y L L L Y Y ~ ! ~ ~ ~ ~ Y Y Y Y Y Y ~ ~ ( ( ` ` } } | | } | } } | | | |  . . . . . . . . . .| | | | | | } } } } [ [ / / / / ~ ~ / / / / _ _ _ _ ) ( ( ( ( _ _ _ ( ( / / ~ ~ Y Y Y Y ~ ~ / / ( ( _ _ _ _ _ ( ( ( ( ( _ _ _ _ _ ( ( ( ( ( / / / ( ( ( _ _ _ _ _ _ _ _ _ _ _ _ / / / / Y Y Y Y Y Y Y Y Y Y Y Y ~ ~ / / _ _ [ } | | | | | | | |  . . . .| | | | | | | | | | | | | | | | | | | | } } } } } } [ [ [ _ [ _ } } | | | | | | | | | | } } [ [ / / / / ~ ~ T T Y Y Y Y I Y I I I I I I D D D D L L L L Y Y Y Y D D S S M M M M S S D D D D G G G G L G L L / / / / _ _ @.@.%.%.] ] ) ) +.+.=.=./ / k k v v F F ) ) / / S S S S H H S S F F S S H H ^ ^ L L F F R R / / H H v v b b ] ] @.@./ / ) ) $.$.=.=.] ] _ _ _ _ / / L L G G S S S S S S M M S S B B c c M M L L Y Y Y Y D D D D D D D D D D D D D D J J I I I I Y Y Y Y T T T ~ ~ ~ ( ( ( ( ( ( ( ( ( ( / / ~ ~ Y Y I I Y Y Y Y Y Y Y Y Y Y Y Y T Y ~ ~ Y Y Y Y Y Y Y Y Y Y ~ Y ~ Y Y Y Y Y Y Y I I I I U U D D S S Z Z S S S S C Z Z Z Z Z Z Z Z S S S D D D D D D D D D D S S S S Z Z M M Z Z S S D D D D D D D D D D J J D D D D D D S S Z Z Z Z M M M M Z Z S S Z Z M M M M M M M M C M M M M M M M M M Z Z S S D D S S S S Z Z D S S S D D S S Z Z Z Z Z Z M M M M Z Z Z Z M M M M n n m m m m m m n n M M n n m m m m n m M M M M M M n n n c ",
"d d k k L L / / L L b b d d - - O O @ @ w w S S N N p p - - k k & & > > / / @.@.L L v v b b S S S S S S S S S S S S F F ' ' -.-.5.5.w.w.y.y.,.,.L L u u ; ; v v ' ' 3.3.q.q.s.s.s.s.-.-.L L L L L L ! ! ~ ~ ~ ~ Y Y Y Y / / / / / ! ! ! Y L L L Y L ~ ~ ~ ~ ~ ~ Y ! Y Y Y Y ~ ~ ( ( ` ` } } | | | | } } | | | |  . . . . . . . . . .| | | | | | } } } } [ [ / / / ~ ~ / / / / / _ _ _ _ ) ( ( ( ( _ _ _ ( ( / / ~ ~ Y Y Y Y ~ ~ / / ( ( _ _ _ _ _ ( ( ( ( ( _ _ _ _ ( ( ( ( ( ( / / / / ( ( _ _ _ _ _ _ _ _ _ _ _ _ / / / / Y Y Y Y Y Y Y Y Y Y Y Y / / / / _ _ } } | | | | | | | |  . . . .| | | | | | | | | | | | | | | | | | | | } } } } } } [ [ [ _ [ [ } } | | | | | | | | | | } } [ [ / / / / ~ ~ T T Y Y Y Y I I I I I I I I D D D D L L L L Y Y Y Y D D S S M M M M S S D D D D G G G G G G L L / / / / _ _ X.@.%.%.] ] ) ) +.+.=.=./ / k k v v F F ) ) / / S S S S H H S S F F S S H H ^ ^ L L F F R R / / H H v v b b ] ] @.@./ / ) ) $.$.=.=.] ] _ _ _ _ / / L L G G S S S S S S M M S S B B c c M M L L Y Y Y Y D D D D D D D D D D D D D D J J I I I I Y Y Y Y T T ~ ~ ~ ~ ( ( ( ( ( ( ( ( ( ( / / ~ ~ Y Y I Y I Y Y Y Y Y Y Y Y Y Y Y Y Y ~ ~ Y Y Y Y Y Y Y Y Y Y Y Y Y Y Y Y Y Y Y Y Y Y I I U U D D S S Z Z S S S S C C Z Z Z Z Z Z Z Z S S D D D D D D D D D D S S S S Z Z Z Z Z Z S S D D D D D D D D D D J J D D D D D D S S Z Z Z Z M M M M Z Z S S Z Z M M M M M M M M M M M M M M M M M M Z Z S S D D S S S S Z Z S S S S D D S S Z Z Z Z Z Z M M M M Z Z Z Z Z Z M M n n m m c m m m n n M M n n m m c m n m M M M M M M n n c c ",
"d d d d F F ) ) R R L L L L L L p p & & - - b b G G F F v v N N % % O O L L 5.3.' ' k k f f l l b b S S S S S S b b F F @.+.5.5.,.,.,.,.%.%./ / v v 0 0 0 0 A A +.+.t.t.g.g.w.w.@.@.L L D D L L Y Y ! ~ ~ ~ Y Y Y Y Y Y Y ~ ~ ~ ! ! Y Y L L L L L L L L L L Y Y Y Y U J Y Y Y Y ~ ~ / / ( ( ( ( ( ( _ ( _ _ _ _ ` ` } } } } | | } } ` ` ` ` ` ` } } _ _ ( ( Y Y Y Y Y Y Y Y / / / / Y Y Y Y Y Y ~ ~ / / / / ~ ~ Y Y Y Y ~ Y ~ ~ / / _ _ } } _ _ _ _ ( ( ( ( / / / / / / ~ ~ Y Y Y Y Y Y Y Y / / / / ( ( ( ( / / / / / / / / Y Y Y Y I I I I I I Y Y Y Y Y Y / / ( ( _ _ | | ` ` | | | |  . .| | } } _ _ [ [ } } } | } } } } } } } } ( ( ( ( ( ( ( ( ( ( ( _ } } | | | | | |  . .| | | | | | | | } } _ _ _ _ ( ( / / / / ~ ~ ~ ~ Y Y Y Y I I I I Y Y / / / / / / Y Y G G D D D D L L L L L L L L G L / / #.#.-.-.%.%.#.#.%.%.&.&.] ] @.@.$.$._ _ H H G L ) ) +.+.] ] L L H H H H A A S S F F A A S S S S F F ' ' +.+./ / S S F F ) ) ] ] ] ] +.+.@.@.$.$.$.$.@.@.@.@.X.X._ _ L L D D D D J J D D J J D D D D L L I I L L D D D D D D D D D D D D I I Y Y Y Y ~ ~ ~ ~ ~ ~ / / / / ( ( ( ( ( ( ( ( / ( ( ( ( ( / / ~ ~ Y Y I I U U P P U U U U U U I I I I I I I I U U U U I I Y Y Y Y Y Y Y Y J J D J J J D D D D D D Z Z M M S S S S C C Z Z Z Z Z Z Z Z S S S S S S S S D S S S S S C Z M M Z Z Z Z Z Z S S S S S S S S Z Z S D D D S S S S C C M M M M M M Z Z Z Z S S Z Z M M M M n n m n M M M M M M M M M M M M M M M M M M n n n n n n n n n n n n n n n M n n n m m m n n M M n n m m m m c c c c m m m m n n n n m n m m m m M n n n n n c c c c ",
"u u u u F F ) ) R E L L R L L L p p & & - - b b G G F F v v N N % % O O L L 5.5.' ] k k f f l l b b S S S S S S b N F F +.+.5.5.-.-.,.,.%.%./ / v v 0 0 u 0 A A +.+.t.t.g.g.w.w.@.@.L L D D L L Y Y ! ~ ~ ~ Y Y Y Y Y Y Y Y ~ ~ ! ! Y Y L L L L L L L L L L Y Y Y Y Y Y Y Y Y Y ~ ~ / / ( ( ( ( ( ( ( ( _ _ _ _ ` ` } } } } | | } } ` ` ` ` ` ` } } _ _ ( ( Y Y Y Y Y Y Y Y / / / / Y Y Y Y Y Y ~ ~ / / / / ~ ~ Y Y Y Y Y Y ~ ~ / / _ _ } } _ _ _ _ ( ( ( ( / / / / / / ~ ~ Y Y Y Y Y Y Y Y / / / / ( ( ( ( / / / / / / / / Y Y Y Y I I I I I I Y Y Y Y Y Y / / ( ( _ _ | | ` ` | | | |  . .| | } } _ _ [ [ } } } } } } } } } } } } ( ( ( ( ( ( ( ( ( ( ( _ } } | |  . . .|  .| | | | | | | | | } } _ _ _ _ ( ( / / / / Y Y ~ / ~ Y Y Y I I I I Y Y / / / / / / Y Y G G D D D D L L L L L L L L G G / / #.#.-.-.%.%.#.#.%.%.$.$.] ] @.+.$.$._ _ H H G L ) ) +.+.] ] L L H H H H A A S S F F A A S S S S F F ' ' +.+./ / S S F F ) ) ] ] ] ] +.+.@.@.$.$.$.$.@.@.@.@.X.X._ _ L L D D D D L L D D J J J J D D L L I I L L D D D D D D D D D D D D I I Y Y Y Y ~ ~ ~ ~ / ~ / / / / ( ( ( ( ( ( ( ( ( ( ( ( ( ( / / ~ T Y Y I I U U P P P U U U U U I I I I U U I I I U U U I I Y Y Y Y Y Y Y Y J J D D J J D D D D D D Z Z M M S S S S C C C Z Z Z Z Z Z Z S S S S S S S S D D S S S S C C M M Z Z Z Z S Z S S S S S S S S Z Z S S D S S S S S C C M M M M M M Z Z Z Z Z Z Z Z M M M M n n m m M M M M M M M M M M M M M M M M M M n n n n n n n n n n n n n m M M n n n m m m n n M M n n m m m m c c c c m m m m n n n n n n m m m m n n n n n n c c c c ",
"k k d d S S R R L L / / ] ] _ _ S S p p 0 0 k k F F S S < < . . . . < < +.+.y.y.+.+.v v d d l l l l b b b b l l b b G G $.$.q.q.%.%.) ) / / L L b b 0 0 d d L L ' ' 7.7.y.y.%.-./ / D D D D L L Y Y Y Y Y Y I I J J U I Y Y Y Y Y Y Y Y Y Y Y Y L L J J J L Y Y Y Y J J J J J J Y Y Y Y ! Y Y Y Y Y ~ ~ ~ ~ ~ ~ Y Y ~ ~ Y Y ~ ~ Y Y Y Y Y Y ~ ~ ~ ~ ~ ~ ~ ~ ~ ~ Y Y Y Y Y Y Y Y Y Y Y Y I I I Y Y Y ~ ~ / / Y Y Y Y Y Y Y Y I Y Y Y / / ( ( ( ( / / / / / / Y Y T Y Y Y Y Y Y Y Y Y Y Y Y Y / / / / / / / / / / / / ~ ~ Y Y Y Y Y Y Y Y I I I I I I Y Y Y Y Y Y / / / / / ( / / / / ( _ } } [ _ ( ( ( ( ( ( ( ( ( ( ( ( ( ( ( ( ( ( / / ~ ~ Y Y ~ ~ / / / / ( ( } } | | | | | | | | } } _ _ | | } } } } _ _ _ _ ( ( ( ( / / Y Y Y Y Y Y Y Y Y Y Y I Y Y Y Y Y Y Y Y L Y L L Y Y Y Y I Y D D D D S S L L ] ] #.#.X.X.) ) / / ) ) R R L L ^ ^ G G F F S S A A / / _ _ / / ) ) / / F F H H G G A A F F R R / / ] ] ) ) F F S S b b S S G G L L L L G G G G / / / / ) ) ] ] / / D D M M S S Y Y Y Y D D S S D D I Y I I D D D D D D D D D D D D U U I I Y Y Y Y Y Y Y Y T T T T Y Y ~ Y Y Y T T T T T T ~ ~ ~ ~ T T Y Y Y Y I I P P D D P P U P P P P P D D D D U U U U D D J J U U I I I I U U J J D D J J D D D D D D D D S S S S S S S S S S S S S S D D S S S S S S S S D D D D D D S S S S S S D D D D D D D D D D S S S S S S S S Z Z Z Z Z Z M M M M M M C C Z Z C C S Z Z Z S S Z Z Z M M M M M C C C C C Z Z Z C C Z Z M M M M M M M M M M M M M M M M M M M M n n n n n n n n n n m m m m c c c c m m n n m m m m n n n n n n n n c c c c n n M n ",
"k k d d S S R R L L / / ] ] _ _ S S p p 0 0 k k F F S S < < . . . o < < +.+.t.t.+.+.v v d d l l l l b b b b l l b b G G $.$.q.q.%.%.) ) / / L L b b 0 0 d d L L ' ' 7.7.y.y.%.-./ / D D D D L L Y Y Y Y Y Y I I J J U I Y Y Y Y Y Y Y Y Y Y Y Y L L L J J J Y Y Y Y J J J J J J Y Y Y Y ! ! Y Y Y Y ~ ~ ~ ~ ~ ~ Y Y Y Y Y Y Y ~ Y Y Y Y Y Y ~ ~ ~ ~ ~ ~ ~ ~ ~ ~ Y Y Y Y Y Y Y Y Y Y I Y I I Y Y Y Y ~ ~ / / Y Y Y Y Y Y Y Y I Y Y Y / / ( ( ( ( / / / / / / Y Y T T Y Y Y Y Y Y Y Y Y Y Y Y / / / / / / / / / / / / ~ ~ Y Y Y Y Y Y Y Y I I Y I I Y Y Y Y Y Y Y / / / / / / / / / / ( ( } } [ [ ( ( / ( ( / ( ( ( ( ( ( ( ( ( ( ( ( / / ~ ~ Y Y ~ ~ / ~ / / ( ( } ` | | | | | | | | } | _ _ | | } } } } _ _ _ _ ( ( ( ( / / Y Y Y Y Y Y Y Y Y Y Y Y Y Y Y Y Y Y Y Y L L L L Y Y Y Y I I D D D D S S L L ] ] #.#.| | ) ) / / ) ) R R L L ^ ^ G G F F S S A A / / _ _ ) / ) ) / / F F H H G G A A F F R R / / ] ] ) ) F F S S b b S S G G L L L L G G G G / / / / ) ) ] ] / / D D M M S S Y Y Y Y D D S S D D I Y I I D D D D D D D D D D D D U U I I Y Y Y Y Y Y Y ~ T Y T T Y Y ~ Y Y Y T T T T T T ~ ~ ~ ~ T T Y Y Y Y I I P P D D P P U P D P P P D D P D U U U U D D J J U U I I I I U U J J D J J J D D D J D D D D S S S S S S S S Z S S S S S D D S S S S S S S S D D D D D D S S S S D S D D D D D D D D D D S S S S S S S S Z Z Z Z Z Z M M M M M M C C Z Z C C S S S Z S S Z Z M M M M M M C C C C C Z Z Z C C Z Z M M M M M M M M M M M M M M M M M M M M n n n n n n n n n n m m m m c c m c m m n n m m n n n n n n n n n n c c c c n n M M ",
"F F N N S S F F S S G G / / S S k k d d d d d d B B b b ; ; O O - - A A @.@.5.5.' ' v v l l b b l l b b C C G G ! ! / / @.@.$.$._ _ L L L L R R A A k k N N R R ' ' @.@.#.#.] ] ) / / / L L Y Y Y Y Y Y Y Y Y Y Y Y Y Y Y Y Y Y Y Y ! ! ~ ~ ~ ~ ~ ~ Y Y Y Y ! ! Y Y L L Y Y Y L Y Y Y Y L L Y Y Y Y ~ ~ ~ ~ Y Y Y Y Y Y Y Y Y Y Y Y Y Y Y Y ~ ~ ~ ~ / / ~ ~ / / / / Y Y Y Y / / Y Y Y Y I I Y Y ~ ~ / / / / Y Y Y Y Y Y Y Y I I Y Y Y Y ~ ~ ~ ~ ~ ~ ~ ~ ~ ~ ( ( ( ( ( _ ( ( ( ( ( ( / / / / / / / / / / / / / / / / / / / / / / / / Y Y Y Y Y Y Y Y Y Y Y Y / / / / ( ( / / / / ~ ~ ~ ~ ( ( ( _ ( ( ( ( ( ( ( ( ( ( ( ( / / / / ~ ~ / / ~ ~ ~ ~ ~ / / / ( ( ( ( ` ` } } } } } } | | } } _ [ _ _ _ _ ( ( ( _ _ _ ( ( / / / / Y Y Y Y Y ~ Y Y Y Y Y Y Y Y Y Y Y Y Y Y L L S S D D Y Y / / / / D D b b b b D D Y Y E / L L L L G G G G L L Q Q ^ ^ / / H H d d S S ^ ^ L L L L Q Q L L ) ) ] ] _ _ / / L L L L E R G G N N b b G G / / / / L L G G S S S S S S G D L L Y Y G J b b j j S S Y Y ) ) D D n n M M D D U U Y Y ~ ~ Y Y Y Y Y Y Y Y I I Y Y Y Y Y Y I I Y Y Y Y Y Y Y Y Y Y Y Y Y Y ~ ~ / / / / / / / / / / ~ ~ Y T Y Y Y Y Y Y Y Y Y Y Y Y Y Y I I I I I I I I I I I I I I I I U U U I I I U U J J U U U U D D D D D D S D S S S S S S D D D D D D D D D D D D D D L L U U D D D D D D D D D D U J J J U U D D D D D D D D D D D D D D D D D D D D D D D D D D D D D D D D S S S S Z S S S D D D D D D D D D D D D D D D D D D D D D D D D D D D D Z Z S S Z Z Z Z Z Z M M M M M M n n n n n n n n n n n n n n n n M M M M n n n c n n M M M M ",
"F F N N S S F F S S G G / / S S k k d d p d d d B B b b ; ; O O - - A A @.@.5.5.' ' v v l l b b l l b b C C G G ! ! / / @.@.$.$._ _ L L L L R R A A v k N N R R ' ' @.@.#.#.] ] ) ) / / L L Y Y Y Y Y Y Y Y Y Y Y Y Y Y Y Y Y Y Y Y ! ! ~ ~ ~ ~ ~ ~ Y Y Y Y ! Y Y Y L L Y Y Y L Y Y Y Y Y Y Y Y Y Y ~ ~ ~ ~ Y Y Y Y Y Y Y Y Y Y Y Y Y Y Y Y ~ ~ ~ ~ ~ ~ ~ ~ / / / / E Y Y Y / / Y Y Y Y I I Y Y ~ ~ / / / ~ Y Y Y Y Y Y Y Y I I Y Y Y Y ~ ~ ~ ~ ~ ~ ~ ~ ~ ~ ( ( ( ( ( _ ( ( ( ( / ( / ( / / / / / / / / / / / / / / / / / / / / / / Y Y Y Y Y Y Y Y Y Y Y Y / / / / ( ( / / / / ~ ~ ~ ~ ( ( ( ( ( ( ( ( ( ( ( ( ( ( ( ( / / / / ~ ~ / / / / / / ~ / / / ( ( ( ( ` _ } } | } } } | | } } [ [ _ _ _ _ _ _ ( ( ( _ ( ( / / / / T Y Y Y Y Y Y Y Y Y Y Y Y Y Y Y Y Y Y Y L L S S D D Y Y / / / / D D b b b b D D Y Y E E L L L L G G G G L L Q Q ^ ^ / / H H d d S S ^ ^ L L L L Q Q L L ) ) ] ] _ _ / / L L L L E R G G N N b b G G / / / / L L G G S S S S S S D D L L Y Y G D b b j j S S Y Y ) ) D D n n M M D D U U Y Y ~ ~ Y Y Y Y Y Y Y Y I I Y Y Y Y Y Y I I Y Y Y Y Y Y Y Y Y Y Y Y Y Y ~ ~ / / / / / / / ( / / ~ ~ Y Y Y Y Y Y Y Y Y Y Y Y Y Y Y Y I I I I I I I I I I I I I I I I U U U I I I U J J J U U U U D D D D S S S S S S S S S S D D D D D D D D D D D D D D L L U U D D D D D D D D D D U J J J U U D D D D D D D D D D D D D D D D D D D D D D D D D D D D D D D D S S S S Z Z S S S S D D D D D D D D D D D D D D D D D D D D D D D D D D Z Z S S Z Z Z Z Z Z M M M M M M n n n n n n n n n n n n n n n n M M M M n n n c n n M M M M ",
"K K F F S S N N N b B B S S b b d d d d l l b b S S N N l l b b S S H H L L ^ / H H v v l l x x x x b b S S ! ! ) ) L L ! ! L L L L / / @.@.-.-.@.@.....%.,.@.@.@.@.....) ) E E Y Y L L J J / / / / / / _ _ _ ` ` ` ( ( ( ( ~ ~ ~ ~ / / ( ( ( ( ~ ~ ! ! ! ! ! ~ ! ! ! ! ~ ~ / / ~ ~ ! ! ~ ~ ~ ~ ~ ~ ( ( ( ( ( ( ( ( ( ( ` _ ` ` ( ( ( ( ` ` ` ` ` ` ` ` ` ` _ _ _ _ ( ( ( ( ) ) ) ) / / / / ( ( _ _ _ _ _ _ ( ( ( ( ( ( ( ( / / / / / / / / ) ( _ _ _ _ _ _ } } _ _ _ _ _ _ _ _ ( ( _ _ ( ( _ _ ) ) _ _ ( ( ) ) ( ( ( ) / / / / / / / / ~ ~ Y Y Y Y ~ ~ / / ( / _ _ _ _ _ _ _ _ _ _ _ _ ( ( _ _ _ _ } } } } _ _ _ _ _ _ _ _ _ _ [ ( } } } } | | | | | | | | | |  . . . . . . . . . . . .| | } } _ _ _ _ ( ( ( ( _ _ ( ( ( ( ( ( ( ( _ _ _ _ [ [ _ _ _ _ _ ( ( ( / / I I M M M M L L ) ) ] ] S S M M S S Y Y ) ) / / L L D D S S H H Q Q ) ) ] ] $.$.] ] F F b b G G S S b b G G ) ) %.%.3.1.%.%.] ] S S b b N N S S b b b b / / ] ] ] ] / / L L G G G G D D L L Y Y Y Y L L S S C C J J / / / / D D M M Z Z D D Y Y Y Y / / ( ( ( ( / / / / ~ ~ ~ ~ ~ / / / Y Y Y Y Y T ~ ~ ~ ~ / / / / ~ ~ ( ( ( ( ( _ _ _ [ [ _ _ ( ( [ [ ( ( ( ( ( ( ( ( / / / / ~ ~ Y Y Y Y Y Y Y Y Y Y Y Y Y Y Y Y Y Y Y Y I I I I J J J J J J D D P P D D D D D D D D D D D D D D L J J L L I I I L L L L I I I I I I P D U U I I I I Y Y Y Y Y Y Y Y Y Y Y Y I I I I J J J J J J J J I I I I I U U I I I U U D D D D D D D D U U I I U U I I J J U U I I I I I I U U I I I I I I U U D D D D D D D D D D D D D D D D Z Z Z Z Z Z Z Z M M M M M M M M M M M M M M M M M M M M M M ",
"K K S S S S N N b b B B S S b b d d d d l l b b S S B N l l b b S S H H L L ^ / H H l l l l x x x x b b S S ! ! ) ) L L / ! L L L L / / @.@.-.-.@.@.....-.,.@.@.@.@.....) ) E E Y Y L L J J / / / / / / _ _ _ ` ` ` ( ( ( ( ~ ~ ~ ~ / / ( ( ( ( / / ! ! Y Y ! ! ! ! ! ! ~ ~ / / / ~ ! ! ~ ~ ~ ~ ~ ~ ( ( ( ( ( ( ( ( ( ( ` _ ` ` ( ( ( ( ` ` ` ` ` ` ` ` ` ` _ _ _ _ ( ( ( ( ) ) ) ) / ( / / ( ( _ _ _ _ _ _ ( ( ( ( ( ( ( ( / / / / / / / / _ ( _ _ _ _ _ _ } } _ _ _ _ _ _ _ _ ( ( _ _ ( ( _ _ _ _ _ _ ) ) ) ) ( ( ( ( / / / / / / ~ / ~ ~ Y Y Y Y ~ ~ / ~ ( ( _ _ _ ( _ _ _ _ _ _ _ _ ( ( _ _ _ _ } } [ } _ _ _ _ _ _ _ _ [ [ [ [ } } } } | | | | | | | | | |  . . . . . . . . . . . .| | } } _ _ _ _ ( ( ( ( _ _ ( ( / ( ( ( ( ( _ _ _ _ [ [ _ _ _ _ _ ( ( ( / / I I M M M M L L ) ) | ] S S M M S S Y Y ) ) / / L L D D S S H H Q Q ) ) ] ] $.$.] ] F F b b G G S S b b G G ) ) %.%.3.3.%.%.] ] S S b b N N S S b b b b / / ..] ] ] / / L L G G G G D D L L Y Y Y Y L L S S C C J J / / / / D D M M Z Z D D Y Y Y Y / / ( ( ( ( / / / / ~ ~ ~ ~ ~ / / / Y Y Y Y Y T ~ ~ ~ ~ / / / / ~ ~ ( ( ( ( ( ( _ _ [ [ ( ( ( ( _ _ ( ( ( ( ( ( ( ( ( ( / / ~ ~ Y Y Y Y Y Y Y Y Y Y Y Y Y Y Y Y Y Y Y Y I I I I J J J J J J D D P P D D D D D D D D D D D D D D L L J L L L L I L L L L I I I I I I D D U U I I I I Y Y Y Y Y Y Y Y Y Y Y Y I I I I J J J J J J J J I I I I I U U I I I J J D D D D D D D D U U I I U I I I J U U U I I I I I I U U I I I I I I U U D D D D D D D D D D D D D D D D Z Z Z Z Z Z Z Z M M M M M M M M M M M M M M M M M M M M M M ",
"R R R L F F F F L L E E L L / / G G S S G G G G S S b b B B F F ) ) ' ' R R L L H H F F S S x x l l b b M M G G L L G G L L G G G G L L #.#.7.9.-.-.@.@.%.%.#.#._ _ E E E E ) ) / / E Y ` ` ) ) ( ( _ _ | | | | | | } } ( ( / / ( ( ( ) _ _ ( ( ( ( ~ ~ Y Y / ~ / / ( ( ( ( ) ) _ _ _ _ ( ( ( ( ` ` ` ` ` ` ` ` | | | | o.o.o.o.| | | | | | | | | | | | | | | | | | } } ` ` | | | | | | ` ` | | | } | | | | | |  . .| | | | | | | | | | | | | |  . . . .| |  . . . .| | | | | | | | | | } } _ _ _ _ _ _ _ _ _ _ ) _ ( ( ( ) / / / / / / / / / / / / / / / / / / / / / ~ ( ( _ _ _ _ _ _ ( ( _ _ | | | | | | | | } } | | | | | | | |  . .#.#.#.#.#.#.#.#.#.#.O.O.#.#.#.#.O.O.O.O.#.#.O.O. . .| | | | } } | | | } } } [ [ _ _ _ ( [ [ } } | | | | | | | | | | | |  . .| | / / Y Y / / | | | | ) ) / / / / / / / / E E L L L L G G L L L L L L / / ) ) L L l l S S G G S S N N L L @.@.5.5.5.5.%.%.$.$._ _ G G F F F F F F F F B B G G L L L L G G S S F F L L L L L L Y Y / / / / ~ ~ / / ) ) _ _ _ _ ( ( ( ( [ [ | | | | _ [ ( ( ( ( ( ( ( ( ( ( _ _ ( ( ( ( / / / / / / ( ( ( ( ( / ( / / / _ _ ( [ [ [ _ ( ( ( [ [ } } } } } } } } } } } } [ [ ( ( ( ( / / ~ ~ ~ ~ Y Y Y ~ ~ ~ / / ~ ~ Y Y T T Y Y Y Y I I I I U U U U U U U U J U D D J D J J D D U U I I U U J J U U J J U U I U I I U U I I Y Y Y Y Y Y ~ ~ ~ ~ ~ ~ ~ ~ T T Y Y Y Y I I U U U U J J J J I I U U U U I I Y Y Y Y Y Y I Y I I Y Y Y Y I I U U P U D D D D Y I Y Y I I I I Y I Y Y Y Y I I U U U U U U U P D D D D D D D D D D D D D D D D D D D D D D S S M M M M M M C C S S S S S S ",
"R R L L F F F F L L E E L L / / G G S S G G G L S S b b N B F F ) ) ' ' L R L L H H F F S S x x l l b b M M G G L L G G L L G G G G L L #.#.9.9.-.-.@.@.%.%.#.#._ _ E E E E ) ) / / E E ` ` ) ) ( ( _ _ | | | | | | } } _ _ / / ( ( ) ) _ _ ( ( ( ( ~ ~ Y Y / / / / ( ( ( ( ) ) _ _ _ _ ( ( ( ( ` ` ` ` ` ` ` ` | | | | o.o.o.o.| | | | | | | | | | | | | | | | | | } } ` ` | | | | | | ` ` | | | } | | | | | |  . .| | | | | | | | | | | | | |  . . . .| |  . . . .| | | | | | | | } } } } _ _ _ _ _ _ _ _ _ _ ) _ ( ( ( ( / / / / / / / / / / / / / / / / / / / / / / ( ( _ _ _ _ _ _ ( ( _ _ | | | | | | | | } } | | | | | | | |  . .#.#.#.#.#.#.#.#.#.#.O.O.#.#.#.#.#.#.O.O.#.#.O.O. . .| | | | } } | | } } } } [ [ _ _ _ _ [ [ } } | | | | | | | | | | | |  . .| | / / ~ Y / / ] | | | ) ) / / / / / / / / E E L L L L G G L L L L L L / / ) ) L L l l S S G G S S N N L L @.@.5.5.5.5.%.%.$.$._ _ G G F F F F F F F F B B G G L L L L G G S S F F L L L L L L Y Y / / / / ~ ~ / / _ _ _ _ _ _ ( ( ( ( [ [ | | | | _ _ ( ( ( ( ( ( ( ( ( _ _ _ ( ( ( ( / / / / / / ( ( ( ( ( / / / / / _ _ ( ( [ [ ( ( ( ( [ [ } } } } } } } } } } } } [ [ ( ( ( ( / / ~ ~ ~ ~ Y Y Y ~ ~ ~ / / ~ ~ Y Y T T Y Y Y Y I I I I U U U U U U U U J J D D D D J J D D U U I U U U J U U U J J U U U U I I U U I I Y I Y Y Y Y ~ ~ ~ ~ ~ ~ ~ ~ T T Y Y Y Y I I U U U U J J J J I I J J U U Y I Y Y Y Y Y Y Y Y I I Y Y Y Y I I U U P P D D D D Y Y Y Y I I I I Y I Y Y Y Y I I U U U U U U P P D D D D D D D D D D D D D D D D D D D D D D S S M M M M M M M C S S S S S S ",
") ) / / F F F F / / ] ] ] ] #.#.@.@.] ] ) ) E E S S l l b b N N / / @.@.] ] _ _ ] ] ) ) G G S S S S S S S S L L Y ! / / / / / / / / / / ( ( ` ` _ _ ) ) ) ) ) ) _ ) ` ` ] ] | | | | | | | |  . .| | | | | |  . . . .| | | | | | } } _ _ ( ( ( ( ( ( _ _ } } _ _ ` ` } } | | | | | | | | | | | | | | | | o.o.O.O.O.O.O.O.O.O.#.#.#.#.O.O.o.o.| | | | o.o.o.| o.o.| | } ` | |  . . . . . .o.o.o. .o.o.@.o.#.#.#.#. . .| | } } ` ` } } | | | | | | | |  . . . .O.o.#.#.#.#.O.O.| | [ [ [ [ _ _ _ ( _ _ _ _ } } | | | | | | | | | | } } [ [ _ _ _ _ _ _ } } } | ( ( _ _ _ _ [ [ | | | |  . . . . .|  . .| | | | | | | |  . .| |  . . . .O.O.#.#.#.#.#.#.#.#.#.#.| | | | |  .| | | |  . . . . . .| | | | | | | |  . . . .| | | |  . .| | | | | | | | | | | | | | O.O.O.O.O.O.O.O.#.#.#.#.o.o. . .@.@.| | ] ] ] ] ] ] _ _ ) ) ` ` / / / / L L F F S S b b N N F F / / @.@._ _ _ _ 5.5.7.7.,.,.7.7.5.5.,.,.7.7.5.5.] ] ) ) ] ] ) ) G G S S M M b b S S G G L L E E _ ) _ _ ] ] ] ] ) ) / / _ _  . . . . . .| | | | | | | | | | } } } } [ [ [ [ _ [ [ [ ( ( _ [ [ ( } } } } [ [ [ [ _ _ ( ( ( ( ( ( _ _ _ _ ( ( ( ( ( ( ( ( ( ( ( ( ( ( / ( ( ( ( ( ( ( / / T T Y Y ~ ~ / / ~ ~ ~ ~ / / / ~ ~ ~ ~ ~ ~ ~ ~ ~ T T Y T T T T T T T ~ ~ Y Y Y Y Y Y Y Y Y Y ~ ~ ~ ~ ( ( ( ( ~ ~ ( ( ( / ~ ~ ( ( ~ ~ Y Y Y Y I I I I Y Y / / ( ( / / ~ ~ Y Y I I U U U U U U P P D D D D I I I I Y Y Y Y ~ ~ Y Y I I P D U U U U P P P P P P D P P P D D D D U U U U U U U U I I U U U U U U U U P U D D D D D D D D D D Z Z Z Z S S S S S S C Z M M M M Z Z M M M M M M Z Z S S S D ",
") ) / / F F F F / / ] ] ] ] #.#.@.@.] ] ) ) E E S S c c b b B B / / @.@.] ] _ _ ] ] ) ) G L S S S S S S S S L L Y ! / / / / / / / / / / ( ( ` ` _ _ ) ) ) ) ) ) _ _ ` ` ] ] | |  . .| | | |  . . . .| | | |  . . . .| | | | | | } | _ _ ( ( ( ( ( ( _ _ ` } _ _ ` ` } } | | | | | | | | | | | | | | | | o.o.O.O.O.O.O.O.O.O.#.#.#.#.O.O.| o.| | | | o.o.o.o.o.o.| | } ` | |  . . . . . .o.o.o. .o.o.@.o.#.#.#.#. . .| | } } ` ` } } | | | | | | | |  . . . .o.o.#.#.#.#.O.O.| | [ [ [ [ _ _ _ ( ( _ _ _ } } | | | | | | | | | | } } [ [ _ _ _ _ ( ( } } | | ( ( _ _ _ _ } } | | | |  . . . .| | |  .| | | | | | | |  . .| | |  . . .O.O.#.#.#.#.#.#.#.#.#.#.| | | |  . .| | | |  . . . . . .| | | | | | | |  . . . .| | | }  . .| | | | | | | | | | | | | | O.O.O.O.O.O.O.O.#.#.#.#.o.o. . .@.@.| | ] ] ] ] ] ] ` ` ) ) _ _ / / / / L L F F S S b b N N F F / / @.@._ _ _ _ 5.5.7.7.,.,.7.7.5.5.,.,.7.7.5.5.] ] ) ) ] ] ) ) G G S S M M b b S S G G L L E E ) ) _ _ ] ] ] ] ) ) / / _ _  . . . . . .| | | | | | | | | | } } } [ [ [ [ [ _ _ [ [ [ [ ( ( _ ( } } } } [ [ [ [ _ _ ( ( ( ( ( ( _ _ _ ( ( ( ( ( ( ( ( ( ( ( ( ( ( ( / ( ( ( ( ( ( ( / / T T Y Y / / / / ~ ~ ~ ~ / / / ~ ~ ~ ~ ~ ~ ~ ~ ~ T T T T T T T T T T ~ ~ I I Y Y Y Y Y Y Y Y ~ ~ ~ ~ ( ( ( ( ~ ~ ( / ( ( ~ ~ ( ( ~ ~ Y Y Y Y I I I I Y Y / / ( ( / / ~ ~ Y Y I I I U U U U U P P D D D D I I I I Y Y Y Y ~ T Y Y I I P P U U U U P P P P P P D P P P P D D D U U U U U U U U I I I I U U U U U U P U D D D D D D D D D D Z Z Z Z S S S S S S C Z M M M M Z C M M M M M M Z Z S S S S ",
"@.@.] ] / / R R / / R R L L ] ] @.@.$.$.#.#.$.$.#.#.] ] ] ] _ _ X.X.@.@.] ] _ ) _ _ ) ) L L G G G G L L L L ! ! ! ! / / ( ( ( ( ~ ~ / / ( ( ( ( ` ` } } ` ` ] ] _ _ _ _ _ _ } } } | | | _ _ } } } } | | | | | | | | | | } } } } [ [ _ _ ( ( ( ( ( ( ( ( ( ( _ _ } ` ` ` ] ] | | ` ` | ` | | } } | | | | o.o.o.o.O.O.O.O.O.O.o.o.o.o.| | | | | | | | | | | | } } ( ( ( ( } } | | } | } } | | ` ` | | | | o.o.o.o.| | | | } } ` ` _ _ _ _ ] ] | | | | |  . . .#.#.#.#.#.#.#.#. . .| | | | | |  . . . . . .#.#.#.#.#.#.#.#.#.#. . .| | | | | | } } } } } } | | | | | | | | } } } } | | | | | | | | } } | | | | | | | } | | } } [ [ } } | | | |  . .O.O. . . . . . . . . . . . . . . . . . . . . . . . .| |  . .O.O.#.#.O.O.| | | | | | | | | | | | | | | | } } | | | | | |  . . . .O.O. . . . . . .| | ) ) _ _ ) ) ) ) / / / / _ _ ) ) E E G G S S F F / / X.X.-.-.$.$...+.5.5.y.y.%.%./ / ] ] ....^ ^ +.+.7.7.,.,.@.@.$.%.-.-.X.X.) ) G G B B S S L L ) ) _ _ ) ) Y Y L L / / ) ) ) ) ] ]  . ._ _ _ _ _ _ _ _ _ _ _ _ ( _ ( ( ( ( ( ( [ [ [ [ } } } } } } } } } } } } } } } } } } } } [ [ [ [ } } _ _ [ [ [ [ _ _ [ [ _ _ [ [ } } [ [ _ _ _ _ ( ( / / T T Y Y ~ ~ ~ ~ / / / ~ / / ( ( ( ( ~ ~ ( ( ~ ~ / / ~ ~ ~ ~ T T T T T Y Y Y T T T T ~ ~ / / ( ( ( ( [ [ } } } } } } } } } } [ [ [ [ ( ( ( ( ~ ~ Y Y ~ ~ ( ( ( ( ( ( / / ~ ~ ~ ~ Y Y Y Y Y Y Y Y Y Y Y Y Y Y Y Y Y Y Y Y Y Y Y Y I I U U Y Y Y Y Y Y Y Y Y Y Y Y Y Y T T Y Y Y Y Y Y Y Y Y I I I I I I I J J J D D D D D D D S S S S S S M M M M M Z Z Z Z Z C C Z Z Z Z S S Z Z M M M M Z Z S S Z S ",
"@.@.] ] / / R R / / R R L L ] ] @.@.$.$.#.#.$.$.#.#.] ] ] ] _ _ X.X.@.@.] ] _ _ ] _ ) ) L L G D G G L L L L ! ! ! ! / / ( ( ( ( ~ ~ / / ( ( ( ( ` ` } } ` ` ] ] _ _ _ _ _ _ [ } } | | | _ _ | } } } | | | | | | | | | | } } } } [ [ _ _ _ _ ( ( ( ( ( ( ( ( _ _ ` ` ` ` ` ] | } ` ` | | | | } } | | | | o.o.o.o.O.O.O.O.O.O.o.o.o.| | | | | | | | | | | | | } } ( ( ( ( } } | | | | } } | | ` ` | | | | o.o.o.o.| | | | | } ` ` _ _ _ _ ] ] | | | |  . . . .#.#.#.#.#.#.#.#. . .| | | | | |  . . . . .O.#.#.#.#.#.#.#.#.#.#. . .| | | | | | } } } } } } | | | | | | | | } } } } | | | | | | | | } } | | | | | | } } | | | | [ [ } } | | | |  . .O.O. . . . . . . . . . . . . . . . . . . . . . . . .| |  . .O.O.#.#.O.O.| | | | | | | | | | | | | | | | } } | | | | | |  . . . .O.O. . . . . . .| | ) ) _ _ ) ) ) ) / / / / _ _ ) ) E E G G S S F F / / X.X.-.-.$.$.....5.5.y.y.%.%./ / ] ] ....^ ^ +.+.7.7.,.,.@.@.$.%.-.-.X.X.) ) G G B B S S L L ) ) _ _ ) ) Y Y L L / / ) ) ) ) ] ]  .| _ _ _ _ _ _ _ _ _ _ _ _ ( ( ( ( ( ( ( ( [ [ [ _ } } } } } } } } } } } } } } } } } } } } [ [ [ [ } [ _ _ [ [ [ [ _ _ [ [ _ _ _ [ } } [ [ _ _ _ _ ( ( / / T T Y Y ~ ~ ~ ~ / / / ~ / / / ( ( ( ~ / ( ( ~ ~ / / ~ ~ ~ ~ T T T T Y Y Y Y T T T T ~ ~ ( ( ( ( ( ( [ [ } } } } } } } } } } [ [ [ [ ( ( ( ( ~ ~ Y Y ~ ~ ( ( ( ( ( ( / / ~ ~ ~ ~ Y Y Y Y Y Y Y Y Y Y Y Y Y Y Y Y Y Y Y Y Y Y Y Y I I U U Y Y Y Y Y Y Y Y Y Y Y Y Y Y T T Y Y Y Y Y Y Y Y Y I I I I I I I J J J J D D D D D D S S S S S S M M M M M M Z Z Z Z C C Z Z Z Z S S Z Z M M M M Z Z S S Z Z ",
"@.X.] ] ] ] ] ] ] ] ) ) E E / / ] ] ] ] / / _ _ #.#.#.#.| | | | | | ` ` / / Y Y / / L L G G L L / / ) ) ) ) / / ! ! / / ( ) ` ` ( ( ( ( ) ( ` ` | | o.o. .o.| | | | ` ` _ _ ] ` } | ` ` } | | | } } | | | | | | | | } } [ [ [ [ _ _ _ _ _ _ _ ( ( ( / / / / _ _ ` ` _ _ ` ` ( ( ( ( ( ( ( ( ( ( ( ( ( ( ( ( ` ` } } | | | | | | | | O.O.O.O.O.O.O.O.O.O.O.O.o.o.o.| o.o.o.o.o.o.| | | | } } ` ` | |  . .o.o.o.o.o.o.| | | | ] ] ] ] | | | | | |  . .#.#.#.#.*.*.;.;.;.;.#.#.#.#.O.O.O.O.#.#.;.;.:.:.:.:.:.:.:.:.:.:.:.:.:.:.*.*.#.#.#.#.#.#.O.O.O.O.| | | | | | | | | | | | | |  . . . .O.O.O.O.O.O.O.O.O.O.O.O.O.O. . . . .| | | | | | O.O.#.#.*.*.#.#.#.#.*.*.*.*.*.*.*.*.*.*.#.#.*.*.*.*.#.#.O.O.O.O.#.#.#.#.#.#.#.#.#.#.O.O.O.O.#.#.#.#.#.#.O.O. . .| | | | | | | | } | | | | | | | ` `  . . . .| | ` ` Y Y G G G L L L / / / / E E L G G G E E $.$.8.7.5.5.$.$.] ] @.@.%.%.....R R R R ) ) K K ) ) ,.,.%.%.] ] ....$.$.9.9.-.-.] ] L L L L E E Y Y G G ] ] G G b b D D / / / / _ _  . .) ) _ ) _ _ _ _ _ ( _ _ _ _ _ _ _ ( [ [ } } | | | | | | | | | | | | | | | | | | | | | | | | | | | | | | | | | | | | | | | | | | | | | | | | | | } } [ [ ( ( / / ( ( ( ( ( ( ( ( _ _ ( _ ( ( [ [ _ ( [ [ ( ( ( ( ( ( ~ ~ ~ ~ ~ ~ ( ( ( ( ( ( ( ( ( ( [ [ [ [ } } | | } } } } } | | | } } } } } } } } ( ( / ~ ~ ~ / / ( ( ( ( ( ( / / ~ ~ Y Y Y Y Y Y Y Y Y Y I U U U I I Y Y Y Y Y Y Y Y Y Y I I Y Y Y Y Y Y Y Y Y Y T T Y Y T T Y Y Y Y Y Y Y Y I I Y Y Y Y Y Y J J U U J D D D D D S S S S Z Z M M M M Z Z S S S S S S D D D D D J D D S S S S S S Z S Z Z ",
"@.X.] ] ] ] ] ] ] ] ) ) E E / / ] ] ] ] / / _ _ #.#.#.#.| | | | | | ` ` / / E Y / / L L G G L L / / ) ) ) ) / / ! ! / / ( ( ` ` ( ( ( ( ) ) ` ` | | o.o. .o.| | | | ] ] _ _ ` _ } ] ` ` | | | | } } | | | | | | | | } } [ [ [ [ _ _ _ _ _ _ _ ( ( ( / / / / _ _ ` ` _ _ ` ` ( ( ( ( ( ( ( ( ( ( ( ( ( ( ( ( ` ` } } | | | | | | | | O.O.O.O.O.O.O.O.O.O.O.O.o.o.o.| o.o.o.o.o.o.| | | | } } ` ` | |  .| o.o.o.o.o.o.| | | | ] ] ] ] | | | | | |  . .#.#.#.#.*.*.;.;.;.;.#.#.#.#.O.O.O.O.#.#.;.;.:.:.:.:.:.:.:.:.:.:.:.:.:.:.*.*.#.#.#.#.#.#.O.O.O.O.| | | | | | | | | | | | | |  . . . .O.O.O.O.O.O.O.O.O.O.O.O.O.O. . . . .| | | | | | O.O.#.#.*.*.#.#.#.#.*.*.*.*.*.*.*.*.*.*.#.#.*.*.#.#.#.#.O.O.O.O.#.#.#.#.#.#.#.#.#.#.O.O.O.O.#.#.O.O.#.O.O.O. . .| | | | | | | | } | | | | | | | ` `  . .|  .| | ` ` Y Y G G L L L L / / / / E E L L G G E E $.$.8.7.5.5.$.$.] ] @.@.%.%.....R R R E ) ) K K ) ) ,.,.%.%.] ] ....$.$.9.9.-.-.] ] L L L L E E Y E G G ] ] G G b b D D / / / / _ _  . .) ) _ _ _ _ _ _ ( ( _ _ _ _ _ _ _ ( [ [ } } | | | | | | | | | | | | | | | | | | | | | | | | | | | | | | | | | | | | | | | | | | | | | | | | | | } } [ [ ( ( / / ( ( ( ( ( ( ( ( _ _ _ _ ( ( [ [ [ [ [ [ ( ( ( ( ( ( ~ ~ ~ ~ ~ ~ ( ( ( ( ( ( ( ( ( ( [ [ [ [ } } | | } } } } } | | | } } } } } } } } ( ( / ~ ~ ~ / / ( ( ( ( ( ( / / ~ ~ Y Y Y Y Y Y Y Y Y Y I I U U I I Y Y Y Y Y Y Y Y Y Y I I Y Y Y Y Y Y Y Y Y Y T T T Y T T Y Y Y Y Y Y Y Y I I Y Y Y Y Y Y J J U U J D D D D D S S S S Z Z Z Z M M Z Z S S S S S S D D D D J J D D S S S S S S Z S Z Z ",
"/ / E E / / _ _ ] ] _ _ _ ] _ _ X.X._ _ L L E E ] ] ] ] ` ` ] ] _ _ / / / / / / / / / / E E Y Y / / _ _ _ _ / / / / / / ( ( ) ) ) ) ( ( ) ) ` ` | | | | o.o.| | | | | ] ] ] | | | | | | | |  . . . . . . . . . .| | } } [ [ _ _ _ _ _ _ _ _ _ _ [ [ ` ` ` ` ` ` ` ` _ _ ( ( ( ( ( ( ( ( ( ( ` ` ` ` ` ` } } } } | | o.o.o.o.| | O.O.O.O.#.#.#.#.O.O.O.O.O.O.#.#.#.#.#.#.#.#.#.#.o.o.| | o.o.| | o.o.o.o.#.#.#.#.o.o.| | | | } } _ ` | | | { | | #.#.#.#.#.#.#.#.#.#.#.#.#.#.O.O.O.O.#.#.#.#.:.:.:.:.:.:.:.:.:.:.:.:.:.:.:.:.:.:.#.#.#.#.#.O.#.#.#.#.O.O. .|  .|  . . . . . . . .#.O.#.#.#.#.#.*.;.;.;.;.:.:.;.;.;.;.#.#.#.#.O.O.O.O.#.#.*.*.:.:.:.:.:.:.:.:.:.:.:.:.:.:.:.:.:.:.-.-.-.*.;.;.#.#.#.#.#.#.#.#.*.*.*.*.#.#.#.#.*.*.#.*.*.*.#.#.#.#.#.#.#.#. . . . .| | | | } } | | | | | | _ _  . .X.X.| | ` ` Y Y G G D F D D E E / / ) ) / / L L E E ....-.-.$.$.#.#.$.$.$.$.%.%.,.,.,.,.,.,.5.5.,.,.,.,.,.,.%.%.#.#.$.$.#.#.-.-.%.%._ _ G L G G / / _ _ ) ) / / S S M M D D E E / / _ _ | | _ _ _ _ ` ` ` ] } } [ [ } } | | | | | | | |  . . . . . .| | | | | | | | | | | | | | | | | | | | | | | | | | | |  . . . . . .| | | | | | | | | | | | | | } } ( ( _ _ ( ( [ [ } } } } } } [ } [ [ ( ( ( ( ( ( ( ( ( ( ( ( ( ( ( ( ( ( ( ( ( ( ( ( ~ ~ ( ( ( ( ( ( ( ( ( ( ( ( _ _ _ _ [ [ _ _ _ _ [ [ ( ( ~ ~ T T ~ ~ ~ / ~ ~ T T ~ ~ ~ ~ Y Y Y Y Y Y I I U P D D D D D D U J I I Y Y Y Y Y Y I I D D D D U U U U U U U U U U U U D D D D D D D D D D J J I I I I I I I I U U D D D D D D D D S S D D D D S D S S D D D D J U I I I I U U D D D D D D S S Z Z ",
"/ / E E / / _ _ ] ] _ _ _ _ _ _ X.X._ _ L L E E ] ] ] ] ` ` ] ] _ _ / / / / / / / / / / E E Y Y / / _ _ _ _ / ) / / / / ( ( ) ) ) ) ) ) ) ) ` ` | | | | o.o.| | | | | | ] ] | | | | | | | |  . . . . . . . . . .| | } } [ [ _ _ _ _ _ _ _ [ _ _ [ _ ` ` ` ` ` ` ` ` _ _ ( ( ( ( ( ( ( ( ( ( ` ` ` ` ` ` } } } } | | o.o.o.o.o.| O.O.O.O.#.#.#.#.O.O.O.O.O.O.#.#.#.#.#.#.#.#.#.#.o.o.| | o.o.| | o.o.o.o.#.#.#.#.o.o.| | | | } } ` ` | | | | | | #.#.#.#.#.#.#.#.#.#.#.#.#.#.O.O.O.O.#.#.#.#.:.:.:.:.:.:.:.:.:.:.:.:.:.:.:.:.:.:.#.#.#.#.#.#.#.#.#.#.O.O. .| | |  . . . . . . .O.#.O.#.#.#.#.*.*.;.;.;.;.:.:.;.;.*.;.#.#.#.#.O.O.O.O.#.#.*.*.:.:.:.:.:.:.:.:.:.:.:.:.:.:.:.:.:.:.-.-.*.*.;.;.#.#.#.#.#.#.#.#.*.*.*.*.#.#.#.#.*.*.*.*.*.*.#.#.#.#.#.#.#.#. . . . .| | | | } } | | | | | | _ _  . .X.X.| | ` ` Y Y G G D F D D E E / / ) ) / / L L E E ....-.-.$.$.#.#.$.@.$.$.%.%.,.,.,.,.,.,.5.5.,.,.,.,.,.,.%.%.#.#.$.$.#.#.-.-.%.%._ _ G G G G / / _ _ ) ) / / S S M M D D E E / / _ _ | | _ _ _ _ ` ` ` ` } } _ [ } } | | | | | | | |  . . . . . . . .| | | | | | | | | | | | | | | | | | | | | | | |  . . . . . . . .| | | | | | | | | | | | } | } } ( ( ( _ ( ( [ [ } } } } } } [ [ [ [ ( ( ( ( ( ( ( ( ( ( ( ( ( ( ( ( ( ( ( ( ( ( ( ( ~ ~ ( ( ( ( ( ( ( ( _ ( ( ( _ _ [ [ [ _ _ _ _ _ [ [ ( ( ~ ~ T Y ~ ~ ~ ~ ~ ~ T T ~ ~ ~ ~ Y Y Y Y Y Y I I U U D D D D D D U J I I Y Y Y Y Y Y I I D D P P U U U U U U U U U U U U D D D D D D D D D D J J I I I I I I I I U U J D D D D D D D S S D D D D D D S S D D D D U U I I I I U U D D D D D D S S Z Z ",
"G G S S S S D D G G L Y / / ] ] X.X.] ] ` ` ] ] ] ] _ _ _ _ ( ( / / / / _ _ _ _ / / ) ) ] ] / / ) ) ) ) ) ) ) ) / / / / ( ( Y Y ~ ~ ~ ~ / / ( ( ( ( } } } } ] ] ] ] ] ] | | | | | | | | | | @.@.O.O.O.O.O.O.O.O.| | | | } } [ [ _ _ _ _ [ _ } } | |  . .o.o. . .| | | | | | ` ` } } ` ` | | } ` | | | | | | | | | | O.O.#.#. . .| | | | | | | | | | | | } } } } } } | | o.o.| | | | | | | | | | | | | | o.o.| | | | ` ` ) ) ( ( ) ) _ _ | | | |  . . . .#.#. . . . . . . . .|  . . .O.O.#.#.*.*.*.*.#.#.#.#.#.#.#.#.#.#.#.#.O.O.| | | | | } | |  . .| | | | #.#.#.#.#.#.o.O. . . . .| | | | #.#.#.#.#.#.#.#.#.#.#.#.#.#.O.O. . . . .O.O.#.#.#.#.*.*.#.#.#.*.*.*.*.*.*.#.#.#.#.#.#.#.#.#.#.#. . .O.O.O.O.#.#.#.#.#.#.#.#.#.#.#.#.#.#.O.O. . . . . . . . .| | | | | } } } } } | | | | | | { { | | ) ) / / / / ) ) ) ) Y Y G G F F G G E E / / R R R R / / ] ] ) ) L L / / ....@.@.%.%.7.7.y.y.y.y.y.y.w.w.,.,.....] ] / / G G G G / / / / G G G G E E / / L L b b S S L L E E / / ) ) ) ) _ _ ) ) ( ( ( ) ) ( ( ( / / ) ) _ _ } } [ [ [ [ _ _ _ _ _ _ [ [ } } | | | | | | | | | | | | | } } } _ _ [ [ } } } } } } } } } } } } _ _ [ [ ( ( _ _ } } _ _ ( [ ( ( ( ( ( ( ( ( _ _ ( ( [ [ ( ( ( ( ~ ~ ~ ~ T T T T T T ~ ~ ( ( ( ( ~ ~ ~ ~ T T T T T T Y Y Y Y Y Y Y Y Y Y Y Y ~ ~ / / / / / / ( ( ( ( / / / ~ / / / ~ ~ ~ T T Y Y Y Y Y Y Y Y Y Y Y I I I U U J J D D D D D D I I I I I I I I U U D D S D D D D D D D D D D D D D Z Z Z Z Z Z S S D D D D D D U U I I Y I I I J J J D D D D D D D D D D D D D S S S S D D D D D D U U D D D D D D S S S S Z Z ",
"G G S S S S D D G G Y Y / / ] ] X.X.] ] ` ` ] ] ] ] _ _ _ _ ( ( / / / / _ _ _ _ / / ) ) ] ] / / ) ) ) ) ) ) ( ( / / / / ( ( Y Y ~ ~ ~ ~ / / ( ( ( _ } } } } ] ] ] ] ] ] | | | | | | | | | | @.@.O.O.O.O.O.O.O.O.|  .| | } } [ [ ( _ _ _ _ _ } } | |  . .o.o. . .| | | | | | ` ` } } ` ` | | | | | } | | | | | | | | O.O.#.#. . .| | | | | | | | | | | | } } } } } } | | o.o.| | | | | | | | ] ] | | | | o.o.o.| | | ` ` ) ) ( ( _ ) _ _ | | | |  . . . .#.#. . . . . . . . .| |  . .O.O.#.#.*.*.*.*.#.#.#.#.#.#.#.#.#.#.#.#.O.O.| | | | } } | |  . .| | | | #.#.#.#.#.#.O.O. . . . .| | | | #.#.#.#.#.#.#.#.#.#.#.#.#.#.O.O. . . . .O.O.O.#.#.#.*.*.#.#.#.*.*.*.*.*.*.#.#.#.#.#.#.#.#.#.#.#. . .O.O.O.O.#.#.#.#.#.#.#.#.#.#.#.#.#.#.O.O. . . . . . . . .| | | | } } } } } } | | | | | | { { | | ) ) / / / / ) ) ) ) Y Y G G F F G G E E / / R R R R / / ] ] ) ) L L / / ....@.@.%.%.7.7.t.t.y.y.y.y.w.w.,.,.....] ] / / G G G G / / / / G G G G E E / / L L b b S S L L E E / / ) ) ) ) _ _ ) ) ( ( ( ( ) ) ) ) / / ) ) ( ( } } [ [ _ [ _ _ _ _ _ _ _ _ } } | | | | | | | | | | | | | } } } _ _ [ [ } } } } } } } } } } } } _ _ [ [ [ ( _ _ } } _ _ ( ( ( ( ( ( ( ( ( ( _ _ ( ( [ [ ( ( ( ( ~ ~ ~ ~ T T T T T T ~ ~ ( ( [ [ ~ ~ ~ ~ T T T T T T Y Y Y Y Y Y Y Y Y Y Y Y ~ ~ / / / / ( / ( ( ( ( / / ~ ~ / / / / ~ ~ T T Y Y Y Y Y Y Y Y Y Y Y I I I U U J J D D D D D D I I I I I I I I U U D D D D D D D D D D D D D D D D Z Z Z Z Z Z S S D D D D D D U U Y Y Y Y I I J J J J D D D D D D D D D D D D S S S S D D D D D D U U D D D D D D S S S S Z Z ",
"B B j j d d j j b b S S Y Y ) ) ) _ ) ) ` ` | | ) ) / / | | [ [ _ _ ( ( _ _ ( ( / / _ _ { { ] ] ` ` ) ) ) ) _ _ _ _ ) ) ( ( / / / / / / ( ) _ _ _ _ _ _ } } ` ] ] ] ] ] | |  . . . . .| | | | | | | | |  . . . .| | | | | | [ [ ( _ ( ( _ _ } } | | O.O.#.#. . .|  .| | | | | | } | | | | | ` ` _ _ _ _ } } } } | |  . . . . . .| | | | } } [ [ ( ( ( ( ( ( ( ( ( ( ( ( ` ` ` ` ( ( ( ( ( ( ( ( ) _ ` ` | | ] ] ` ` ` ` ) ) ) _ _ _ _ _ _ _ | ] | | | | | | | | | | | |  . . . .O.O.#.#.#.#.#.#.#.#.#.#.#.#.O.O. . .| | | | } } [ [ ( ( ( ( } } | | | | | | #.#.o.o. . . . .| | | | | | } }  . . . .O.O.O.O.O.O.O.O.O.O. . .| | | | | | | |  . .O.O. . . . . . . . .|  . . . . . . . . . . .| | | | | | | |  . . . .| |  . . . .| | | | } } } } ` ` ` ` _ _ _ _ _ _ _ _ ( ( ( ( ( ( / / / / Y Y ) ) ] ] ] ] ) ) / / E E Y Y S S F F G G G G F F S S S S S S b b k k k k b b F F ] ] $.$.$.$.$.$.$.$.$.$...../ / S S l l d d b b S S F F S S B B S S B B b b B B G G E E Y Y L L Y Y ) ) _ _ / / / / E Y Y Y Y Y Y Y Y Y Y Y ~ ~ / / ~ ~ Y Y ~ ~ / / ( ( _ ( _ _ _ _ _ _ _ _ ( ( _ _ ( ( ( ( / / / / ( ( / / ( ( ( ( ( ( ( ( ( / ( ( / / / / ( ( / / ~ ~ ~ ~ / / ( ( ( ( ( ( ( ( ( ( ( ( ( ( ( ( ( ( ~ ~ T T T T ~ ~ ~ ~ ~ ( ~ ~ ~ ~ ~ ~ Y Y Y Y Y Y Y Y Y Y I I I I I I Y Y Y Y ~ ~ ~ ~ / / / / ~ ~ / / / / / / ~ ~ Y Y Y Y I I I I J J J J I I I I Y Y I I L L D D D D D D D D D D S S S S S S S S S S D D P P D J D D J D S S S S S S D D D D D D D D D D U U U U U U D D D D D D D D D D S S S S Z Z Z M M M C M Z Z Z Z S S S S D D D D S S Z Z Z Z ",
"B B j j d d j j b b S S Y Y ) ) _ _ ) ) ` ` | | ) ) / / | | _ [ ( ( ( ( _ _ ( ( / / _ _ { { ] ] ` ` ) ) ) ) _ _ _ _ ) ) ( ( / / / / / / ( ) _ _ _ _ _ _ } } ] ] ] ] ] ] | |  . . . .| | | | | | | | | |  . . . .| | | | | | [ [ ( _ ( ( _ _ } } | | O.O.#.#. . . . .| | | | | | } } | | | | ` ` _ _ _ _ } } } } | |  . . . . . .| | | | } } [ [ ( ( ( ( ( ( ( ( ( ( ( ( ` ` ` ` ( ( ( ( ( ( ( ( _ ` ` ` | | ] ] ` ` ` ` ) ) ) ) _ _ _ ) _ _ | | | | | | | | | | | | | |  . . . .O.O.#.#.#.#.#.#.#.#.#.#.#.#.O.O. . .| | | | } } [ [ ( ( ( ( } } | | | | | | #.#.o.o. . . . .| | | | | | } }  . . . .O.O.O.O.O.O.O.O.O.O. . .| | | | | |  . . . .O.O. . . . . . . . . . . . . . . . . . . . .| | | | | | |  . . . . .| |  . . . .| | | | | | } } ` ` ` ` _ _ _ _ _ _ _ _ ( ( ( ( ( ( / / / / Y Y ) ) ] ] ] ] ) ) / / E E Y E S S F F G G G G F F S S S S S S b b k k k k N N F F ] ] $.$.$.$.$.$.$.$.$.$...../ / S S l l d d b c S S F F S S B B S S B B b b B B G G E E Y Y L L Y Y ) ) _ _ / / / / E Y Y Y Y Y Y Y Y Y Y Y ~ ~ / / ~ ~ Y Y ~ / / / ( ( _ ( _ _ _ _ _ _ _ _ ( ( _ _ ( ( ( ( / / / / ( ( / / ( ( ( ( ( ( ( ( ( ( ( ( / / / / ( / / / ~ ~ ~ ~ / / ( ( ( ( ( ( ( ( ( ( ( ( ( ( ( ( ( ( ~ ~ T T T T ~ ~ ~ ~ ~ ~ ~ ~ ~ ~ ~ ~ Y Y Y Y Y Y Y Y I I I I I I I I Y Y Y Y ~ ~ ~ ~ / / / / ~ / / / / / / / ~ ~ Y Y Y Y I I I I J J J J I I I I Y Y I I L L D D D D D D D D D D S S S S S S S S S S D D D D D D D D J D S S S S S S D D D D D D D D D D U U U U U U D D D D D D D D D D D D S S Z Z Z M M M C C Z Z Z Z S S S S D D D D S S Z Z Z Z ",
"b b d d w w p p c c S S J J E E / / / / _ _ ` ` _ ( _ _  . . . . . . . . . .| | | |  . .@.@.| | | | ] ] ] ] ] ] ` ` _ _ ( ( _ _ _ _ _ _ ( ( ( ( ( ( _ _ | | | | ` _ _ _ ] ] | | | | | | | | _ _ _ _ _ _ } } } } } } } } [ [ ( ( ( ( ( ( ( _ _ _ } } | |  . .| | } } _ _ _ _ _ ( ( ( ( ( _ _ | | | | | | | | | |  . . . .O.o.| | | | | | } } [ [ ( ( ( ( ( ( } } ( ( ` ` } | | | ` ` ( ~ ~ ~ ~ ~ / / ( ( ( ( _ ( ( ( ( ( ( ( ` ` _ _ _ _ _ _ _ _ _ _ _ _ _ _ ] | } | | } | | | |  . .#.#.#.#.O.o.O.O. . .| | | | | | } } ` ` _ _ ( ( ( ( ( ( } } } } | | | | | | | | | | | | | | | | | | | |  . . . . . . . . . .O.O.O.O.O.O.| | | | | | } } | | | | } | } } [ [ } } } } } } } } | | | | | | _ _ [ [ [ [ } | | | } } } } } } } } ` ] _ _ _ _ _ _ _ _ _ ( / / / / ~ ~ ~ ~ ~ ~ / / / / Y Y Y Y Y Y _ _ | | ] ] / / L L G G G G L L L L G G F F N N l l k k k k l l S S L L R R ) ) ] ] ) ) G G ^ ^ ^ ^ R R / / ) ) / / E E ) ) G G B B l l d d k k B B G G L L G G D D F F D D L L Y Y / / ) ) / / E E Y Y Y Y E E / / Y Y Y Y Y Y Y Y Y Y Y Y / / / / / / / / ~ ~ / / / / / / / / / ~ Y Y ~ ~ Y T Y Y Y Y T T ~ ~ ~ ~ / / / / ~ ~ T T Y Y Y Y Y Y Y Y Y Y Y Y T T ~ ~ / / ( ( ( ( ( ( ( ( ( ( ( ( ( ( ~ ~ ~ ~ ~ ~ ~ ~ ~ ~ ~ ~ ~ ~ T T T T Y Y Y Y Y Y Y Y I I U U J J J D D D I I Y Y Y Y Y Y Y Y Y Y Y Y Y Y Y Y I I I I I L D D S S S S S S D D D D D D D D L L D D D D S S S S S S C C M M C C Z Z S S D D D D D D D D D D D D D D D D D D D D D D D D D D S S S S S S S S S S S S S S S S C C C C M M M M M M M M M M M M Z Z S S S S D D S S S S C C ",
"b b d d w w p p c c S S J J E E / / / / _ _ ` ` _ ( _ _  . . . . . . . . . .| | | |  . .@.@.| | | | ] ] ] ] ] ] ` ` _ _ ( ( _ _ _ _ _ ) ( ( ( ( ( ( _ _ | } | | ` _ _ _ ] ] | | | | | | | | _ _ _ _ _ _ } } } } } } } } _ _ ( ( ( ( ( ( ( _ _ _ } } | |  . .| | } } _ _ _ _ ( ( ( ( ( ( _ _ | | | | | | | | | |  . . . .O.o.| | | | | | } } [ [ ( ( ( ( ( ( } } ( ( ` ` } } | | ` ` ~ ~ ~ ~ ~ ~ / / ( ( ( ( ( ( ( ( ( ( ( ( ` ` _ _ _ _ _ _ _ _ _ _ _ _ _ _ | | } } | | | |  .|  . .#.#.#.#.O.O.O.O. . .| | | | | | } } ` ` _ ( ( ( ( ( _ _ } } } } | | | | | | | | | | | | | | | | | | | |  . . . . . . . . . .O.O.O.O.O.O.| | | | | | } } | | | | } | } } } [ } } } } } } } [ | | | | | | _ _ [ [ } [ } } | | } } } } } } } } ] ] _ _ _ _ _ _ _ _ _ ( / / / / / / ~ ~ ~ ~ ~ / / / Y Y Y Y Y Y ` _ | | ] ] / / L L G G G G L L L L G G F F N N k l k k k k l l S S L L R R ) ) ] ] ) ) G G ^ ^ ^ ^ R R / / ) ) / / E E ) ) G G B B l l d d k k B S L G L L G G D D F F D D L L Y Y / / ) ) / / E E Y Y Y Y E E / / Y Y Y Y Y Y Y Y Y Y Y Y / / / / / / / / ~ ~ / / / / / / / / ~ ~ Y Y ~ ~ Y Y Y Y Y Y T T ~ ~ ~ ~ / / / / ~ ~ T T Y Y Y Y Y Y Y Y Y Y Y Y T T ~ ~ / / ( ( ( ( ( ( ( ( ( ( ( ( ( ( ~ ~ ~ ~ ~ ~ ~ ~ ~ ~ ~ ~ ~ ~ T T T T Y Y Y Y Y Y Y Y I I U U J J J J J D I I I Y Y Y Y Y Y Y Y Y Y Y Y Y Y Y I I I I L L D D S S S S S S D D D D D D D D J J D D D D S S S S S S C C M M C C S Z S S D D D D D D D D D D D D D D D D D D D D D D D D D D S S S S S S S S S S S S S S S S C C C C M M M M M M M M M M M M Z Z S S D S D D S S S S C C ",
"B B l l p p p p j l c c c c M M I I / / [ [ | | [ [ _ _ { { | |  . . . . . . . . . . . . . .@.@. . . .| | | | | _ _ _ _ / / / / / / Y Y Y Y I I Y Y Y ~ / / _ _ ( ( / / / / / / / / ( ( / / _ _ _ _ ( ( _ _ _ _ _ _ _ _ / / / / / / / / ( ( ( ( _ _ _ _ _ _ ( ( ( ( / / / / / / / / / / / / / ( ( ( ( ( _ ( _ _ _ _ | | | | | | } } } } [ [ ( ( ( ( ( ( ( ( ( ( ~ ~ ( ( | | | | ] | ( ( ~ ~ Y Y ~ ~ ~ ~ ~ ~ ~ ~ / / / / / / ` ` _ _ ( ( ( ( / / / / / / ~ / / / / / ( ( ( ( ` ` | | | | | |  . .| | | | } } ` ` ( ( ( ( ~ ~ ( ( ( ( ( ( ( _ ( ( _ _ ` ` } } | | | | | | | | | | | | | | | | | | | | | | | | | | | |  .|  . .[ _ _ _ _ _ ( ( _ _ _ _ _ _ ( ( / / ( ( / / ( ( ( ( / / ( ( ( ( / / ( ( ( ( _ _ _ _ _ ( _ _ _ _ / / / / / / / ( ( ) / / ~ ~ Y Y Y Y Y Y Y Y / / ) ) _ _ _ _ _ _ ) ) ) ) / / / / ) ) / / F F d d d k b b S S F F F F F F L L / / / / / / ) ) ] ] ) ) F F N N G G ] ] ) ) L L S S F F / / ) ) _ _ / / L L G G L L R L L L F F S S b b l l l l G G ) ) _ _ ) ) / / / / / E Y Y Y Y / / / / / / Y Y I I I I Y Y Y Y Y Y Y Y Y Y Y Y I I Y Y Y Y Y Y Y Y Y Y Y Y Y Y Y Y Y Y Y Y Y Y Y Y Y Y Y Y Y Y I Y I I U U I I Y Y Y Y I I I I I I Y I Y Y ~ ~ ~ ~ ~ ~ ~ ~ ~ ~ Y Y T T T T ~ ~ T T T T Y Y Y Y U U Y Y U U U U U U U U D J J U D D D D D D D D D D D D J J J J L L I I J L J J D J D D D D D S D D S S C C C C C C S S S S D D D D S S S S S S S S C C S S M M M M M M M M S S S S S S Z Z Z Z S S S S S S S S S S D D S S S S M M M M M M M M M M M M M M M M M M M M M M M M M M M M Z Z Z Z S S D D D D D D D D S S S S ",
"B B l l p p p p j j c c c c M M I I / / [ [ | | [ [ _ _ { { | |  . . . .O. . . . . . . . . .@.@.|  . . .| | | | _ _ _ _ / / / / / / Y Y Y Y I I Y Y Y ~ / / _ _ ( ( / / / / / / / / ( ( / / _ _ ) ) _ ( _ _ _ _ _ _ _ _ / / / / / / / / ( ( ( ( _ _ _ _ _ _ ( ( ( ( / / / / / / / / / / / / / / ( ( ( ( _ _ _ _ _ [ | | | | | | } } } } [ [ ( _ ( ( ( ( ( ~ ( ( ( ~ ( ( | } | | ] ] ( ( ~ ~ Y ! ~ ~ ~ ~ ~ ~ ~ ~ / / / / / / ` ` _ _ ) ( ( ( / / / / / / ~ / / / / / ( ( ( ( ` ` | | | | | |  . .| | | | } } ` ` ( ( ( ( ~ ~ ( ( ( ( ( ( ( ( ( ( ( _ ` ` } } | | | | | | | | | | | | | | | | | | | | | | | | | | | |  .|  . .[ [ _ _ _ _ ( ( _ _ _ _ _ _ ( ( / / / / / / ( ( ( ( / / / ( ( ( / / ( ( ( ( _ _ _ _ _ _ _ _ _ _ / / / / / / ( ( ( ) / / ~ ~ Y Y Y Y Y Y Y Y / / ( ( _ _ _ _ ) ) ) ) ) ) / / / / ) ) / / F F d d k k b b S S F F F F F F L L / / / / / / ) ) ] ] ) ) F F N N G G ] ] ) ) L L S S F F / / ) ) _ _ / / L L G G L L R L L L F F S S b b l l l l G G ) ) _ _ ) ) / / / / E E Y Y Y Y / / / / / / Y Y I I I I Y Y Y Y Y Y Y Y Y Y Y Y I I Y Y Y Y Y Y Y Y Y Y Y Y Y Y Y Y Y Y Y Y Y Y Y Y Y Y Y Y Y Y I I I U U U I I Y Y Y Y I I I I I I Y Y Y Y ~ ~ ~ ~ ~ ~ ~ ~ ~ ~ Y Y T T T T ~ ~ T T T T Y Y Y Y U U Y Y U U U U U U U U D J J U D D D D D D D D D D D D J J J J L L I I J J J J D J D D D D S S D D S D C C C C C C S S S D D D D D S S S S C S C C C C C C M M M M M M M M S S S S S S Z Z Z Z S S S S S S S S S S D D S S S S M M M M M M M M M M M M M M M C M M M M M M M M M M M M Z Z Z Z S S D D D D D D D D S S S S ",
"L L L L B B p p 6 6 p p n n D D Y Y / / _ _ _ _ _ _ [ [ [ [ [ [ [ [ [ [ [ [ [ [ | | | | | |  . . . . . . . . . .| | { { ] ] ) ) / / ~ ~ Y Y Y Y Y I I I Y Y L L Y Y / / / / Y Y I I Y Y / / / / / / / / _ _ _ _ _ _ / / / / ( ( / / ( ( ( ( _ _ _ _ ( ( ( ( ( ( ( ( ( ( _ _ _ _ ( ( ( ( / / _ _ ( ( ( ( / / ( ( ( ( _ _ _ _ ( ( / / ~ ~ T Y Y Y T T ~ ~ ~ ~ ~ ~ ~ ~ ( ( ( ( ( ( ( ( ~ ~ ~ ~ Y Y Y Y Y Y Y Y Y Y Y Y Y Y Y Y ! ! ! ! ! ! / / ! ! ~ ~ ! ! Y Y ~ ~ ~ ~ ~ ~ ~ ~ / / ( ( _ _ ` ` ( ( ( ( ~ ~ ~ ~ ~ ~ ~ ~ ~ ~ ~ ~ ~ ~ ~ ~ ~ ~ ( ( ( ( ( ( ( ( ( ( / / / / ( ( _ _ } } } } } } } } _ _ } } | | [ } } } } } } } ( ( ( ( ~ ~ Y Y Y T / / ( ( ~ / Y Y Y Y Y Y Y Y Y Y ~ ~ ~ ~ ~ ~ ~ ~ Y Y ~ ~ ~ ~ / / / / / / / / Y Y / / I I Y Y / / Y Y Y Y / / Y E Y Y Y Y D D L L E E ) ) Y Y D D D D E E Y Y L L ) ) X.X._ _ L L G G F F F F L L ) ) ...._ _ R R S S B N F F / / / / R R E E ) ) / / R R R R R ^ L L R R / / E E F F S S S S L L ] ] ) ) R R R R S S S S L L E E _ _ _ _ L L G G E E L L D D L L E E L L G G L L Y Y Y Y / / ) ) / / D D D D Y I I I D D D D L L Y Y I I D D J J I I U U J J J J D D D D D D S S U U J J D D J J I I Y Y Y Y J J D D I I Y Y ~ ~ / / ~ ~ ~ ~ T T ~ ~ ~ ~ ~ ~ ~ ~ T T Y Y Y Y Y Y U U U U D D D D J J D D D D J J D D D D D D D D D D C C S S S S D D G D D D D D D D J J D D C C C C D D D D S S C C D D D D S S S S S S S S S S S S C C C C M M C C Z C M M M M C M S S S S S S D D D D D D D D D D D D D D D D S S S S S S S S S S S S M M M M Z Z S Z S S D D D D D D D D D D D D D D S S S S S S Z Z Z Z ",
"L L L L B B p p 6 6 p p n n D D Y Y / / _ _ _ [ _ _ [ [ [ [ [ [ [ [ [ [ [ [ { [ | | | | | |  . . . . . . . . . .| | { { ] ] ) ) / / ~ ~ Y Y Y Y I I I I Y Y L L Y Y / / / / Y Y I I Y Y / / / / / / / / _ _ _ _ ( ( / / / / ( ( / / ( ( ( ( _ _ _ _ ( ( ( ( ( ( ( ( ( ( _ _ _ _ ( ( ( ( / / _ _ ( ( ( ( / / ( ( ( ( _ _ _ _ ( ( / / ~ ~ Y Y Y Y T T ~ ~ ~ ~ ~ ~ ~ ~ ( ( ( ( ( ( ( ( ~ ~ ~ ~ Y Y Y ! Y Y Y Y Y Y Y Y ! ! Y Y ! ! ! ! ! ! / / ! ! ~ ~ ! ! Y Y ~ ~ ~ ~ Y Y ~ ~ / / ( ( _ _ ` ` ( ( ( ( ~ ~ ~ ~ ~ ~ ~ ~ ~ ~ ~ ~ ~ ~ ~ ~ ~ ~ ( ( ( ( ( ( ( ( ( ( / / / / ( ( _ _ } } } } } } } } _ _ } } | | } } } } } } } } ( ( ( ( ~ ~ Y Y Y Y / / ( ( ~ / Y Y Y Y Y Y Y Y Y Y Y ~ ~ ~ ~ ~ ~ ~ Y Y ~ ~ ~ ~ / / / / / / / / Y Y / / I I Y Y / / Y Y Y Y / / Y Y Y Y Y Y J J L L E E ) ) Y Y D D D D E E Y Y L L ) ) X.X._ _ L L G G F F F F L L ) ) ...._ _ R R S S B N F F / / / / R R E E ) ) / / R R R R R ^ L L R R / / E E F F S S S S R R ] ] ) ) R R R R S S S S L L E E _ _ _ _ L L G G E E L L D D L L E E L L G G L L Y Y Y Y / / ) ) / / D D D D I I I I D D D D L L Y Y I I D D J J I I I I J J J J D D D D D D S S U U J J D D J J I I Y Y Y Y J J J J I I Y Y ~ ~ / / ~ ~ ~ ~ T T ~ ~ ~ ~ ~ ~ ~ ~ T T Y Y Y Y Y Y U U J U D D D D J J D D D D J J D D D D D D D D D D C C S S S S D D G D D D D D D D J J D D C C C C D D D D S S C C D D D D S S S S S S S S S S S S C C C C M M C C Z Z M M M M C C S S S S S S D D D D D D D D D D D D D D D D S S S S S S S S S S S S M M M M Z Z S Z S S S S D D D D D D D D D D D D S S S S S S Z Z Z Z ",
"G G S S M M j j 6 6 p p c c M M D D Y Y _ _ { [ [ [ ( _ ( ( ( ( ( ( ( ( ( ( ( ( _ _ [ _ [ [ |  .| | | | | | | | | | | { | | _ _ ( ( / / / / Y Y Y Y Y Y Y Y L L Y Y Y Y ~ Y Y Y Y Y Y Y / / ~ / / / / / ( ( ( ( _ _ ( ( ( ( ` ` _ _ ` ` ` ` } } _ _ _ _ ( ( ( ( ( ( ( ( ( ( ( ( _ _ ( _ _ _ } } _ _ ( ( ( ( _ _ _ _ } } } } [ [ ( ( ( ( / / ( ( ( ( ( ( ( ( _ _ ` ` ( ( ( ( ~ ~ ~ ~ ! Y Y Y L Y L Y L L Y L Y Y Y Y Y Y Y Y Y Y ! ! ! Y Y Y Y Y Y Y Y Y L L Y Y L L L L Y Y ! ! / / / / ( ( ~ ~ ~ ~ Y Y Y Y U Y Y Y Y Y Y Y ~ ~ ~ ~ ~ ~ ~ ~ ~ ~ ~ ~ ~ ~ ~ ~ ( ( ( ( ( ( _ _ _ _ ( ( ( _ ( ( } } } } | | _ _ _ _ } } } } ( ( _ _ / / Y Y Y Y Y Y Y Y Y Y I I I I I I Y Y Y Y I I Y Y Y Y Y Y Y Y Y Y Y Y Y Y Y Y Y Y Y Y Y Y Y Y I I Y Y Y Y L J L L ] ] @.@.@.@. .X.) ) Y Y L L L L S S n n D D / / | X.X.X.) ) L L L L L L F F S S R R @.@.....S S d d d d < < d d S S / / ) ) / / _ _ $.$.) ) ) ) ] ] @.@.X.X._ _ / / E E S S l l w w 3 3 0 0 b b R R @.@./ / G G F F G G G G G G G F _ _ ] ] _ _ L L B B S S F F D D L L ) ) | | @.@.| | / / Y I L L Y Y ) ) Y Y Y Y L L L L D D L L ! ! L L J J J J J J J J J J G G D D U U J J J J J J Y Y Y Y U U J J J J I I Y Y ~ ~ ~ ~ ~ ~ / / ~ ~ U U I Y Y Y T T T Y Y Y T T ~ ~ U U J J J J J J J J J J J J J J G G D D D D D D D D S D D D D D D D D D D D D D G G G G D D C C D D D D D D D D D D D D D D D D S S S S S S S S S S S S S S S S S S S S S S S S S S S S D D D D J D D D D D D D D D D D D D D D D D D D S S S S S S S S S S S S S D S S D D D D D D D D D D D D S S Z Z Z Z S Z Z Z S Z M M ",
"L G S S M M j j 6 6 p p c c B B D D E Y _ _ [ [ [ [ ( ( ( ( ( ( ( ( ( ( ( ( ( ( _ _ [ _ [ [ | | | | { | | | | | | | | { | | _ _ ( ( / / / / Y Y Y Y Y Y Y Y L L Y Y Y Y ~ Y Y Y Y Y Y Y / / / / / / ( / ( ( ( ( _ _ ( ( ( ( } } _ _ ` ` ` ` } } _ _ _ _ ( ( ( ( ( ( ( ( ( ( ( ( _ _ ( _ _ _ } } _ _ ( ( ( ( _ _ _ _ } } } } [ _ ( ( ( ( / / ( ( ( ( ( ( ( ( _ _ ` ` ( ( ( ( ~ ~ ~ ~ ! Y Y Y L Y L L L L Y Y Y Y Y Y Y Y Y Y ! Y ! ! ! Y Y Y Y ! Y Y Y Y L L Y Y L L L L Y Y ! ! / / / / ( ( ~ ~ ~ ~ Y Y Y Y U Y Y Y Y Y Y Y ~ ~ ~ ~ ~ ~ ~ ~ ~ ~ ~ ~ ~ ~ ~ ~ ( ( ( ( ( ( _ _ _ _ ( ( ( ( ( ( } } } } } | _ _ _ _ } } } } ( ( _ _ / / Y Y Y Y Y Y Y Y Y Y I I I I I I Y Y Y Y I I Y Y Y Y Y Y Y Y Y Y Y Y Y Y Y Y Y Y Y Y Y Y Y Y I I Y Y Y Y L J L L ] ] @.@.@.@. . .) ) Y Y L L L L S S n n D D / / | | X.X.) ) L L L L L L F F S S R R @.@.....S S d d d d < < d d S S / / ) ) / / _ _ $.$.) ) ) ) ] ] @.@.X.X._ _ / / E E S S l l w w 3 3 0 0 b b R R @.@./ / G G F F G G G G G G F F _ _ ] ] _ _ L L B B S S F F D D L L ) ) | | @.@.| | / / Y Y L L Y Y ) ) Y Y Y Y L L L L D D L L Y Y L L J J J J J J J J J J G G D D U U J J J J J J Y Y Y Y U U J J J J I I Y Y ~ ~ ~ ~ / ~ ~ ~ ~ ~ I U Y Y Y Y T T T T Y Y T T ~ ~ U U J J J J J J J J J J J J J J G G G D D D D D D D D D D S D D D D D D D D D D G G G G D D C C D S D D D D D D D D D D D D D D S S S S S S S S S S S S S S S S S S S S S S S S S S S S D D D D L D D D D D D D D D D D D D D D D D D D S S S S S S S S S S S S D D S S D D D D D D D D D D D D S S Z Z Z Z S Z Z Z S Z M M ",
"/ / L L S S c c d d c c D D S S D D Y Y _ _ _ _ [ [ ( ( T T / / / / W W ( ( ( ( ( ( _ _ [ [ | | ] ] ] | | | { { { | | | | | _ _ ( ( / / / / / / Y Y Y Y Y Y Y Y Y Y / / ( ) _ _ _ _ _ ( ( ( / / ( ( ( _ _ _ } } ` ` ` ` } } | | ` ` ] ` | | | ] } } _ _ _ _ / / / / / ( ( ( ( / _ _ _ _ [ [ } } _ _ _ _ ( ( _ _ } } } } } } _ _ _ _ ( ( ( ( ( ( ( _ _ _ _ _ } } ` ` _ ` ( ( ~ ~ ! ! Y Y Y Y Y Y Y Y ! ! Y Y ! ! ! ! ! ! ! ! ! ! ! ! ! ! ~ ! ! ! Y Y Y Y Y Y L L L L Y Y Y Y ! ! ~ ~ ~ ~ ~ ~ / / ~ ~ ~ ~ Y Y Y Y Y Y Y ! ~ ~ Y Y ~ ~ ~ ~ ~ ( ( ( / / ( ( ( ( ~ ~ / / ( ( _ _ } } ] ] | | | } | | | | } } _ ( [ [ } } } } _ _ _ _ ) ) / / Y Y Y Y / / / / ~ ~ Y Y / / / / / / Y ~ ~ ~ / / / / / / Y Y Y Y Y Y Y Y I I Y Y / / / / / / _ _ ] ] / / E E ) ) | | ) ) | | | | / / L L G G G G L L E E / / @.@.%.%./ / l l k k b b F F N N / / ,.,.%.%.S S < - ; ; d d d d k k N N b b N b L L ....%.%.,.,.,.,.%.%.....S S d d d d l l p p d d p p < < l l ] ] 5.5.@.@.L L B N B B N N l l S S %.$.#.#._ _ L L G G E E / / L L E E ) ) ] ] _ _ L L B B D D E E ) ) / / / / / / / / Y Y F F S S J J L L L L Y Y Y Y Y Y Y Y Y Y L L G G J J J J J J J J J J J J L L Y Y Y Y Y Y Y Y ~ ~ ~ ~ / / / / T T ~ ~ / / ( ( / / ~ ~ ~ ~ ~ ~ Y Y J U J J J J J J J J J J J J J J G G D D D D D D D D D D D D C C C C S S S S D D S S S S S S G G D D D S D D D D D D S S D D S S S S S S C C S S S S S S S S S S S S S S S S S S S S D D D D L L D D D D D D J J L L D D D D D D D D D D D D D D D D D D D D D D D D D D D D D D D D D D D D S S S S S S D D D D D D S S ",
"/ / L L S S c c d d c c D D S S D D Y Y _ _ [ _ [ [ ( ( T T / / / ( / W ( ( ( ( ( ( _ _ [ [ } | ] ] ] ] | | | | { | | | | | _ _ ( ( / / / / / / Y Y Y Y Y Y Y Y Y Y / / ) ) _ _ _ _ _ ( ( ( / / ( ( ( ( _ _ } } ` ` ` ` } } | | ` ` ` ` | | | ] } } _ _ ( _ / / / / / / ( ( ( ( _ _ _ _ [ [ } } _ _ _ _ ( ( _ _ } } } } } } _ _ _ _ ( ( ( ( ( ( ( ( _ _ _ _ | } ` ` ( ( ( ( ~ ~ ! ! Y Y Y Y Y Y Y Y ! ! ! Y ! ! ! ! ! ! ! ! ! ! ! ! ! ! ~ ! ! ! ! ! Y Y Y Y L L L L Y Y Y Y ! ! ~ ~ ~ ~ ~ ~ / / ~ ~ ~ ~ Y Y Y Y Y Y Y Y ~ ~ Y ! ~ ~ / ~ ~ ( ( ( / / ( ( ( ( ~ ~ / / ( ( _ _ } } ] | | | } } | | | | } } _ ( [ [ } } } } _ _ _ _ ) ) / / Y Y Y Y / / / / ~ ~ Y Y / / / / / / ~ ~ ~ ~ / / / / / / Y Y Y Y Y Y Y Y I I Y Y / / / / / / _ _ ] ] / / Y E ) ) | | ) ) | | | | / / L L G G G G L L E E / / #.#.%.%./ / l l k k b b F F N N / / ,.,.%.%.S S - - ; ; d d d d k k N N b N N N L L ....%.%.,.,.,.,.%.%.....S S d d d d l l p p d d p p < < l l ] ] 5.5.@.@.L L B N B B N N l l S S $.$.#.#._ _ L L G G E E / / L L E E ) ) ] ] _ _ L L B B D D E E ) ) / / / / / / / / Y Y S F S S L L L L L L Y Y Y Y Y Y Y Y Y Y L L G G J J J J J J J J J J J J L L Y Y Y Y Y Y Y Y ~ ~ ~ ~ / / / / T T ~ ~ / / ( ( / / ~ ~ ~ ~ ~ ~ Y Y J U J J J J J J J J J J J J J J G G D D D D D D D D D D D D C C C C S S S S D D S S S S S S G G D D D S D D D D D D S S D D S S S S S S C C S S S S S S S S S S S S S S S S S S S S D D D D L L D D D D D D L L L L D D D D D D D D D D D D D D D D D D D D D D D D D D D D D D D D D D D D S S S S S S D D D D D D S S ",
"_ ] / / G G c c d d M M Y Y E Y Y Y W W / / / / _ _ ( ( ( ( / / / / T T T T / / ( ( ( ( _ _ _ _ _ _ _ _ } } | | | | | | | | ( ( ( ( ( ( ( ( ( ( ~ / Y Y Y ~ ( ( ( ( _ _ | | | | | | | | ` ` | | } } | | | | | | | | | | | | | | | | | | | | | | | | } } _ _ ( ( / / / / ( ( ( ( _ ( _ _ { [ | | _ _ _ _ _ _ _ _ _ _ _ _ _ _ ( ( ( ( / / ( ( ( ( ( ( ( ( ( ( _ _ ( ( ( ( ( ( ( ~ ~ ~ ~ ~ ~ ~ ~ ~ ~ ~ ~ ~ / / / / ! ! ! ! Y Y ! ! ! ! ! ! ! ! ! ! ! ! ! ! ! ! Y Y Y Y Y Y ! ! ! ! ! ! Y Y L L Y Y Y Y Y Y Y Y Y Y Y Y Y Y Y Y L Y Y Y ! ! ~ ~ ~ ~ ~ ~ ~ ~ ! ! ~ ~ / / ) ) _ _ | | | | | |  . .| | | | } } _ _ } } } } } } _ _ / / / / / / / ~ Y Y Y Y Y Y Y Y I I I I Y Y Y Y Y Y Y Y Y Y Y Y Y Y I I Y Y Y Y Y Y J L Y Y ) ) ] ] / / / / ) ) / / D D b b d d S S / / @.@.X.X.) ) ) ) | | $.$._ _ L L ] ] %.%._ _ L L G G F F F F S S / / ,.,.e.e.7.7.@.@.) ) ) ) S S d d < < < - 3 3 b b L L X.X.%.%.=.=.] ] G G w w = = p p < < d d L L _ _ / / @.@.w.w.i.i.$.$.L L S S F F F F S S G G $.$.@.@.) ) E E _ _ %.%.@.@._ _ ] ] @.@.| { Y Y c c p p c c D D L L D D G G Y Y / / E E L L D D D D D D G G D D D D G G J J J J G G D D D D D D G G D D G G L L L L Y Y Y Y Y Y Y Y Y Y Y Y Y Y / ~ Y T ~ ~ / / ~ ~ Y Y Y Y I I I U L L J J D D G G D D D D G G J J J J D D D D C C S S S S D D C C C C M M C C C C S S C C S S D D J J D D S S G D D D S S C C S S S S S S C C M M M M C C S S S S D D D D D D D D D D D D D D D D D D D D D D L L L L D D D D D D D D D D D D D D D D D D D D D D D D D D D D D D D D D D D D S S S S S S D D D D D D D J D D ",
"_ _ / / G G c c d d M M Y Y Y Y Y Y T E / / ( ( _ _ ( ( ( ( / / / / T T T T / / ( ( ( ( _ _ _ _ _ _ _ _ } } | | | | | | | | ( ( ( ( ( ( ( ( ( ( ~ / Y Y Y Y ( ( ( ( _ _ | | | | | | | | ` ` | | } } | | | | | | | | | | | | | | | | | | | | | | | | } } _ _ ( ( / / / / ( ( ( ( ( ( _ _ ` [ | | _ _ _ _ _ _ _ _ _ _ _ _ _ _ ( ( ( ( / / ( ( ( ( ( _ ( ( ( ( _ _ ( ( ( ( ( ( ( ~ ~ ~ ~ ~ ~ ~ ~ ~ ~ ~ / ~ ~ ~ / / ! ! ! ! Y Y ! ! ! ! ! ! ! ! ! ! ! ! ! ! ! ! Y Y Y Y Y Y ! ! ! ! ! ! Y Y L L L L Y Y Y L Y Y Y Y Y Y Y Y Y Y L L Y Y ! ! ~ ~ ~ ~ ~ ~ ~ ~ ! ! ~ ~ / / ) ) _ _ | | | | | |  . .| | | | } } _ _ } } } } } } _ _ / / / / / / / Y Y Y Y Y Y Y Y Y I I I I Y Y Y Y Y Y Y Y Y Y Y Y ~ ~ I I Y Y Y Y Y Y L L Y Y ) ) ] ] / / / / ) ) / / D D b b d d S S / / @.@.X.X.) ) ) ) | | $.$._ _ L L ] ] %.%._ _ L L G G F F F F S S / / ,.,.w.e.7.7.@.@.) ) ) ) S S d d < < < - 3 3 b b L L X.X.%.%.=.=.] ] G G w w = = p p < < d d L L _ _ / / @.@.w.w.i.i.$.$.L L S S F F F F S S G G $.$.@.@.) ) E E _ _ %.%.@.@._ _ _ ] @.@.| | Y Y c c p p c c D D I L D D G G Y Y / / E E L L D D D D D D G G D D G D G G J J J J G G D D D D D D G G D D G G J J L L Y Y Y Y Y Y Y Y Y Y Y Y Y Y / ~ Y Y ~ ~ / / ~ ~ Y Y Y Y I I I I L L J J D D G D D D D D D D J J J J D D D D C C D S S S S S C C C C M M C C C C S S C C S S D D J J D D S S G D D D S S C C S S S S S S C C M M M M C C S S S S D D D D D D D D D D D D D D D D D D L L D D D L L L D D D D D D D D D D D D D D D D D D D D D D D D D D D D D D D D D D D D S S S S S S D D D D P P D D D D ",
") ) Y Y S S b b c c B B G G / / / / / / / / / / / / ( ( / / Y Y Y Y Y T Y Y Y Y ~ ~ / / / / / / ( ( ( ( _ _ _ _ ` ` _ _ _ _ ( ( / ( ( ( [ [ _ _ ( ( ( ( / / _ _ } } | | | | | | | | } } _ _ ` ` | | | | | | | |  . . . . . .| | | | | | | | | | | | | | } } _ _ _ _ _ _ ( ( ( ( ( ( _ _ _ [ | | [ [ _ _ _ _ _ _ _ _ ( ( / / / / ~ ~ / / ( ( ( ( ( ( ( ( ( ( ( ( ( ( ( ( _ _ ` ( ( ( ( ( / ( ~ ~ / / / / ! ! Y ! Y Y L L L L L L L L L L L L Y Y Y Y Y Y Y Y Y Y ! ! ! ! Y Y Y Y L L L L J J L L L L L L Y Y L L L L L L L L Y Y ! ! ! ! ! ! ! ! ! ! ! ! L L ~ ~ / / / / / / ) ( _ _ _ _ _ _ | | } } [ [ [ [ } } } } ( ( ( ( _ _ ) ) ) ) / ) / / Y Y I I L L L L L J L L L L Y Y Y Y I I I I I I D D I I Y Y Y Y Y Y / / ] ] ) ) G G S F L L L L G G S S b b G G ) ) @.@.X.X.| X.@.@.$.$.%.%.$.$._ _ ....@.@.R R S S L L F F S S N N A A / / $.$.%.%.....R R E E b b < < = = ; ; < < d d S S E E ....] ] R R S S l l 3 3 p p # # = = b b L L F F / / @.@.@.@.E E N N b b B B G G S S l l S S ) ) ] ] ] ] X.X.$.$.@.@.] ] ] _ ] ] ) ) Y Y G G G G D D F F F D G G S S S S L L / / ) ) / / / / Y Y L L L L G G G G G G G G G G G G G G G G G G G G L L L L Y Y Y Y L L L L Y Y / / / E Y Y ~ ~ ~ Y Y Y / / Y Y Y Y Y Y Y I I I J J D D S S D D D D D D D D D D D D D D D S C C Z Z Z Z Z Z C C S S C C C C C C C C C C S S D D G G D D S S D D S S C C C C C C S S S S M M M M M M M M M M M M S S D D D S S S D D D D D D D D D D D D D D D D D D D D D D D D S S S S S S S S S S S S S S S S M C Z Z Z Z S S S S S S S S Z S S S Z Z S S S S D D D D S S ",
") ) Y Y S S b b c c B B G G / / / / / / / / / / / / ( ( / / Y Y Y Y T T Y Y Y Y ~ ~ / / / / / / ( / ( ( _ _ _ _ ` ` _ _ _ _ ( ( / / ( ( [ [ _ _ ( ( ( ( / / [ _ } } | | | | | | | | } } ( ( ` ` | | | | | | | |  . . . . . .| | | | | | | | | | | | | | } } _ _ _ _ _ _ ( ( ( ( ( ( _ _ _ _ | | _ _ _ _ _ _ _ _ _ _ ( ( / / / / ~ ~ / / ( ( ( ( ( ( ( ( ( ( ( ( ( ( ( ( _ _ ` ( ( ( ( ( ( ( ~ ~ / / / / ! ! Y Y Y Y L L L L L L L L L L L L Y Y Y Y Y Y Y Y Y Y ! ! ! ! Y Y Y Y L L L L J J J L L L L L Y Y L L L Y L L L L Y Y ! ! ! ! ! ! ! ! ! ! ! ! L L ~ ~ / / / / ( / ) ( ( ( _ _ _ _ | | } } [ [ [ [ } } } } ( ( ( ( ) _ ) ) ) ) / / / / Y Y I I L L L L J J L L L L Y Y Y Y I I I I I I D D I I Y Y Y Y Y Y E / ] ] ) ) G G S F L L L L F G S S b b G G ) ) @.@.X.X.| X.@.@.$.$.%.%.$.$._ _ ....@.@.R R S S L L G G S S N N A A / / $.$.%.%.....R R E E b b < < = = ; ; < < d d S S E E ....] ] R R S S l l 3 3 p p # # = = b b L L F F / / @.@.@.@.E E N N b b B B F F S S l l S S ) ) ] ] ] ] X.X.$.$.@.@.] ] ] ] ] ] ) ) Y Y G G F G D D F G F D G G S S S S L L / / _ ) / / / / Y Y L L L L G G G G G G G G G G G G G G G G G G G G L L L L Y Y Y Y L L L L Y Y / / / E Y Y Y ~ ~ Y T Y / / T T Y Y I I Y Y Y Y J J D D S S D D D D D D D D D D D D D D D D C C Z Z Z Z Z Z C C S S C C C C C C C C C C S S D D G D D D S S D D S S C C C C C C S S S S M M M M M M M M M M M M S S S S S S S S D D D D D D D D D D D D D D D D D D D D D D D D S S S S S S S B S S S S S S S S C C Z Z Z Z S S S S S S S S Z S S S Z Z S S S S D D D D S S ",
"_ _ E E G G G G L L D D S S Y Y Y Y Y Y Y Y / ~ / ~ ~ ~ Y Y Y Y Y Y Y Y Y Y Y Y Y Y Y Y ~ ~ E / T T ~ ~ / / ( ( / / / / / / ( ( / / / / [ _ [ _ _ _ ( ( _ _ ( ( ( ( ( ( _ _ ( ( / / / / T T ( ( ( ( _ _ } } | | | |  . . . .] ] } } | | | | | | | | | | | | } } [ [ _ _ _ _ _ _ _ _ _ _ _ _ | | [ _ _ _ _ _ _ _ _ _ ( ( / / / / ~ ~ / / ( ( _ _ _ ( ( ( ( ( ( ( ( ( ( ( ` ` ` ` ( ( / / ~ ~ ~ ~ ~ ~ ~ ~ Y Y Y Y L L L J J J J J J J G J J J J J L L L L Y Y ! ~ ! ! ! ! Y Y ! Y L L L L G G L L L L L L L L L L J J L L L L J J Y Y Y Y Y L Y Y Y Y Y Y L L Y I I I I I Y Y Y Y Y Y / / / / [ [ _ _ _ _ [ _ _ _ ( ( ( ( _ _ ) _ ) ) ) ) ) ) ) ) / / / / E E E E Y Y I I Y Y Y Y / / Y Y Y Y Y Y Y Y / / ) ) _ _ ] ] | | #.#._ _ L L L L / / L L L L / / _ _ Y Y / / / / / / _ _ ] ] ] ] ] ] %.%.%.%.%.%.) ) k d ; - w w k k S S b b k k N N N N k f < < < < d p - ; & & & & & & - - b b E E ) ) ] ..] ] / / / / G G d d # # # # @ # ; ; < < ; ; 0 0 k d 0 0 b b k k k k l l B B N N < < ; ; S S ....-.-.@.@.....] ] ) ) / / G G L L Y Y / / _ _ / / L L G G / / L L L L ) ) X.X.#.#.] ] / / ) ) / / ~ ! ! ! ! ! ! ! ! ! Y ! L L L L G G L L / / / / / / / / Y Y L L Y Y / / ) ) / / Y Y Y Y / / / / / / / / / / Y Y Y Y Y Y L L G G D F G G G G D D D D S S D D D D D D D D D D D D D D D D D D D D S S S S S S D D D D S S L J L L G G S S C C C C C C C C C C M M M M M M M M M M M M M M M M M M M M M M M M M M M M M M S S S S S S S S S S S S S S C S n n n n n n c c c c n n n n n M n n n n M M M M M M M M Z Z Z Z Z Z Z Z Z Z S S S Z Z Z M M ",
"_ _ E E L L G G L L D D S S Y Y Y Y Y Y Y Y ~ ~ Y ~ Y Y Y Y Y Y Y Y Y Y Y Y Y Y Y Y Y Y Y Y E / T T / / / / ( ( / / / / / ( ( ( / / / / [ [ [ [ _ _ _ _ _ _ ( ( ( ( ( ( _ _ ( ( / / / / T T ( ( ( ( _ _ } } } } | |  . . . .] ] } } } | | | | | | | | | | | } } [ [ _ _ _ _ _ _ _ _ _ _ _ _ | | _ _ _ _ _ _ _ _ ( ( ( ( / / / / / ~ / / ( ( _ ( _ ( ( ( ( ( ( ( ( ( ( ( ` ` ` ` ( ( / / ~ ~ ~ ~ ~ ~ ~ ~ Y Y Y Y L L L L J J J J J J J J J J J L L L L L Y Y ! ~ ! ! ! Y Y Y ! ! L L L L G G L L L L L L L L L L J J L L L L J J Y Y ! ! Y Y Y Y Y Y Y Y L L Y I Y Y I I Y Y Y Y Y Y / / / / _ _ _ _ _ _ [ _ _ _ _ ( ( ( _ _ ) ) ) ) ) ) ) ) ) ) / / / / E E E E Y Y Y I Y Y Y Y / / Y Y Y Y Y Y Y Y / / ) ) ` ` ] ] | | #.#.) _ L L L L / / L L L L / / _ _ Y E / / / / / / _ _ ] ] ] ] ] ] %.%.%.%.%.%.) ) d d ; ; w w k k S S b b k k N N N N k k < < < < d p - - & & & & & & - - b b E E ) ) ] ] ] ] / / / / G G d d # # # # # # ; ; > < ; ; 0 0 k d 0 0 b b k k k k l l B B N N < < ; ; S S ....-.-.@.@.....] ] ) ) / / G G L L Y Y / / ) ) / / L L G G / / L L L L ) ) X.X.#.#.] ] / / ) ) / / ! ! ! ! ! ! ! ! ! ! Y Y L L L L G G L L / / / / / / / / Y Y I I Y Y / / ) ) / / Y Y Y Y / / / / / / / / ~ / Y Y Y Y Y Y L L G G D D G G G G D D D S S S D D D D D D D D D D D D D D D D D D D D S S S S S S D D D D S S J J L L G G S S C C C C C C C C C C M M M M M M M M M M M M M M M M M M M M M M M M M M M M M M S S S S S S S S S S S S S S C C n n n n n n c c c c n n n n n n n n n n M M M M M M M M Z Z Z Z Z Z Z Z Z Z S S Z Z Z Z M M ",
"%.%.@.#.) ) L L L L L L D D G G L L Y Y Y Y Y Y I I I I Y Y Y Y Y Y Y Y Y Y Y Y Y Y Y Y Y Y Y Y Y Y Y Y T T / / / / / / T ~ T T W W / / ( ( ( ( / / / / ( ( ~ ~ / / ~ ~ ~ ~ ~ ~ Y Y Y Y Y Y T T ~ ~ / / ( ( [ [ } } } } ` ` ( ( ( ( ` _ ` ` ` ` ` ` _ _ _ _ _ ( ( ( ( ( ( ( ( ( ( ( ( ( ( ( _ _ _ _ / / / / / / / / W W T T Y Y Y Y T T / / ( ( ( ( T W T T / / ( ( ( ( ~ ~ ~ ~ ~ ~ ~ ~ ! ! Y Y Y Y Y Y L L L L L L J J J J J J L L J J J J L L L L L L L L ! ! L L L L ! ! ! ! Y Y L L L L L L G G G G G G G G G G L L L L L L / / / / L L D G G G Y Y ! ! Y Y Y Y Y Y Y Y Y Y / / _ _ } } ` } _ _ ` ` } | _ _ _ _ [ [ | | ] ] ) ) / / / / ) ) ] ] | | | | ] ] ) ) Y Y Y Y / / ) ) / / ~ ~ ) ) ) ) ) _ ) _ ] ] | | @.@.#.#.@.@._ _ _ _ _ _ L L S S L L ) ) ) ) ] ] ] ] _ _ ) ) ) ) _ _ _ _ @.@.%.%.%.%.) ) N N d d k k N N N N N N S S F F N N d d 0 0 l l w 0 3 3 3 3 w w < < p p G G X.X.] ] ) ) ) ) ] ] ] ] _ _ S S - - 3 0 w p d d 0 0 d d b b N N b v b b S S F F N N N N N N k k k k N N _ _ $.$.@.@.....] ] / / R R E E ] ] $.$.#.#.] ] / / L L F F / / E E / / _ _ X.X.X.X.) ) L L L L L L Y Y ! ! / / / / / / / / / / ! ! / / ] ] #.#.-.%.#.#.@.@._ _ ) ) ] ] | | X.X._ ) Y Y I I Y Y / / ) ) _ _ ( ( / / Y Y Y Y / / / / ! ! ! ! ! ! L L L L J J D D J J Y Y Y Y J J D D J D J J L L L L L L L L ! ! ) ) / / G G ] ] ] ] / / S S M M C C S S C C M M M M M M M M M M M M M M M M c c m m n m n n n n M M M M M M M M M M M M M M M M M M M M M M n n n n c c c c c c c c c c c c c c m m n n M M Z M Z Z S S S S D D D D S S S S S S M M M M ",
"%.%.#.#.) ) L L L L L L D D G G L L Y Y Y Y Y Y I I I I Y Y Y Y Y Y Y Y Y Y Y Y Y Y Y Y Y Y Y Y Y Y Y Y T T / / / / / / T ~ T T T T / / ( ( ( ( / / / / ( ( ~ ~ ~ / ~ / / ~ ~ ~ Y Y Y Y Y Y T T ~ ~ / / ( _ [ [ } } } } ` ` ( ( ( ( ` _ ` ` } ` ` ` _ _ _ _ _ _ ( ( ( ( ( ( ( ( _ ( ( ( ( ( _ _ _ _ / / / / / / / / W W Y ~ Y Y Y Y T T / / ( ( ( ( T W T T / / ( ( ( ( ~ ~ ~ ~ ~ ~ ~ ~ ! ! Y Y Y Y Y Y L L L L L L J J J J J J L L J J J J L L L L L L L L ! ! L L L L ! ! ! ! Y Y L L L L L L G L G G G G G G G G L L L L L L / / / / L L D D G G Y Y Y Y Y Y Y Y Y Y Y Y Y Y / / _ _ } } } } _ _ ` ` } | _ _ _ _ [ [ | | ] ] ) ) / / / / ) ) ] ] | | | | ] ] ) ) Y Y E Y / / ) ) / / ~ ~ ) ) ) ) _ _ ) ) ] ] | | @.@.#.#.@.@._ _ _ _ _ _ L L S S L L ) ) ) ) ] ] ] ] _ _ ) ) ) ) _ _ _ _ @.@.%.%.%.%.) ) N N d d k k N N N N N N S S F F N N d d 0 0 l l w 0 3 0 3 3 w w 3 < p p G G X.X.] ] ) ) ) ) ] ] ] ] _ _ S S - - 3 0 w p d d 0 0 d d b b N N v v b b S S F F N N N N N N d d k k N N _ _ $.$.@.@.....] ] / / R R E E ] ] $.$.#.#.] ] / / L L F F E E E E / / _ _ X.X.X.X.) ) L L L L L L Y Y ! ! / / / / / / / / / / ! ! / / ] ] #.#.-.-.$.#.@.@.] ] ) ) ] ] | | X.X._ ) Y Y I I Y Y / / ) ) _ _ ( ( / / Y Y Y Y / / / ! ! ! ! ! ! ! L L L L L J D D J J Y Y Y Y J J D D J J J J L L L L L L L L ! ! ) ) / / G G ] ] ] ] / / S S M M C C S S C C M M M M M M M M M M M M M M M M c c m m n m n n n n M M M M M M M M M M M M M M M M M M M M M M n n n n c c c c c c c c c c c c c c m m n n M M M M Z Z S S S S D D D D S S S S S S M M M M ",
"q.q.8.8.] ] S S M M S S G G D D L L L L L L L L J J I I Y Y Y Y Y Y I I I I I I I I Y I Y I I I I I Y Y Y Y T T / / / / W W Y Y Y Y Y Y Y Y W W Y Y Y Y T T Y Y ~ ~ / / / ~ T T Y T T T Y Y / / / / ( ( _ _ _ _ ( ( / / / / ~ ~ ~ ~ ~ ~ ~ ~ / / / / / / Y Y Y Y Y Y Y Y / / / / ( ( / / / / W W E E W W W T E E E E T T Y Y I I I I Y I Y Y Y Y Y Y Y Y Y I Y Y Y Y Y Y L L I I I I L L L L J J D D G J D D G G J J J J J J L L L L L L G G L L L L L L L L J L L L G G L L L L L L L L L L _ _ / / / / ! ! / / _ _ ] ] @.@.$.$.-.-.%.%.] ] ! ! / / _ _ ] ] ] ] ) ) ) ) ) ) ) ) _ _ ] ] | | | | | | | | | | ` ] _ _ | | @.@.6.6.-.-.@.@.X.X.$.$.-.-.5.5.6.9.<.<.#.#.] ] ] ] | | @.@.@.@.| | / / / / / / Y Y Y Y / / ) ) _ _ ] ] Y Y L L E / L L L R ] ] %.%.%.%.q.q.y.y.6.9.@.@._ _ ] ] @.@.$.$.%.%.@.@._ _ / / G G N N b b k k N N F F F F b b d d d d l l k k k k l b N N b b b b G G ] ] ....) ) ) ) ....] ] _ _ L L b b B B S S b b d d f f b b b b v v b b F F L L N N d d f f b b L L ) ) / / / / ] ] ..../ / ^ ^ ) ) / / ,.,.y.y.q.q.,.,.$.$.] ] / / F F F F F F G G L L R R / / / / L L L L / / ) ) ] ] X.] +.+.@.o._ _ _ _ X.X.-.-.q.q.y.y.q.q.9.9.#.#.@.#.#.#.-.-.#.%.] ] Y Y L L / / _ _ | | #.#.*.*.#.#.#.#.@.@.] ] ] ] _ _ _ _ _ _ / / ! ! ! ! G G Y Y ~ ~ Y Y U U D D J J U U Y Y ) ) _ _ ] ` o.o.*.*.@.@.) ) %.%.-.-.o.o.G G b b C M S S C C M M M M M M M M M M M M M M M M n n M M M M M M M M Z Z Z Z Z Z S S S S S S C C C S S C M C S S n n n n c c c c c c c c c c c c n n M M M M M M Z Z S S D D D D D D D D S S S S M M M M M M ",
"q.q.8.8.] ] S S M M S S G G D D L L L L L L L L J J I I Y Y Y Y Y Y I I I I I I I I Y Y Y Y I I I I Y Y Y Y T T W / / / W W Y Y Y Y Y Y Y Y T T Y Y Y Y T T Y Y ~ ~ / / ~ ~ T T Y Y T T Y Y / / / / ( ( _ _ _ _ ( ( / / / / ~ ~ ~ ~ ~ ~ ~ ~ / / / / / / Y Y Y Y Y Y Y Y / / / / ( ( / / / / W W W W W Y T T E W E Y Y T Y Y I I I I I I Y Y Y Y Y Y Y Y Y I Y Y Y Y Y Y L L L I I I L L L L J J D D G J D D G G J J J J J J L L L L L L G G L L L L L L L L J J L L G G L L L L L L L L L L _ _ / / / / ! ! / / _ _ ] ] @.@.$.$.-.-.%.%.] ] ! ! / / _ _ ] ] ] ] ) ) ) ) ) ) ) ) _ _ ] ] | | | | | | | | | | ` ` _ _ | | @.@.6.6.-.-.@.@.X.X.$.$.-.-.5.5.6.6.<.<.#.#.] ] ] ] | | @.@.@.@.| | / / / / / / Y Y Y Y / / ) ) ] _ ] ] Y Y L L / / L L L R ] ] -.-.-.%.q.q.y.y.6.9.@.@._ _ ] ] @.@.$.$.%.%.@.@._ _ / / G G N N b b k k N N F F F S b b d d d d l l k k k k l l N N b b b b G G ] ] ....) ) ) ) ....] ] _ _ L L b b B B S S b b d d f f b b b b v v b b F F L L b b d d f f b b L L ) ) / / / / ] ] ..../ / ^ ^ ) ) / / ,.,.y.y.q.q.,.,.$.$.] ] / / F F F F F F G G L L E R / / / / L L L L / / ) ) ] ] ] ] +.+.@.@._ _ _ _ ] X.-.-.q.q.y.y.q.q.9.9.#.#.@.@.#.#.-.-.#.#.] ] Y Y L L / / _ _ | | #.#.*.*.#.#.#.#.@.@.] ] ] ] _ _ _ _ _ _ / / ! ! ! ! G G L L ! ! Y ! U U D D J J U I Y Y ) ( ` ` ] ` o.o.*.*.@.@.) ) %.%.-.-.o.o.G G b b M M S S C C M M M M M M M M M M M M M M M M n n M M M M M M M M Z Z Z Z Z Z S S S S S S C C S S C C C C S S n n n n c c c c c c c c c c c c n n M M M M M M Z Z S S D D D D D D D D S S Z S C C M M M M ",
"%.%.X.X.) ) G D M M M M D D D D I I Y Y Y Y I I L L I L Y Y Y Y Y Y Y Y I I I L I I L L L L I I Y Y Y Y / / / / / / / / Y Y Y Y I I I I Y Y / / ( ( ( ( ( ( _ _ _ _ _ _ _ [ ( ( ( ( ( ( / / / / T T T Y / / ( ( ( ( ( ( T T Y Y / / / / / / / / / / / Y Y Y Y Y Y Y Y Y Y Y Y Y Y Y Y Y Y Y / / / / ~ / / / / / Y Y Y Y Y Y L L D D D D L L L L L L D D D J D D J J J J J J J J J J D D D D D D D D S S S S D D D D J J J J L L L L L L L L L L L L L L L L Y Y ~ ~ ! ! L L L L Y Y / / / / -.-.%.%.@.@._ _ ' ' ' ' _ _ +.+.%.%.9.9.3.3./ / S S b b G G / / $.$.-.-.@.@._ _ _ _ _ _ ) ) ) ) _ _ / / ] ] <.<.<.<.-.-.5.5.e.e.y.y.5.5.,.,.-.-.@.#.%.%.7.7.6.6.9.9.6.6.6.6.9.9.<.<.>.>.%.%.| X.Y Y Y Y Y Y Y Y L L / / / / Y Y D D L L Y Y L L Y Y _ _ @.@.6.6.,.,.8.8.u.u.7.7./ / K K L L S S G G R R ) ) ] ] / / L L F F k k d d S S R R ' ' @.@.@.@.R R N N k k d f F F / / L L R R _ _ ) ) ....] ] $.$.%.%.@.@.] ] ) ) / / E E R R L L G G b b k k S S / / ) ) ] ] E E N N 0 0 d k N N F F R R R R ' ' 0.0.r.r.,.-.=.=.3.3.q.q.u.u.w.w.3.3.+.@.' ' ) ) S S N N / / ] ] ] ] ] ] ....$.$.+.+._ _ ....@.@.5.5.y.y.5.5.+.+.$.$.,.,.=.=.%.%.=.=.-.-.u.u.h.h.y.y.5.5.| | _ _ _ _ L L S S S B b b S S L L | | X.X.<.<.q.q.5.5.6.6.%.%.$.$.@.@.@.@.] ] ) ) / / / / L L G G S D S S D D J J J J S D D D D D Y Y / / S S D D X.X.@.@.) / ] ] ] ] L L S S F F D D C C M M M M M M M M M M M M M M n n M n n n n n M M C M S S S S S S D D D D D D S S C C S S S S M M M M c c c c c c c c c c c c c c M M M M M M M M M M S S S S D D S S S S S S S S Z Z M M M M ",
"%.%.X.X.) ) D D M M M M D D D D I I Y Y Y Y I I L L I L Y Y Y Y Y Y Y I I I I L L I I L L L I I Y Y Y Y / / / / / / / / Y Y Y Y I I I I Y Y / / ( ( ( ( ( ( _ _ _ _ _ _ _ [ ( ( ( ( ( ( / / / / T T T T / / ( ( ( ( ( ( T T Y Y ~ ~ / / / / / / / / Y Y Y Y Y Y Y Y Y Y Y Y Y Y Y Y Y Y Y Y / / / / ~ ~ / / Y / Y Y Y Y I I L L D D D D L L L L L L D D D J D D J J J J J J J J J J D D D D D D D D S S S S D D D D J J J L L L L L L L L L L L L L L L L L Y Y ~ ~ Y Y L L L L Y Y / / ) / -.-.%.%.@.@._ _ ' ' ' ' _ _ +.+.%.%.9.9.3.3./ / S S b b G G / / $.$.-.-.@.@._ _ _ _ _ _ ) ) ) ) _ _ / / ] ] <.<.<.<.-.-.5.5.e.e.y.y.5.5.,.,.-.-.@.#.%.%.7.7.6.6.9.9.5.6.6.6.9.9.<.<.>.>.%.%.| X.E Y Y Y E E Y Y L L / / / / Y Y D D L L Y Y L L Y Y _ _ @.@.6.6.,.,.8.8.u.u.7.7./ / K G L L S S G G R R ) ) ] ] / / G G F F k k d d S S R R ) ) @.@.@.@.R R N N k k f f F F / / L L R R _ _ ) ) ....] ] $.$.%.%.@.@.] ] ) ) / / E E R R L L G G b b k k S S / / ) ) ] ] E E N N 0 0 d d N N F F R R R R ' ' 0.0.r.r.,.-.=.=.3.3.q.q.u.u.w.w.3.3.+.@.' ' ) ) S S N N / / ] ] ] ] ] ] ....$.$.+.+._ _ ....@.@.5.5.y.y.5.5.+.+.$.$.,.,.%.%.%.%.=.=.-.-.u.u.h.h.y.y.5.5.X.| _ _ _ _ L L S S S S b b S S L L | | X.X.<.<.q.q.5.5.6.6.%.%.$.$.@.@.@.@.] ] ) ) / / / / L L G G D D S S D D J J J J D D D D D D Y Y / / S S D D X.X.@.@.) / ] ] ] ] L L S S F F D D C C M M M M M M M M M M M M M M n n n n n n n n M M C C S S S S S S D D D D D D S S C C S S S S M M M M c c c c c c c c c c c c c c M M M M M M M C M M S S S S D D S S S S S S S S Z Z M M M M ",
"] | D D M M D D I Y L L J D L L I I Y Y Y Y Y Y I I I I Y I I I L L L L J J D D D D D D D D J J L L Y Y Y Y Y Y Y Y Y Y I I Y Y I I I I Y Y / / W W W W W W ( ( ( ( ( ( ( ( ( ( ( ( ( ( / / T T T T T T / / ( ( ( ( / / T T / / / / / / / / / / / / Y Y Y Y Y Y Y Y Y Y Y Y Y Y Y Y Y Y Y Y E E Y Y Y Y Y Y Y Y Y Y I I L L D D L L D D D D D D D D D D D D D D D D D D J J J J J J J J J J D D D D D D S S D D D D J U L L L L G G L L L L L L L L L L Y Y L L Y Y L L J J J J ~ ~ ] ] @.@.] ] =.%.-.-.$.$./ / b b b b H G ] ] -.-.%.%./ / N N l b b b F F -.-.<.<.#.#._ _ _ _ _ _ _ _ ] ] #.#.] ] $.$.w.w.u.u.q.q.5.5.-.-.........,.,.5.5.%.%.<.<.q.q.q.q.<.<.-.-.5.5.0.0.<.<.] ] E E L L G G L L E E E E E E _ _ @.@.X.X.] ] / / E E L L / ) X.X.@.@.-.-.@.@.$.$.@.@.) ) F F N N F F / / ] ] ' ' ....$.$.X.X.] ] ] ' ] ] L L ) ) ] ] ....@.@.] ] L L S N S S R R ....$.$.%.%.$.$.#.#.@.@.....t.t.u.u.$.$./ / ....q.q.i.i.%.%...../ / S S N N L L ....,.,.7.7.,.,.@.@.@.@.] ] L L F F R R R R K K ] ] g.g.B.B.B.B.n.n.l.l.b.b.N.N.i.i.....K K v v k k v v F F ....$.$.=.=.,.,.7.7.7.7.5.5.$.$.=.=.@.@.,.,.q.q.q.q.3.3.3.3.q.q.u.u.u.u.5.5.=.=.=.=.7.7.y.y.5.5.@.@.] ] _ _ S S w w ; ; # # & & = = p p k k G G ) ) / / ] ] -.-.,.,.,.,.,.,.-.-.=.=.@.@.] ] L L S S S S D D J J D D D S D D M M M M Z V B B d d n n ] ] @.@.R R ] ] #.#._ _ L L S S C C M M M M M M M M M M M M M M M M n n n n n c n n M M C C S S S S S S D D D D D D S S S S S S S S C C M M c c j j c c c c n n c c c c M M M M M M M M C C S S S S D D S S S S S S Z Z M M M M M M ",
"] ] D D M M D D I I L L J D L L I Y Y Y Y Y Y Y I I I I I I I I L L L L J J D D D D D D D D J J L L Y Y Y Y Y Y Y Y Y Y I I Y Y I I I I Y Y / / W W W W W W ( ( ( ( ( ( ( ( ( ( ( ( ( ( / / T T T T T T / / ( ( ( ( / / T T / / / / / / / / / / / / Y Y Y Y Y Y Y Y Y Y Y Y Y Y Y Y Y Y Y Y E E Y Y Y Y Y Y Y Y Y Y I I L L D D L L D D D D D D D D D D D D D D D D D D J J J J J J J J J J D D D D D D S S D D D D U U L L L L G G L L L L L L Y L L L Y Y L L Y Y L L J J J J ~ ~ ] ] @.@.] ] =.%.-.-.=.$./ / b b b b H H ] ] -.-.%.%./ / N N b b N N F F -.-.,.<.#.#._ _ _ _ _ _ _ _ ] ] #.#.] ] $.$.w.w.u.u.q.q.5.5.-.-.........,.,.5.5.%.%.<.<.q.q.q.q.<.<.%.%.5.5.0.0.<.<.] ] E E L L G G L L E E E E E E _ _ @.@.X.X.] ] / / E E L L / ) X.X.@.@.-.-.@.@.$.$.@.@.) ) F F N N F F / / ] ] ' ' ....$.$.X.X.] ] ] ' ] ] L L ) ) ] ] ....@.@.] ] L L S S S S R R ....=.=.%.%.$.$.#.#.@.@.....t.t.u.u.$.$./ / ....q.q.i.i.%.%...../ / S S N N L L ....,.,.7.7.,.,.@.@.@.@.] ] L L F F R R R R K K ] ] g.g.B.B.B.B.n.n.l.l.b.b.N.N.i.i.....K K v v k k v v F F ....$.$.=.=.,.,.7.7.7.7.5.5.$.$.=.=.@.@.,.,.q.q.q.q.3.3.3.3.q.q.u.u.u.u.5.5.=.=.=.=.7.7.y.y.5.5.@.@.] ] _ _ S S w w ; ; # # & & = = p p l l G G ) ) / / ] ] -.-.,.,.,.,.,.,.-.-.=.=.@.@.] ] L L S S S S D D J J D D D D D D M M M M Z V B B d d n n ] ] @.@.R R ] ] #.#._ _ L L S S C C M M M C M M M M M M M M M M M M n n n n n n n n M M C C S S S S S S D D D D D D S S S S S S S S M C M M c c c c c c c c n n c c c c M M M M M M M M C C S S S S D D S S S S S S Z Z M M M M M M ",
"L L M M M M D D I I L L J J L L J J J J L L L L J J D D D D J J J L D D D D D D D D D D D D J J L L I I Y Y Y Y Y Y I I L L I I L I I L Y Y Y Y Y Y Y Y Y Y / / / ( ( ( / / ( / T T T T T T Y Y Y Y T T T / ( ( _ ( ( ( ~ ~ ( ( / / / / / / / / / / Y Y Y Y Y Y Y Y Y Y / / / / / / Y Y Y Y Y Y Y Y Y Y Y Y I I L L J J D J D D D D D D D D D D D J D D D D D D D D J U I I I I Y Y Y Y Y I D D D D D D D D D D U U I I Y Y L L L L L L L L L L Y Y Y Y Y Y L L Y Y Y Y J J J J / / @.@.-.-./ / / ) _ ' ] ] / / b b 3 < p p / / @.@.%.%.@.@./ / H H H H / / @.@.@.@.....X.X.$.$.@.@.] ] ....8.7.6.6.7.7.8.8.%.%....._ _ _ _ ] ] %.%.y.y.i.i.q.q.9.9.7.7.5.5.) ) / / _ _ ...._ _ E E L L / / #.@.@.X.] ] ) ) / / X.X.9.9.e.e.<.<.] ] / / E E ) _ ] ] _ _ ] ] %.%.<.<.$.$./ / F F b b R R ,.,.8.8.q.q.u.u.w.w.8.8.q.q.$.$.............) ) / / ....@.@.........,.,.w.w.5.5.] ] / / L L E E @.@.y.y.M.M.n.n.<.<.] ] 7.7.x.x.V.V.y.y.$.$.L L S S N N N N ) ) 6.6.,.,.7.7.y.y.d.d.u.u.3.3.$.$.=.=.=.=.^ ^ K K t.t.B.B.C.C.B.B.l.l.x.x.N.N.y.y.] ] ) ) N N > > d f ] ] ,.,.%.%.=.=.7.7.i.i.j.j.d.d.u.u.d.d.u.u.3.3.3.3.w.w.w.w.,.,.5.5.y.y.t.t.7.7.-.-.] ] ] ] ,.,.<.<.$.$.#.#.@.@.L L w w @ @ X X     O O - - - - < < 3 3 - - p p N N F F R R / / / / ] ] @.@.@.@._ _ G G S S G G L L D D Z Z D D S S V V M M M M c c B B X.| %.%.) ) ] ] ] ] / / D D M M C C S C M M M M M M M M M M M M n n c c c c c c c c n n M M S S S S S S D D D D D D D D S S S S S S M M n n c c j j j j c c n n n n c c n n M M M M M M C C M M S S S S S S S S S S M M M M M M M M ",
"L L M M M M D D I I L L J J L L L J J J L L L L J J D D D D J J J J D D D D D D D D D D D D J J L L I I Y Y Y Y Y Y I I L L I I L L I L Y Y Y Y Y Y Y Y Y Y / / / / ( ( / / ( ( T T T T T T Y Y Y Y T T ~ / ( ( _ _ ( ( ~ ~ / ( / / / / / / / / / / Y Y Y Y Y Y Y Y Y Y / / / / / / Y Y Y Y Y Y Y Y Y Y Y Y Y I L L J J D J J D D D D D D D D D D D D D D D D D D D J J U I I I Y Y Y Y Y I D D D D D D D D D D J U I I Y Y L L L L L L L L L L Y Y Y Y Y Y L L Y Y Y Y J J L L / / @.@.-.-./ / / ) _ ' ] ] / / b b < < p p / / @.@.%.%.@.@./ / H H H H / / @.@.X.X.....X.X.$.$.@.@.] ] ....7.7.6.6.7.7.8.8.%.%....._ _ _ _ ] ] %.%.y.y.i.i.q.q.9.9.7.7.5.5.) ) / / _ _ X.X._ _ E E L L / / @.@.X.X.] ] ) ) / / X.X.6.9.e.e.<.<.] ] / / E E ) _ ] ] _ _ ] ] %.%.<.<.$.$./ / F F b b R R ,.,.8.8.q.q.u.u.w.w.8.8.q.q.$.$.............) ) / / ....@.@.........,.,.w.w.5.5.] ] / / L L E E @.@.y.y.M.M.n.n.5.<.] ] 7.7.x.x.V.V.y.y.$.$.L L S S N N N N ) ) 6.6.,.,.7.7.y.y.d.d.u.u.3.3.$.$.=.=.=.=.^ ^ K K t.t.B.B.C.C.B.B.l.l.x.x.N.N.y.y.] ] ) ) N N > > d d ] ] ,.,.%.%.=.=.7.7.i.i.j.j.d.d.u.u.d.d.u.u.3.3.3.3.w.w.w.w.,.,.5.5.y.y.t.t.7.7.-.-.] ] ] ] ,.,.<.<.$.$.#.#.@.@.L L w w @ @ X X     O O - - - - < < 3 3 - - p p N N F F R R / / / / ] ] @.@.@.@._ _ G G S S G G L L D D Z Z D D S S V V M M M M c c B B X.X.%.%./ / ] ] ] ] / / D D M M C C S S M M M M M M M M M M M M n n c c c c c c c c n n M M S S S S S S D D D D D D D D S S S S S S M M n n c c c j j j c c n n n n c c n n M M M M M M M M M M S S S S S S S S S S M M M M M M M M ",
"D D L L L L L L L L L L Y Y Y Y I I J J J L L L I I L L D D L L L L L L L L D D D D D D J J I I I I Y Y Y Y Y Y Y Y I Y I I I I I I I I Y Y Y Y Y Y Y Y / / _ _ _ _ ( ( ( ( / / / / Y Y Y Y Y Y Y Y Y Y / / _ _ _ _ ( ( / / / / / / ~ ~ / / / / / / Y Y Y Y / / ~ ~ / / / / / / / / E Y Y Y Y Y Y Y Y Y I I L L L L L L L L D D D D D D D D L L L L L L L L J J I I I I Y Y Y Y Y Y Y Y Y Y I I I I U U J J J J I I Y Y Y Y Y Y ! ! ~ ~ ! ! ~ ~ ~ ~ ~ ~ ~ ~ Y Y ~ ~ ! ! L L L L / / ] ] @.@.) / L L F F / / +.+...] ^ ^ H H / / _ _ $.$.,.-.@.@.G G L L @.@.@.@.@.@.$.$.5.5.7.7.-.-.$.$.$.$.$.$.$.$.$.$.] ] L L R R @.@.5.5.$.$.5.5.q.w.0.0.%.%.@.@.@.@._ _ R R / / E E / / ] ] #.#.$.$.$.$.9.6.,.,.$.$./ / S S L L @.@.5.5.] ] F F S F S S S F F F S F L L ) ) ] ] ] ] R R N N F F $.$.d.d.y.y.u.u.b.c.c.b.j.j.w.w.) ) / / 7.7.0.0.7.7.0.0.u.u.d.d.u.u.8.q.5.5.,.,.) ) b b b N G G ....q.q.h.h.z.z.j.j.w.w.5.5.y.u.j.j.h.h.d.d.7.7.%.%.$.$./ / b b b b L R ' ' @.@.,.,.,.,.=.=.,.,.w.w.u.a.3.3.) ) K K q.q.v.v.l.l.r.r.+.+.t.t.z.z.q.q.R R L L L L A A F F $.$.=.=.$.$.=.=.w.w.n.n.C.C.M.M.b.v.M.M.M.M.h.h.q.q.0.0.7.7.%.%.=.=.%.%.%.%.,.,.,.,.] ] ) ) $.$.-.-.] ] L L G G b b - - O O X X X X # # = = - - p d d d - - & & < < ; ; ; ; & & ; ; v v ) ) 5.5.%.%.] ] L L D D D D D D S S S S M M V V B B S S M M B B / / / / ) ) L L D D S S S S S S S S S S M M M M M M S C C C M M M M c c c c c c c c c c M M M M S S S S S S D D S S S S S S S S M M M M M M c c c c j j c c M M n n n n c c n n M M M M M M M M M M C S M M C C C M M M M M M M n n ",
"D D L L L L L L J J L L Y Y Y Y I I J J J L L L L L L L D D L L L J L L J J D D D D D D J J I I I I Y Y Y Y Y Y Y Y I I I I I I I I I I Y Y Y Y Y Y Y Y / / _ _ _ _ ( ( ( ( / / / / Y Y Y Y Y Y Y Y Y Y / / ( ( _ _ _ ( / / / / / / ~ ~ / / / / / / Y Y Y Y / / / ~ / / / / / / / / E Y Y Y Y Y Y Y Y Y I I L L L L L L L L D D D D D D D D L L L L L L L L J J I I I I Y Y Y Y Y Y Y Y Y Y I I I I U U U U J J I I Y Y Y Y Y Y ! ! ! ! ! ! ~ ~ ~ ~ ~ ~ ~ ~ Y Y ~ ~ ! ! L L L L / / ] ] @.@.) ) L L H H / / +.+.....^ ^ H H / / _ _ $.$.,.,.@.@.G G L L @.@.@.@.@.@.$.$.5.5.7.7.-.-.$.$.$.$.$.$.$.$.$.$.] ] L L R R @.@.5.5.$.$.5.5.w.w.0.0.%.%.@.@.@.@._ _ R R / / / E / / ] ] #.#.$.$.=.=.9.6.,.,.$.$./ / S S L L @.@.5.5.] ] F F S F F F S S F F F F L L ) ) ] ] ] ] R R N N F F $.$.d.d.y.y.u.u.c.c.c.b.j.j.w.w.) ) / / 7.7.0.0.7.7.0.0.u.u.d.d.u.u.8.8.5.5.,.,.) ) b b b b G G ....q.q.h.h.l.l.j.j.w.w.5.5.y.y.j.j.h.h.d.d.7.7.%.%.$.$./ / b b b b R R ) ) @.@.,.,.,.,.=.=.,.,.w.w.u.a.3.3.) ) K K q.q.v.v.l.l.r.r.+.+.t.t.z.z.q.q.R R L L L L A A F F $.$.=.=.$.$.=.=.w.w.n.n.C.C.M.M.b.v.M.M.M.M.h.h.q.q.0.0.7.7.%.%.=.=.%.%.%.%.,.,.,.,.] ] ) ) $.$.-.-.] ] L L G G b b - - O O O X X X # # = = - - d d d d - - & & < < ; ; ; ; & & ; ; v v ) ) 5.5.%.%.] ] L L D D D D D D S S S S M M V V B B S S M M B B / / / / ) ) L L D D S S S S S S S S S S M M M M M M S S C C M M M M c c c c c c c c c c M M M M S S S S S S D D D S S S S S S S M M M M n M c c c c j j c c n n n n n n c c n n M M M M M M M M M M C S M M C C C M M M M M M M n n ",
"Y Y Y Y Y Y Y Y Y Y / / / / / / / / Y Y Y Y ~ / / / Y Y Y Y I I L L J J J L D D L L L L J J I I Y Y Y Y Y Y Y Y Y Y I I I I I I I I I I Y Y / / W W / / _ _ | | | | [ [ _ _ _ _ ( ( / ( ( / Y Y T Y / / ( ( ( ( _ _ ( ( ( ( / ( / / ~ ~ / / / / / / ~ ~ ~ ~ ~ ~ T Y Y Y Y Y Y Y Y Y Y Y Y Y Y Y Y Y Y Y Y Y Y Y I I I I I I L J L L L J J J I I I I I I I I I I Y Y Y Y Y Y Y Y Y Y ~ ~ ~ Y Y Y Y Y Y I I I I I Y Y Y Y Y Y ~ ~ ~ ~ / / / / / / / / / / / / ~ ~ ~ ~ Y Y L L L L L L L L G G G G / / / / ) ) +.+.=.=.%.%.%.=.$.$.-.-.9.9.0.0.-.-.) ) ) ) %.%.=.=.%.%.,.,.,.,.%.%.@.@.%.%.5.5.u.u.q.q.,.,.....) ) ] ] @.@.$.$.-.-.=.$.] ] ) ) ) ) ] ] @.@.@.@.] ] ..+.....$.$.7.7.q.q.-.-.+.+.@.@.=.=.@.@./ / F F K K ] ] @.@.=.=.....,.,.=.=.....' ' ..] @.@.....A A S S ^ ^ K K ' ' a.a.m.m.l.l.a.a.n.n.A.A.V.V.w.w.F F ' ' w.w.u.u.w.w.5.5.5.5.7.7.,.%.+.+.) ) F F N N / / ,.,.u.u.s.s.i.i.w.w.,.,.q.q.u.u.e.e.y.y.e.e.$.$.w.w.u.u.f.f.h.h.i.i.6.6._ _ S S R R R R K K N N S S / ^ +.+.=.=.....^ ^ ^ ^ t.t.g.g.q.r.3.3.,.,.0.0.l.l.g.g.+.+.R R ' ' +.+.+.+.$.$.....' ..=.=.0.0.l.l.b.b.w.w.5.5.7.7.u.u.h.h.y.y.5.5.5.5.q.q.,.,.$.$.=.=.%.%.....] ] %.%.q.q.9.9._ _ d d & & O O X X . . O O 3 3 < < = = 6 6 G G / / S S - - p p > > ; ; ; ; > > < < b b / / $.$.@.@.) ) D D C C D D D D M M M M S S S S D D S S n n B B B B M M l l j j M M S S S S Z M M M S S S S S S S S S S S S M M n n c c c c c c c c n n n n M M S S M M S S S S C C M M M M M M n n M M c c c c c c c c n n n n n n c c c c n n M M M M M M M M M M M M M M M M M M M M n n c c ",
"Y Y Y Y Y Y Y Y Y Y / / / / / / / / Y Y Y Y / / / / Y Y Y Y I I I I J J J J D D L L L L D D I I Y Y Y Y Y Y Y Y Y Y I I I I I I I I I I Y Y / / W W / / _ _ | | | | [ [ _ _ _ _ ( ( ( ( / / Y Y T T / / ( ( ( ( _ _ ( ( ( / ( ( / / ~ ~ / / / / / / ~ ~ T T ~ ~ Y Y Y Y Y Y Y Y Y Y Y Y Y Y Y Y Y Y Y Y Y Y Y Y I I I I I I L J L L L L J J I I I I I I I I I I Y Y Y Y Y Y Y Y Y Y ~ ~ Y Y Y Y Y Y Y Y I I I I Y Y Y Y Y Y ~ ~ ~ ~ / / / / / / / / / / / / ~ ~ ~ ~ Y Y L L L L L L L L G G G G / / / / ) ' +.+.=.=.%.%.%.%.$.$.-.-.7.7.0.0.-.-.) ) ) ) %.%.=.=.$.%.-.,.,.3.%.%.@.@.%.%.5.5.u.u.q.q.,.,.....) ) ] ] @.@.$.$.-.-.$.$.] ] ) ) / / ] ] @.@.@.@.] ] +.+.....$.$.7.7.q.q.-.-.+.+.@.@.=.=.@.@./ / F F K K ] ] @.@.=.=.....,.,.=.=.....' ' ..] @.@.....N A S S ^ ^ K K ' ' a.a.m.m.l.l.a.a.n.n.A.A.V.V.w.w.F K ' ' w.w.u.u.w.w.5.5.5.5.7.7.,.%.+.+.) ) F F N N / / ,.,.u.u.s.s.i.i.w.w.,.,.q.q.u.u.w.w.y.y.e.e.$.$.w.w.u.u.f.f.h.h.i.i.6.6.) _ S S R R R R K K N N S S / / +.+.=.=.....^ ^ ^ ^ t.t.g.g.q.q.3.3.,.,.0.0.l.l.g.g.+.+.R R ' ' +.+.+.+.$.$.....' ..=.=.0.0.l.l.b.b.w.w.3.5.7.7.u.u.h.h.y.y.5.5.5.5.q.q.,.,.$.$.=.=.%.%.....] ] %.%.q.q.9.9._ _ d d & & O O X X . . O O 3 3 < < = = 6 6 G G / / S S - - p p > > ; ; ; ; > > < < b b / / $.$.@.@.) ) D D C C D D D D M M M M S S S S D D S S n n B B M B B M l l j j M M S S S S Z Z M M S S S S S S S S S S S S M M n n c c c c c c c c n n n n M M S S M M S S S S C C M M C S M M n n M M c c c c c c c c n n n n n n c c c c M n M M M M M M M M M M M M M M M M M M M M n n c c ",
"Y Y L L L L L L I I Y Y Y Y / / Y Y Y Y Y Y Y Y Y Y Y Y I I L L L J D D D D D D D D D D D D D D I I Y Y Y Y I I J J J J J J D D D D I I Y Y Y Y T T / / _ _ _ _ _ _ _ _ _ _ ( _ _ _ _ _ _ _ ( ( _ _ _ _ _ _ _ _ _ _ _ _ / / _ _ ( ( / / / / ~ ~ T T Y Y Y Y Y Y Y Y I I I I I I Y Y Y Y Y Y Y Y Y Y I I I I I I L L L L L L Y Y I I L L L L I I L L L L D J Y Y Y Y Y Y Y Y ~ ~ ~ ~ ~ ~ Y Y Y Y Y Y Y Y Y Y Y Y Y Y Y Y Y Y Y Y Y Y Y Y ~ ~ / / / / / / / / Y Y Y Y L L D D G G L L F F S S G G ] ] $.$.] ] ] ] ] ] $.$.%.%.@.@.-.-.3.3.%.%.@.@._ _ ' ' +.+.' ' ] ] $.$.=.=.........5.5.i.i.d.d.w.w.7.7.5.5.,.,.7.7.5.5.-.-.%.%.] ] / / / / ] ] -.-.5.5.9.9.%.%.@.@.@.@.5.5.s.s.a.a.5.5.%.%.$.$.,.,.7.7.7.7.7.7.u.u.l.l.x.x.n.n.N.N.Z.Z.N.N.d.d.7.7.7.7.w.w.,.,.A A S S ) ) K K ' ' a.a.n.n.q.q.=.=.3.3.d.d.b.b.i.i.] ] ' ' ,.,.7.7.=.=.R R S F F F L L R R R R R R @.@.u.u.b.b.M.M.j.j.q.q.y.y.7.7.e.w.y.y.7.7.q.q.u.u.7.7.q.q.e.e.s.s.x.x.b.b.h.h.8.8.#.#.R R N N k k k k v v k k v v A A F F R R ....7.7.5.7.=.=.y.y.n.n.t.t.0.0.u.u.t.t.3.3.=.=.$.$.,.,.$.$.' ' ^ ^ ....=.=.7.7.,.,.K K F F L L ) ) ] ] @.@.=.=.7.7.e.e.,.,.@.@.@.@.@.@.] ] $.$.w.w.u.u.q.q.$.$.B B & & X X         O O b b G G S S Y E X.X.@.@.) ) B B b b u u 0 0 b b N N f f 3 3 < < G G ] ] @.@.! ! S S D D D D n n S S D D S S D D S S b b c c d d - - - - w w c c M M M M M M S S D D D D D D D D D D S S M M M M n n c c c c c c c c n n M n M M M M S S S S S S M M S S M M M M n M c c c c c c c c n n c c c c c c c c c c n n n n n M M M M M n n M M M M M M n n c c j j ",
"Y Y L L L L L L I I Y Y Y Y / / Y Y Y Y Y Y Y Y Y Y Y Y I I L L L L D D D D D D D D D D D D D D I I Y Y Y Y I I J J J J J J D D D D I U Y Y Y Y T T / / _ _ _ _ _ _ _ _ _ _ _ _ _ _ _ _ _ _ ( ( _ _ _ _ _ _ _ _ _ _ _ _ / / _ ( ( ( / / / / ~ ~ Y T Y Y Y Y Y Y Y Y I I I I I I Y I Y Y Y Y Y Y Y Y I I I I I I L L L L L L Y Y I I L L L L L I L L L L J J Y Y Y Y Y Y Y Y ~ ~ ~ ~ ~ ~ Y Y Y Y Y Y Y Y Y Y Y Y Y Y Y Y Y Y Y Y Y Y Y Y ~ ~ ~ / / / / / / / Y Y Y Y L L D D G G L L F F S S G G ] ] $.$.] ] ] ] ] ] $.$.%.%.@.@.-.-.3.3.%.%.@.@._ _ ' ' +.+.' ' ] ] $.$.=.=.........5.5.i.i.d.d.w.w.7.7.5.5.,.,.7.7.5.5.-.-.%.%.] ] / / / / ] ] -.-.5.5.9.9.%.%.@.@.@.@.5.5.s.s.a.a.5.5.%.%.$.$.,.,.7.7.7.7.7.7.u.u.l.l.x.x.n.n.N.N.Z.Z.N.N.d.d.7.7.7.7.w.w.,.,.A A S S ) ) K K ' ' a.a.n.n.q.q.=.=.3.3.d.d.b.b.i.i.] ] ' ' ,.,.7.7.=.=.R R S F F F L L R R R R R R @.@.u.u.b.b.M.M.j.j.q.q.y.y.7.7.e.w.y.y.7.7.q.q.u.u.7.7.q.q.e.e.s.s.x.x.b.b.h.h.8.8.#.#.R R N N k k k k v v k k v v A A F F R R ....7.7.7.7.=.=.y.y.n.n.t.t.0.0.u.u.t.t.3.3.=.=.$.$.,.,.$.$.' ' ^ ^ ....=.=.7.7.,.,.K K F F L L ) ) ] ] @.@.=.=.7.7.e.e.,.,.@.@.@.@.@.@.] ] $.$.w.w.u.u.q.q.$.$.B B & & X X         O O b b G G S S L Y X.X.@.@.) ) B B b b u u 0 0 b b N N f f 3 3 < < G G ] ] @.@.! ! S S D D D D n n S S D D S S D D S S b b c c d d - - - - w w c c M M M M M M S S D D D D D D D D D D S S M M M M n n c c c c c c c c n n M M M M M M S S S S S C M M S C M M M M M M c c c c c c c c c c c c c c c c c c c c n n n n n M M M M M n n M M M M M M n n c c j j ",
"J D I Y I I L L D D L L I I I Y I I Y Y Y Y I I I I L L J J L L D D D D D D D D D D D D D D D D I I Y Y I I I U J J J J I I J U I I I I Y Y T T T T / / _ _ _ _ ( ( ( ( / / / / / / _ _ ` ` | | | | { { { { _ _ _ _ _ _ _ _ _ _ ( ( / / / / ~ ~ ~ ~ Y Y Y Y Y Y Y Y Y Y Y Y ~ Y ~ ~ / / / / / / / / Y Y Y Y I I I I I L L L Y I I I I I I I Y Y Y I I I I I Y Y Y Y / / / / ( / ( ( ( ( ( / / / ~ ~ Y Y Y Y Y Y Y Y Y Y Y Y Y Y Y Y Y Y ~ ~ ~ ~ ~ ~ ~ ~ / / Y Y Y Y L L L L Y Y ) ) _ _ _ _ @.@.-.-.-.-.@.@.] ] @.@.$.$.$.$.&.&.%.%.%.%.-.-.5.5.-.-.%.%.,.3.$.$.@.@.$.$.$.$.........,.,.7.7.$.$.@.@.@.@.@.@.+.+.....] ] / / F F S S b N G G _ _ $.$.-.-.9.9.q.q.5.9.=.=.5.5.d.d.g.g.t.t.t.t.w.w.u.u.d.d.d.d.j.j.V.V.Z.Z.V.V.x.x.m.m.A.A.V.V.d.d.7.7.,.,.=.=.3.3.+.+.$.$.=.=.+.+.7.7.l.l.v.v.d.d.j.j.t.t.3.3.t.t.a.a.=.=.F F H H R L H K N N b b k k k k b b / / %.%.q.q.u.u.k.k.z.z.u.u.8.7.u.u.u.u.q.w.$.$.) ) ....7.7.e.e.i.i.7.7.7.7.i.i.s.s.8.8.<.<.7.7.....N N < < k k N N N N N N H H L L @.@.0.0.u.u.0.0.,.,.u.u.x.x.w.w.' ' ) ) $.$.3.3.3.3.=.=.,.,.+.+.....R R ) ) 7.7.,.,.' ' / / ....$.$.) ) S S F F / / @.@.,.,.7.7.,.,.$.$.....$.$.7.7.q.8.<.<.@.@.#.#.L L w w O O     O O < < S S / / _ _ $.$.,.-.#.#.] ] ) ) / / S S d d u u k k v v v v p p t 3 _ _ 5.5.@.@.D D C C C C n n M M S S n M B B B B l l d d 6 6 * * * * 4 6 j j n n M M S S D P D D D D D D D D D D S S M M M M c c c c c c c c c c c c n n M M S S S S S S M C M M M M M C M M M M n n n n c n n n c c c c c c c c c c c c c c n n n n n n M M M M n n n n c c c c c j g g ",
"D D I I I I L L D D L L L I I I I I Y Y Y Y I I I I L L D D L L D D D D D D D D D D D D D D D D I I I Y I I I I J J U J I I U U I I I Y Y Y Y T T T / / _ _ _ _ ( ( ( ( / / / / / / _ _ ` ` | | | | { { { { _ _ _ _ _ _ _ _ _ [ ( ( / / / / ~ ~ ~ ~ Y Y Y Y Y Y Y Y Y Y Y Y ~ ~ ~ ~ / / / / / / / / Y Y Y Y I I I I I I I I Y Y I I I I I I I Y Y Y I I I I Y Y Y Y / / / / ( ( / ( ( ( ( ( / / ~ ~ Y Y Y Y Y Y Y Y Y Y Y Y Y Y Y Y Y Y ~ ~ ~ ~ ~ ~ ~ ~ / / Y Y Y Y L L L L Y Y ) ) _ _ _ _ @.@.-.-.-.-.@.@.] ] @.@.$.$.$.$.&.&.%.%.%.%.-.-.5.5.-.-.%.%.,.3.$.$.@.@.$.$.$.$.........,.,.7.7.$.$.@.@.@.@.@.@.+.+.....] ] / / F F S S b C G G _ _ $.@.-.-.9.9.q.q.5.7.=.=.5.5.d.d.g.g.t.t.t.t.w.w.u.u.d.d.d.d.j.j.V.V.Z.Z.V.V.x.x.m.m.A.A.V.V.d.d.7.7.,.,.,.,.3.3.@.+.$.$.=.=.+.+.7.7.l.l.v.v.d.d.j.j.t.t.3.3.t.t.s.a.=.=.F F H H R R H K N N b b k k k k b b / / %.%.q.q.u.u.k.k.z.z.u.u.7.7.u.u.u.u.q.w.$.$.) ) ....7.7.e.e.i.i.7.7.7.7.i.i.s.s.8.8.<.<.7.7.....N N < < k k N N N N N N H H L L @.@.0.0.u.u.0.0.,.,.u.u.x.x.w.w.' ' ) ) $.$.3.3.3.3.=.=.,.,.+.+.....R R ) ) 7.7.,.,.' ' / / ....$.$.) ) S S S S / / @.@.,.,.7.7.,.,.$.$.....$.$.7.7.q.q.<.<.@.@.#.#.L L w w O O     O O < < S S / / _ _ $.$.-.-.#.#.] ] ) ) / / S S d d u u k k v v v v p p t t _ _ 9.9.@.@.D D C C C C n n M M S S n n B B B B l l j j 6 6 * * * * 4 6 j j n n M M S S D P D D D D D D D D D D S S M M M M c c c c c c c c c c c c n n M M S S S S S S M M M M M M C C M M M M n n n n c c n n c c c c c c c c c c c c c c n n n n M n M M M M n n n n c c c c c c j g ",
"I I L L L J Y Y ~ / / / Y Y Y Y Y Y ~ ~ E Y Y Y Y Y Y Y I I L I U U I I L L L L J J I I L L J J Y Y Y Y Y Y I Y U U I I Y Y Y Y T T / / ( ( ( ( ( / _ _ | | | | { { _ _ ( ( / / / / ` ` ` ` | | | | | | ` ` ` ] | | | | | | | | | } _ _ _ [ [ [ _ _ _ _ ( ( / / / / ( ( _ _ _ ` ` ` | | | | | | | | ] ] _ _ / / / / ~ ~ Y Y I I I I I I Y I Y Y ~ ~ Y Y T T / ~ / / / / ( ( _ _ _ _ _ [ _ _ / / / / Y Y Y Y Y Y Y Y Y Y Y Y Y Y Y Y Y Y ~ ~ ~ ~ ~ ~ / / / / / / Y Y Y Y / E _ _ #.#.5.5.0.0.5.5.-.-.@.@._ ' _ _ @.o.$.$.%.%.-.-.] ] ] ] 9.9.y.y.7.7.5.5.w.w.h.h.q.q.$.$.] ] L L L L L L N N k k k k N N F F S S k k < < O O O O O O & & y y S S L L ] ] 5.5.s.s.u.u.5.5.=.=.9.9.y.y.0.0.7.7.t.t.u.u.d.d.u.u.d.d.x.x.d.d.7.7.....,.,.h.h.h.h.7.7.,.,.,.,.=.=.3.3.t.t.w.w.$.$.,.,.d.d.g.g.3.3.a.a.B.B.b.b.0.0.3.3.t.t.w.w.$.$./ / F F b b N N S S b b d d k k ) ) 7.7.,.,.....7.7.e.e.6.6.5.5.%.%.<.<.] ] N N k k b b F F @.@.,.,.%.%.-.-.6.6.5.<.-.-.<.<.y.y.7.7.G G 0 0 G G ,.,.7.7.$.$.] ] 7.7.h.h.v.v.x.x.a.a.q.q.t.t.w.w.,.,.$.$.) ) F F +.+.t.t.3.3.' ' +.+.,.,.^ ^ ' ' y.y.,.,.R R ' ' ,.,.$.$.) ) R R K K b b S S %.%.i.u.d.d.7.7.@.@.,.,.7.7.$.$.] ] G G _ _ / / p p O O X X 3 3 L L ] ] _ _ L L ] ] %.%._ _ / / L L R R L L b b 0 0 < < d d u u = = = = ] ] p.p.5.5.L L c c n n M M n n S S n n B B S S M M c c d d , , * * 4 4 c c S S D D D D Z Z S S S S S S S S S S C C n n c c c c c c c c c c j j c c n n M M M M S S S S M M M M M M M M M M M M M M M M n n n c c c c c c c c c c c c c c c c c c c n n M M M M M M c c c c j j g g g g ",
"I I L L L L Y Y / / / / Y Y Y Y Y Y ~ ~ Y Y Y Y Y Y Y Y I I L L L U I I L L L L J J I I I L J J Y Y Y Y Y Y I Y I U I I Y I Y Y T T / / / / ( ( ( / _ _ { { | | { { _ _ ( ( / / / / ` ` ` ` | | | | | | ` ` ` ] | | | | | | | | } } _ _ _ [ [ [ _ _ _ _ ( ( / / / / ( ( _ _ _ ` ` ` | | | | | | | | ] ] _ _ / / / / ~ ~ Y Y I I I I I I Y I Y Y ~ ~ ~ Y T T / / / / / / ( ( _ _ _ _ _ _ _ ` / / / / Y Y Y Y Y Y Y Y Y Y Y Y Y Y Y Y Y Y ~ ~ / / / / / / / / / / Y Y Y Y / E _ _ #.#.5.5.0.0.5.5.-.-.@.@._ _ _ _ @.@.$.$.%.%.-.-.X.] ] ] 9.9.y.y.9.9.5.5.w.w.h.h.q.q.$.$.] ] R L L L L L N N k k k k N N F F S S k k < < O O O O O O & & y y S S L L ] ] 5.5.s.s.u.u.5.5.=.=.9.9.y.t.0.0.7.7.y.y.u.u.d.d.u.u.d.d.x.x.d.d.7.7.....,.,.h.h.h.h.7.7.,.,.,.,.=.=.3.3.t.t.w.w.$.$.,.,.d.d.g.g.3.3.a.a.B.B.b.b.0.0.4.3.t.t.w.w.$.$.^ / F F b b N N S S b b d d k k ) ) 7.7.,.,.X.X.7.7.e.e.6.6.5.5.%.%.<.<.] ] N N k k b b F F @.X.,.,.%.%.-.-.6.6.5.5.-.-.<.<.y.y.7.7.G G 0 0 G G ,.,.7.7.$.$.] ] 7.7.h.h.v.v.x.x.a.a.q.q.t.t.w.w.,.,.$.$.) ) F F +.+.t.t.3.3.' ' +.+.,.,.^ ^ ' ' y.y.,.,.R R ' ' ,.,.$.$.) ) R R K K b b S S %.%.i.i.d.d.7.7.@.@.,.,.7.7.$.$.] ] G G _ _ / / p p O O X X 3 3 L L ] ] _ _ L L ] ] %.%._ _ / / L L R R K K b b 0 0 < < d d u u = = = = ] ] p.p.5.5.L L c c n n M M n n S S n n B B S S M M c c d d , , * * 4 4 c c S S D D D D Z Z S S S S S S S S S S C C n n c c c c c c c c c c j j c c n n M M M M C C S S M M M M M M M M M M n n M M M M n n c c c c c c c c c c c c c c c c c c c c n n M M M M M M c c c c j j g g g g ",
"~ ~ / / / / _ _ _ _ _ _ ( ( / / / ( / / / / ( ( ( ( / / / / Y T Y Y Y Y I I I I Y Y Y Y Y Y Y Y Y Y Y Y Y Y Y Y T T / / / / / / ( ( ( ( _ _ _ _ } } _ _ _ _ _ [ } } ] ] ] ] ] ] ] ] ] ` ` ` | | | | | | ] ] ] ] | | | | { | | | | | | | } } _ _ ( ( ( ( _ _ _ _ ` ` | | | | | |  . .o.o.O.O.#.#.o.o.| | ` ` _ _ / / ~ ~ Y Y Y Y Y Y Y Y Y Y Y Y Y Y ~ / ( ( ( ( ( ( _ _ | | | | | | ] | ` ` ) _ / / / / / / ~ ~ T Y Y Y Y Y / / ~ ~ ~ / / / / / / / / / ( ( Y Y / / ` ` ] ] ] ] #.#.5.5.w.w.=.=.@.@._ _ ' ' @.@.-.-.-.-.@.@.] ] @.@._ _ ) ) X.X.] ] @.@.y.y.j.j.7.7.R R d d 0 0 d d 0 0 k k k k 0 0 R R @.@.F K 0 0 0 0 N N d d & & X X $ $ O O = = G G -.-.j.j.x.x.i.s.3.3.4.3.t.t.q.q.3.3.u.u.h.h.d.d.q.q.,.,.@.@.....$.$.] ] ' ' @.@.y.y.u.u.%.%.' ' +.+.,.,.q.q.4.4.4.4.t.t.3.3.' ' =.$.t.t.l.l.g.g.0.0.t.t.v.v.m.m.x.x.t.t.%.%.....5.5.y.y.@.@.N N N N @.@.w.w.i.i.9.9.%.%.5.5.q.q.7.7.$.$.S S k k b b k k k k l l 0 0 G G =.=.q.q.6.6.,.,.q.q.i.i.s.s.,.,./ / ) ) 7.7.k.k.N.N.M.M.z.z.h.h.t.t.,.,.@.@.$.$.7.7.3.3.' ' $.$.7.7.3.3.' ' =.=.j.j.a.a.R R $.$.t.t.,.,.$.$.t.t.7.7.) ) R R %.%.%.,.........@.@.F F v v R R w.w.c.c.f.f.@.@.] ] ....R R B B b b S S b b < < X X O O b b _ _ ] ] ] ] _ _ ) ) / / ) ) _ _ ] ] ) ) b b = = & & & & > > > > < < ; ; F F y.y.5.5.D D M M c c c c c c j j b b L L / / G G M M S S 6 6 : - 6 6 n n S S S S S S S S S S S S S S C C M M M M n c c c M M j j c c c c c c c c M M M M M M M M M M C C M M M M M M M M M M M M n n c c c n c c c c c c c c c c c c c c n n n n n n n n c c c c c c c c c c j d g g ",
"~ ~ / / / / _ _ _ _ _ _ ( ( ( / / ( / / / / ( ( ( ( / / / / Y T Y Y Y Y I I I I Y Y Y Y Y Y Y Y Y Y Y Y Y Y Y Y T T / / / / / / ( ( ( ( _ _ _ _ } } _ _ _ _ _ [ } } ] | ] ] | ] ] ] ] ] ` ` | | | | | | ] ] ] ] | | | | { | | | | | | | } } _ _ ( ( ( ( _ _ _ _ ` ` | | | | |  . . .o.o.O.O.#.#.o.o.| | ` ` _ _ ( / ~ ~ Y Y Y Y Y Y Y Y Y Y Y Y Y Y ~ ~ ( ( ( ( ( ( _ _ | | | | | | ] ] ` ` _ _ / / / / / / ~ ~ T Y Y Y Y Y / / / ~ ~ ~ / / ~ ~ / / / / ( ( Y Y / / ` ` ] ] ] ] #.#.5.5.w.w.=.=.@.@._ _ ' ' @.@.-.-.-.-.@.@.] ] @.@._ _ ) ) X.X.] ] @.@.y.y.j.j.7.7.R R d d 0 0 d d 0 0 k k k k 0 0 R R @.@.F F 0 0 0 0 N N f f & & X X $ $ O O = = G G -.-.j.j.x.x.s.s.3.3.4.4.t.t.q.q.3.3.u.u.h.h.d.d.q.q.,.,.@.@.....$.$.] ] ' ' @.@.y.y.u.u.=.=.' ' +.+.,.,.q.q.4.4.4.4.t.t.3.3.' ' =.=.t.t.l.l.g.g.0.0.t.t.v.v.m.m.x.x.t.t.%.%.....5.5.y.y.@.@.N N N N @.@.w.w.i.i.9.9.%.%.5.5.q.q.7.7.$.$.S S k k b b k k k k l l 0 0 G L =.=.q.q.6.6.,.,.q.q.i.i.s.s.,.,./ / ) ) 7.7.k.k.N.N.M.M.z.z.h.h.t.t.,.,.@.@.$.$.7.7.3.3.' ' $.$.7.7.3.3.' ' =.=.j.j.a.a.R R $.$.t.t.,.,.$.$.t.t.7.7.) ) R R %.%.,.,.........@.@.F F v v R R w.w.c.c.f.f.@.@.] ] ....R R B B b b S S b b < < X X O O b b _ _ ] ] ] ] _ _ ) ) / / ) ) _ _ ] ] ) ) b b = = & & & & > > > > < < ; ; F F y.y.5.5.D D M M j c c c c c j j b b L L / / G G M M S S 6 6 - - 6 6 n n S S S S S S S S S S S S S S C C M M M M c c c c M M j j c c c c c c c c M M M M M M M M M M C C M M M M M M M M M M M M n n c n n n c c c c c c c c c c c c c c n n n n n n n n c c c c c c c c c c d d g g ",
"/ / / / ( ( _ _ _ _ ( ( / / / / / / / / ( ( ( ( ( ( ( ( ( ( ~ ~ / / ~ ~ ~ ~ Y Y ~ ~ / ~ / / / / / / / / / / ( ( [ _ [ [ } } } } } } _ _ _ _ } } } } ` } _ _ _ _ [ _ } } | | | | | | | | | | [ _ ] ] | | | | | |  . .@.@.@.#.` ` } } } } ( _ ( ( ( ( _ _ _ _ ( ( ( ( _ _ } } | | | |  . . . .| | | | } } } } } } [ [ ( ( / / Y Y Y Y Y Y Y Y Y Y ~ ~ / / _ _ _ _ } } } } | | | |  .| | | } } | | | | _ _ / / ~ ~ Y Y I I I I / / ~ ~ / ~ ( ( } } | | ( ( ~ ~ | | _ _ / / / / / / ) ) ) ) _ _ ] ] _ _ ) ) / / _ _ | o.] ] / / ) ) _ _ ] ] ) ) / / @.@.9.9.y.y.-.-.R R N N N N F F N N d d N N R R L L %.%.w.w.7.7.@.@./ / R R L L - -     X X & & f f / / 3.,.t.t.g.g.h.h.u.u.0.0.3.3.9.9.u.u.d.d.i.i.5.5.] ] / / ' ' ....,.,.7.7.$.@.' ' 7.7.h.h.5.7./ / $.$.3.3.$.$.3.3.u.u.q.q.' ' ) ) 3.3.,.,.0.0.u.u.u.a.t.t.t.t.a.a.g.g.g.g.x.x.b.b.M.M.N.N.h.h.,.,.@.@.$.$.w.w.j.j.f.d.q.q.<.<.,.,.,.-.] ] N N d d B B S S F F B B d d S S X.X.,.,.$.$.,.,.i.i.s.s.7.7.] ] ] ] ,.,.d.d.c.c.n.n.b.b.x.x.j.j.q.q.' ) F F R R ) ) ^ ^ K K $.$.g.g.v.v.d.d.u.u.d.d.7.7.F F =.=.j.j.d.d.0.0.u.u.w.w.....K F ....,.,.%.%.X.X.@.@./ / N N N N X.X.z.z.c.c.,.,./ / / / F F d d & & & & = = & & X X X X p p L L / / / / _ _ _ _ ) ) _ _ ] ] @.@.@.@.L L < < o o O O u u b b d d < < x x 9.9.0.9.G J l l c c n n j j c c D D ) ) ) ) L L S S D D M M p p r r c c c c c c n n M M S Z M M n n c c c c c c M M M M n n c c c c j j 9 9 p g c c j j n n n n M M M M M M M M M M M M M M M M M M M n M M c c c c c c c c c c c c c c c c c c n n c c c c c c c c c c j j d d g g ",
"/ / ~ / ( ( _ ( _ _ ( ( ( / / / ( ( / / ( ( _ _ _ ( ( ( / / ~ ~ / / ~ ~ ~ ~ ~ ~ ~ ~ / ~ / / / / / / / / / / ( ( [ _ { { } } } } } } _ _ _ _ } } } } } } _ _ _ _ [ [ } } | | | | | | | | | | [ _ ] ] | | | | | |  . .@.@.#.#.` ` ` ` } } _ _ _ _ ( ( _ _ _ _ ( ( ( ( _ _ ` ` | | | |  . . . .| | | | | | | } } } [ [ ( ( / / Y Y Y Y Y Y Y Y Y Y ~ ~ / / _ _ _ _ } } | } | | | |  .| | | } } | | | | _ _ / / ~ ~ Y Y I I I I / / ~ ~ / / ( _ | } } } ( ( ~ ~ | | _ _ / / / / / / ) ) ) ) _ _ ] ] _ _ ) ) / / _ _ o.o.] ] / / ) ) _ _ ] ] ) ) / / @.@.9.9.y.y.-.-.R R N N N N F F N N d d N N R R L L %.%.w.w.7.7.@.@./ / R R L L - -     X X & & f f / / 3.3.t.t.g.g.h.h.u.u.0.0.3.3.9.9.u.u.d.d.i.i.5.5.] ] / / ' ' ....,.,.7.7.$.@.' ' 7.7.h.h.5.5./ / $.$.3.3.$.$.3.3.u.u.q.q.' ' ) ) ,.,.,.=.0.0.u.u.u.a.t.t.t.t.a.a.g.g.g.g.x.x.b.b.M.M.N.N.h.h.,.,.@.@.$.$.w.w.j.j.d.d.q.q.<.<.,.,.,.,.] ] N N d d N B S S F F B B d d S S X.X.,.,.$.$.,.,.i.i.s.s.7.7.] ] ] ] ,.,.d.d.c.c.n.n.b.b.x.x.j.j.q.q.' ) F F R R ) ) ^ ^ K K $.$.g.g.b.b.d.d.u.u.d.d.7.7.F F =.=.j.j.d.d.0.0.u.u.w.w.....K K ....,.,.%.%.X.X.@.@./ / N N N N X.X.z.z.c.c.,.,./ / / / F F d d & & & & = = & & X X X X p p L L / / / / _ _ _ _ ) ) _ _ ] ] @.@.@.@.L L < < o o O O u u b b d f < < x x 9.9.0.0.G G l l c c n n j j c c D D ) ) ) ) L L S S D D M M p p r r c c c c c c n n M M Z Z M M n n c c c c c c M M M M n n c c c c j j 9 9 p g c c j j n n n M M M M M M M M M M M M M M M M M n M M M M M c c c c c c c c c c c c c c c c c c c c c c c c c c c c c c j j d d g g ",
"( / ( ( ( ( _ _ _ _ ( ( / / ( ( ( ( ( ( ( ( _ _ _ _ ( ( ( ( / / / / / / ( ( ( ( ( ( ( ( _ _ _ _ _ _ _ _ _ _ [ [ { | | | | | | | } } _ _ ( ( _ _ _ _ } } } } _ _ ` _ | | | |  . . . . . . . .| | | | |  . . . . . . . . .O.o.| | | } _ ` _ _ _ _ ( _ _ _ [ [ ~ ~ / / / / ( ( [ _ _ ` | | | | _ _ _ _ _ _ } } | | } } _ _ ( ( ~ ~ / / / / ( ( ( ( ( _ _ _ | | } } | | | |  . . . . . .| | | | | | } } ( ( / / Y Y Y Y Y Y Y Y / / / / _ _ | | | | | | { | { | ] ] ] ] ] ] ] ] _ _ Y Y B B k k F F L L ^ ^ ) ) ] ] o.o.] ] ) ) / / L L / / / / _ _ y.y.h.h.5.5.b b d d N N F F A A b b S S ........@.@.7.7.w.w.y.y.w.w.$.$.] ] @.@.G G 3 3 O O O O v v ] ] 9.9.3.3.5.5.y.y.s.s.q.w.3.3.u.u.m.m.n.n.t.t.' ' K K R R ] ] =.=.7.7.u.u.%.%.R R 3.,.b.b.u.u.$.$.a.a.u.u.' ' ,.,.l.l.d.d.4.4.t.t.l.l.0.0.' ' ' ' 3.3.+.+.K K R R =.=.l.j.M.M.N.N.N.N.V.V.n.n.u.u.7.5.] ] $.$.q.q.u.u.q.q.$.$.@.@.%.%.R R b b k k N N B B S B B B l l B B _ _ #.#.....#.$.6.8.<.<.) ) G G E E X.X.w.w.d.i.y.y.5.5.=.=.7.7.q.q.,.,.=.=.0.0.u.u.7.7.] ] 3.3.h.h.x.x.d.d.y.y.q.q.....b b ^ ^ u.u.u.a.5.5.q.q.u.u.3.3.R R F F ) ) ) ) L R L L F F k k 0 0 S S u.u.b.b.7.7./ / ) ) R R d d O O             . . O O k k / / S S G G L L / / _ _ ] ] @.@.@.@.) ) F F < < O O & & H H ' ' / / d d d d %.-.9.9.D D c c M M c c j j d d M M Y Y / / D D M M M M B B p p 6 6 r r r r p p c c n n M M M M M M M M M M M M c c j j c c j j c c j j p p j j c c c c c c M n M M n n n n M M n n M M M M n n n n n n M M c c c c d d c c c c c c c c c c c c n n c c c c c c c c c c j j j j g g ",
"/ ( ( ( ( ( _ _ _ _ ( ( / / ( ( ( ( / / ( ( _ _ _ _ ( ( ( ( / / / / / / ( ( ( ( ( ( ( ( _ _ _ _ _ _ _ _ _ _ [ [ { | | | | | | | } } _ _ _ ( _ _ _ _ } } } } _ _ ` _ | | | |  . . . . . . . .| | | |  . . . . . . . . . .O.O.| | | } ` ` _ _ _ _ ( ( _ _ _ _ ~ ~ / / / / ( _ _ _ ` ` | | | | _ _ _ _ [ _ } } | | } } _ _ ( / ~ ~ / ( / / ( ( ( ( ( ( _ _ | | } } } } | |  . . . . . .| | | | | | } } ( ( / / Y Y Y Y Y Y Y Y / / / / _ _ | | | | | | { | { | ] ] ] ] ] ] ] ] _ _ Y Y B B k k F F L L ^ ^ ) ) ] ] o.o.] ] ) ) / / L L / / / / _ _ y.y.h.h.5.5.b b d d N N F F A A b b S S ........+.+.7.7.w.w.y.y.q.w.$.$.] ] @.@.G G 3 3 O O O O v v ] ] 5.5.3.3.5.5.y.y.s.s.q.q.3.3.u.u.m.m.n.n.y.y.' ' K K R R ] ] =.$.7.7.u.u.%.%.R R ,.,.b.b.u.u.$.$.a.a.u.u.' ' ,.,.l.l.d.d.4.4.t.t.l.l.0.0.' ' ' ' 3.3.+.+.K K R R =.=.l.j.M.M.N.N.N.N.V.V.n.n.u.u.7.7.] ] $.$.q.q.u.u.q.q.$.$.@.@.%.%.R R b b k k N N B B S S B B l l B B _ _ #.#.....#.#.6.6.<.<.) ) G G E E @.@.w.w.d.i.y.y.5.5.=.=.7.7.q.q.,.,.=.=.0.0.u.u.7.7.] ] 3.3.h.h.x.x.d.d.y.y.q.q.....b b ^ ^ u.u.u.a.5.5.q.q.u.u.3.3.R R F F ) ) ) ) L L L L F F k k 0 < S S u.u.b.b.7.7./ / ) ) R R d d O O             . . O O k k / / S S G G L L / / _ _ ] ] @.@.@.@.) ) F F < < o o & & H H ' ' / / d d d d -.-.9.9.D D c c M M c c j j d d M M Y Y / / G D M M M B B B p p 6 6 r r r r p p c c n n M M M M M M M M M M M M c c j j c c j j c c j j p p j j c c c c c c M M M M n n n n n M n n M M M M n n n n n n M M c c c c d d c c c c c c c c c c c c n n c c c c c c c c c c j j j j g g ",
"( ( ( ( _ _ _ _ [ [ ( ( ( ( ( ( / / / / ( ( ( ( ( ( ( ( / / / ( ( ( ( ( _ _ _ _ ( ( _ _ _ _ [ _ [ [ [ [ _ _ ( ( ( ( ( ( ( ( ( ( / / ~ ~ ~ ~ / / ( _ _ [ } } _ _ | | | |  . .#.#.@.@.o.o. . . . . . . . . . . . .| | | | | | | | | | | | } } ( ( ( ( ( ( ( ( / / ~ ~ / / ( ( _ _ _ _ ` ` } } _ _ [ [ [ [ [ [ ( ( ( ( ( ( / / / / ( ( ( ( ( ( _ _ [ [ } } | | | | } | | | | | | | | | | | | | _ _ ( ( Y Y Y Y Y Y Y Y ~ ~ Y Y / / / / / / / / ) ) ] ] | | | | ] ] ] ] ) ) Y Y D F S S N N N N L L ^ ^ / / _ _ o.o.] ] _ _ ! ! ! ! Y Y / / / / @.@.j.j.z.z.-.-.F F / / @.@.) ) b b k k N N ^ ^ @.@.%.%.5.5.5.5.5.5.5.5.@.@.@.@.-.-.%.%.^ ^ - - O O 3 3 H F L L S S F F ....5.5.-.-.3.3.j.j.Z.Z.x.x.$.$.S S L L ....$.$.,.,.q.q.5.5.@.@.) ) 0.0.x.x.u.u.q.q.b.b.j.j.' ' ....g.g.j.j.g.g.b.b.N.N.g.g.....^ ^ 7.7.0.0.$.$.=.=.7.7.u.u.w.w.5.5.q.q.d.d.i.i.,.,.] ] F F S S R R %.%.5.5.$.$.....#.#.] ] ) ) / / G G b b b b L L ) ) / / ] ] X.X.#.#.%.%.%.%.` _ L L B B S S L L ....7.7.%.%./ / F F ) ) $.$.w.w.j.j.M.M.B.B.j.j.,.,.$.$.=.=.....] ] ....) ) F F v v L L =.=.@.@.) ) @.@.w.w.q.q.] ] N N b b b b b b d d d d k k b b ) ) y.e.j.j.7.7.) ) ] ] ) ) b b & & . .       . O O & & d d G G S S B B B B G G ) ) ] ] _ _ / / F F l b 0 0 0 0 d d S S / / ' ' F F L L -.-.$.$.S S S S S S d d l l j j l l B B S S c c j j j j l l w w r r l l l l c c M M M M j j j j j j c c M M M n c c j j j j 9 9 p p c c j j g g j j g g c c c c n n n n c c n c c c n n n n c c n n n n M M n n c c c c c c c c c c c c c c c c c n n n c c c c c c c c c c c c c c ",
"( ( ( ( _ _ _ _ [ [ ( ( ( ( ( ( / / / ( ( ( _ ( ( ( ( ( / / / ( ( ( ( ( _ _ _ _ ( ( ( _ _ _ [ [ [ [ [ [ _ _ ( ( ( ( ( ( ( ( ( ( / / ~ ~ ~ ~ / / ( ( _ _ } } _ _ | | | |  . .#.#.@.#.o.o. . . . . . . . . . . . .| | | | | | |  .| | | | } } ( ( ( ( ( ( ( ( / / ~ / / / ( ( _ _ _ _ } } } } _ _ [ [ [ [ [ [ ( ( ( ( / ( / / / / ( ( ( ( ( ( _ _ [ } } } | | | } } | | | | | | | | | | | } | _ _ ( ( Y Y Y Y Y Y Y Y ~ ~ Y Y / / / / / / / / ) ) ] ] | | | | ] ] ] ] ) ) Y Y D F S S B N N N L L ^ ^ / / _ _ o.o.X.] _ _ ! ! ! ! Y Y / / / / @.@.j.j.z.z.-.-.F F / / @.@.) ) b b k k N N ^ ^ @.@.%.%.5.5.5.5.5.5.5.5.$.$.@.@.-.-.%.%.^ ^ - - O O 3 3 H F L L S S F F ....5.5.-.-.,.3.j.j.Z.Z.x.x.$.$.S S L L ....$.$.,.,.q.q.5.5.@.@.) ) 0.0.x.x.u.u.q.q.b.b.j.j.' ' ....g.g.j.j.g.g.b.b.N.N.g.g.....^ ^ 7.7.0.0.$.$.=.=.7.7.u.u.w.w.5.5.q.q.d.d.i.i.,.,.] ] F F S S R R $.$.5.5.$.$.....#.#.] ] / ) / / G G b b b b L L ) ) / / ] ] X.X.#.#.%.%.%.%._ _ L L B B S S L L ....7.7.,.%./ / F F ) ) $.$.w.w.j.j.M.M.B.B.j.j.,.,.$.$.=.=.....] ] ....) ) F F v v L L =.=.@.@.) ) @.@.w.w.q.q.] ] N N b b b b b b d d d d k k b b ) ) y.e.j.j.7.7.) ) ] ] ) ) b b & &   .         O O & & d d G G S S B B B B G G ) ) ] ] _ _ / / F F l l 0 0 0 0 d d S S / / ' ' F F L L -.-.$.$.S S S S S S d d l l j j l l B B S S c c j j j j l l w w r r l l l l c c M M B M j j j j j j c c M M n n c c j j j j 9 9 p p c c j j g g j j g g c c c c n n n n c c n c c c n n n n c c n n n n M M n n c c c c c c c c c c c c c c c c n n n n c c c c c c c c c c c c c c ",
"/ / ( ( ( ( [ [ [ [ _ _ _ _ [ [ ( ( ( ( ( ( _ _ _ _ ( ( / / ( ( _ ( _ _ _ _ } ` ` ` _ _ [ [ [ [ [ [ _ _ _ _ ( ( / / T T T T T T Y Y Y Y Y Y T T ( / _ _ } } } } | | | |  . . . . . . . .| | | | | | | | | |  . .| | | | | | | | | | } } _ _ / / ~ ~ ~ ~ ~ ~ / / ( ( ( ( ( ( _ _ _ _ } } } } | | } } } } _ _ ( ( ( ( / ( ( ( ( ( ( ( ( ( _ _ _ _ } } } } } } } } ` ` _ _ | | | | ` ] ` ` _ _ ( ( / / Y Y I I Y Y Y Y Y Y Y Y / / / / / / ) ) _ _ ` ` E E J J _ _ ] ` ` ` / / E E E E R E L L R R L L H H L L / / ) ) ! ! G G Y ! / / ) ) _ _ X.X.9.9.u.u.y.y.0.0.,.,.$.$.R R v v S S K K K K ] ] ] ] +.+.............^ ^ / / ) ) / / F F d f u p b b v v ; ; 0 0 b b ] ' =.=.@.@.,.,.j.j.C.C.j.j.3.3.) ) ....=.=.,.,.3.3.5.5.=.-.+.+.=.=.t.t.u.u.5.5.5.5.d.d.u.u.....) ) ,.,.w.w.u.u.s.s.u.u.t.t.$.$.3.3.j.j.v.v.l.l.d.d.t.t.3.3.+.+.' ' =.=.w.w.q.q.$.$.) ) R R K K R R $.$.7.7.5.5.$.$.....@.@.#.$.@.@.L L d d d d R R %.%.%.%.X.X.] ] %.%.8.8.0.0.-.-.] ] G G / / ] ] =.=.8.q.7.7.%.=.=.=.X.X.R R $.$.h.h.h.h.u.u.w.w.,.,./ / L R S S L L ) ) L L S S L L ........) ) R R ) ) $.$.%.%.) ) / / L L R R / / F F F F R R ) ) %.%.6.6.q.q.%.%./ / R R L L b b < < < < w w d d l l d d d d d d b b l l d d b b S S S S b b d d N N b b A A S S k k < < f d b b L L X.X.$.$./ / S S S S M M j j d d d d l l l l d d 3 3 < < 6 6 d d d d b b G G G G D D G G S S b b j j p p j j M M S S I I / / S S j j j j M M n n j j g g j j c c c c c c c c c c j j j j c c c c c c n n M M M M M M M n n n c c c c c c c c c c c c n n M M n n c c c c c c n n c c c c ",
"/ / ( ( ( ( [ [ [ [ _ _ _ _ [ [ ( ( ( ( ( ( _ _ _ _ ( ( / / _ _ _ ( _ _ _ _ } } ` ` _ _ [ [ [ [ [ [ [ _ _ _ ( ( / / T T T T T T Y Y Y Y Y Y T T ( / _ _ } } } } | | | |  . . . . . .| | | | | | | | | | | |  . .| | | | | | | | | | } } _ _ / / ~ ~ ~ ~ ~ ~ / / ( ( ( ( ( ( _ _ _ _ } } } } | | } } } } _ _ ( ( ( ( ( ( ( ( ( ( ( ( ( ( _ _ _ _ } } } } } } } } ` _ _ _ | | | | | | ` ` _ _ ( ( / / Y Y I I Y Y Y Y Y Y Y Y / / / / / / ) ) _ _ _ _ E E J J _ _ ` ` ` ` / / E E E E R E L L R R L L H G L L ) / ) ) ! ! G G Y Y / / ) ) _ _ X.X.9.9.u.u.y.y.0.0.,.,.$.$.R R v v S S K K K K ] ] ] ] +.+.............R R / / ) ) / / F F f f u u b b v v ; ; 0 0 b b ] ' =.%.@.@.,.,.j.j.C.C.j.j.3.3.) ) ....=.=.,.,.3.3.5.5.=.-.+.+.=.=.t.t.u.u.5.5.5.5.d.d.u.u.....) ) ,.,.w.w.u.u.s.s.u.u.t.t.$.$.3.3.j.j.v.v.l.l.d.d.t.t.3.3.+.+.' ' =.=.w.w.w.w.$.$.) ) R R K K R R $.$.7.7.<.5.$.$.....@.@.#.#.X.@.L L d d d d R R %.%.%.%.X.X.] ] %.%.0.0.0.0.-.-.] ] G G / / ] ] =.=.q.q.7.7.=.=.=.=.X.@.R R $.$.h.h.h.h.u.u.w.w.,.,./ / L R S S L L ) ) L L S S L L ........) ) R R ) ) $.$.%.%.) ) / / L L R R / / F F F F R R ) ) %.%.6.6.q.q.%.%./ / R R L L b b 3 3 < < w w d d l l d d d d d d b b l l d d b b S S S S b b d d N N b b A A S S k k < < f f b b L L X.X.$.$./ / S S S S M M j j d d d d l l l l d d 3 3 < < 6 6 d d d d b b G G G G S D G G S S b b j j p p j j M M S S I I / / S S j j j j M M n n j j g g j j c c c c c c c c c c j j j j c c c c c c n n M M M M M M M M n n c c c c c c c c c c c c n n M M n n c c n c n c c n c c c c ",
"/ / / / ( ( [ ( ( _ ( ( _ ( _ _ ( ( ( ( ( ( _ _ ( _ ( ( ( ( _ _ _ _ } } } } } } | | } } [ [ _ _ [ [ _ _ _ _ ( ( / / / / / / T T Y Y Y Y Y Y / / ( ( _ _ ` ` | | | |  . . . . . . . .| | | | | | | | | | | | | | | | | | | | _ _ ( ( ( ( / / Y Y T T T T ~ ~ ( ( [ [ [ ( _ _ [ [ _ _ } } } } | | | | | | } } ( ( ( ( ( ( [ [ [ [ [ [ } } } } | | | | } } | | [ _ _ _ ( ( ( ( ( ( ( ( ( ( / / / / / / ~ ~ Y Y ~ ~ ( ( _ _ / / E E X.X.<.<.<.<.#.#.) ) E E Y L Y Y / / { | %.%.<.<.-.-.@.@.) ) G G A A l l b b G G ! ! ! ~ L L G G G G Y Y _ _ ] ] _ _ $.$.u.u.w.w.' ' S S k k k k R R ....$.$./ / K K L L R R ^ ^ ^ ^ F F F F H L b b k k N N K K R R L L S S N N K K / / ) ) ) ) +...0.0.d.d.a.a.y.y.0.0.=.=.$.$.3.3.q.q.t.t.q.q.=.=.4.4.t.t.4.4.$.$.=.=.$.$.=.=.$.$.+.+.+.+.$.$.$.$.+.+.........$.$.0.0.y.u.t.t.t.t.0.9.$.$.] ] ....@.@.=.=.3.3.7.7.5.5.%.%.$.$.$.$.%.%.,.,.5.5.%.%.@.@.] ] ) ) ] ] ) ) S S 0 0 0 0 S S ) ) ] ] ] ] _ _ X.X.%.%.6.6.<.<.#.#.X.X.$.$.%.%.,.,.7.5.,.,.=.=.=.=.....S S ) ) 7.7.,.,.@.@.=.=...X.) ) R R L L ) ) ] ] / / R R ] ] ] ] ] ] ) ) ] ] ] ] ] ] +.+._ _ _ _ =.=.7.7.5.5.$.$.....+.@.....@.@.....@.@.) ) S S b b N N b b d d k l b b S S F F B B l l d d d d l l l l l l l l l l l l l l b b S S ^ ^ R R b b f f d d u u v v G G F F S S D D S S c c S S S S b b l l b b S S S S l l < < d d d j B B L L G G S S B B b b M M c c j j c c M M S S L L / / D D j j j j n M c c g g j j c c g g g g j j j d g g g g g g g g j j c c c c n n M M M M n M c c c c c c n n n n n n n n n n M M n n M M n n n n n n c c c c ",
"/ / / / ( ( ( ( ( ( ( ( ( ( _ _ ( ( ( ( ( ( _ _ ( ( ( ( ( ( _ _ _ _ } } } } } } | | } } } } _ _ [ [ _ _ _ _ ( ( / / / / / / T T Y Y Y Y Y Y / / ( ( _ _ ` ` | | | |  . . . . . . . .| | | | | | | | | | | | | | | | } | | | _ _ ( ( ( ( / / T T T Y T T ~ ~ ( ( [ [ [ ( _ _ [ [ [ [ } } } } | | | | | | } } ( ( ( ( ( ( [ [ [ [ [ [ } } } } | | | | } } | | [ _ _ _ ( ( ( ( ( ( ( ( ( ( / / / / / / ~ ~ Y Y ~ ~ ( ( _ _ / / E E X.X.<.<.<.<.#.X.) ) E E Y Y Y Y / / | | %.%.<.<.-.-.@.@.) ) G G A A l l b b G G ! ! ! ~ L L G G G G Y Y _ _ ] ] _ _ $.$.u.u.w.w.' ' S S k k k k R R ....$.$./ / K K L L R R ^ ^ ^ ^ F F F F L L b b k k N N K K R R L L S S N N K K / / ) ) ) ) ....0.0.d.d.a.a.y.y.0.0.=.=.$.$.3.3.q.q.t.t.q.w.=.=.4.4.t.t.4.4.$.$.=.=.$.$.=.=.$.$.+.+.+.+.$.$.$.$.+.+.........$.$.0.0.u.u.t.t.t.t.9.9.$.$.] ] ....@.@.=.=.3.3.7.7.5.5.%.%.$.$.$.$.%.%.,.,.5.5.%.%.@.@.] ] ) ) ] ] ) ) S S 0 0 0 0 S S ) ) ] ] ] ] _ _ X.X.%.%.6.6.<.<.#.#.X.X.$.$.%.%.,.,.5.5.,.,.=.=.=.=.....F S ) ) 7.7.,.,.@.@.=.=.....) ) R R L L / ) ] ] / / R R ] ] ] ] ] ] ) ) ] ] ] ] ] ] @.@._ _ _ _ %.=.7.7.5.5.$.$.....@.@.....@.@.....@.@.) ) S S b b N N b b d d l l b b S S F F B B l l d d d d l l l l l b b l l l l l l l b b S S ^ ^ R R N N f f d d u u v v H H F F S S D D S S c c S S S S b b l l b b S S S S l l < < d d j j B B L L G G S S B B b b M M c c j j c c M M S S L L / / D D j j j j M M c c g g j j c c g g g g j j j j g g g g g g g g j j c c c c n n M M M M n n c c c c c c n n n n n n M M n n n n n n n M n n n n n n c c c c ",
"~ ~ ~ ~ ( / ( ( ( ( ( ( ( ( ( ( / / / / / / / / ( ( ( ( _ _ _ _ _ _ [ _ _ _ _ [ _ _ _ _ [ [ ( ( ( ( ( ( ( ( ( ( ( ( / / / / ~ ~ ~ ~ / ~ / / ( ( } } } } } } | | | | | | | | | | | | } } _ _ | |  . . . . . .| | | | } } [ [ _ _ _ _ ( ( ( ( ( ( / / / / ( ( _ _ [ [ [ [ [ [ [ [ [ [ [ [ [ _ } } } } | | } } [ [ _ _ [ [ } } } ` } } } } | | | | | | } | } } / / ~ ~ Y Y Y Y Y Y Y Y Y Y Y Y I I Y Y Y Y Y Y ~ ~ ( _ ( ( Y Y Y Y #.#.7.7.,.<.` ` E E E E ) ) Y Y E E / / _ _ X.X.#.#.#.#.] ] / / G G F F L L _ _ o.o.] | ) ) ( ( ~ ~ / / ] ] ] X.] ] ....%.%.] ] N N N N K K R R ] ] +.+.@.@.] ] R R ^ ^ ^ ^ / / ] ] ) ) R L ) ) R R K L L L L L ^ ^ ) ) ) ) F F F F F F L L ^ ^ / / ] ] $.$.0.0.u.u.t.t.3.3.,.,.0.0.u.u.l.l.g.g.5.7.,.,.4.4.3.3.4.4.3.3.@.+.@.@.$.$.@.@.@.@.+.+.' ' ' ' ........-.-.,.,.$.$.+.+.-.-.,.,.$.$.R R / / / / R R L L / / ] ] ] ] ............) ) / / E E L L G G F F / / / / F F N N b b S S L L L R L L G G D D G G L L E E / / ] ] / / E E E E R R G G S S N N N N F F ) / ................' ' ....) ) ) ) / / R R / / / / / / L L / / ) ) @.@.$.$.@.@.$.$.] ] _ _ 9.9.u.u.q.q.%.%.@.@.@.@.+.+.%.%.-.-.%.%.] ] L L G G G G F F S S b b l l b b B B b b l l l l N N B B B B S S G G G G L L L L b b S S L L ^ ^ L L L L S S v v ; ; u u d d F F L L S S b b F F / / E E Y Y / / ] ] ] ] Y Y S S l l l l N N S S B B N N B B B B M M c c j j j j p p 6 6 y y j j j j p p j j j j p p 9 9 p p 6 6 r r g g g g g g g g g g g g g g j j j j c c c c M M M n c c c c c c c c n n n n n n M n c c c c n n n n n n n n c c c c c c ",
"~ ~ ~ ~ ( ( ( ( ( ( ( ( ( ( ( ( / / / / / / / / ( ( ( ( _ _ _ _ _ _ [ [ _ _ _ _ _ _ _ _ [ [ ( ( ( ( ( ( ( ( ( ( ( ( / / / / ~ ~ ~ ~ ~ ~ / / ( ( } } } } } } | | | | | | | | | | | | _ _ [ _ | |  . . . . . .| | | | } } [ [ _ _ _ _ ( ( ( ( / ( / / / / ( ( [ [ [ [ [ [ [ [ [ [ [ [ [ [ [ _ } } } } } | } } [ [ _ _ [ [ } } } ` } } } } | | | | | | } } } } / / ~ ~ Y Y Y Y Y Y Y Y Y Y Y Y I I Y Y Y Y Y Y ~ Y _ _ ( ( Y Y Y Y #.#.7.7.<.<.` ` E E E E ) ) Y Y E E / / _ _ X.X.%.%.#.#.] ] / / G G F F L L _ _ o.| | | ) ) ( ( ~ ~ / / ] ] ] X.] ] +...%.%.] ] N N N N K K R R ] ] +.+.@.@.] ] R R ^ ^ ^ ^ / / ] ] ) ) R L ) ) R R L L L L L L ^ ^ ) ) ) ) F F F F F F K K ^ ^ / / ] ] $.$.0.0.u.u.t.t.3.3.,.,.0.0.u.u.l.l.g.g.5.7.,.,.4.4.3.3.4.3.3.3.@.@.@.@.$.$.@.@.@.@.+.+.' ' ' ' ........%.%.,.,.$.$.+.+.-.-.,.,.@.$.R R / / / / R R L L / / ] ] ] ] ............) ) / / E E L L F F F F E E / / G G N N b b S S L L L L L L G G D D G G L L E E / / ] ] / / E E E E R R G G S S N N N N F F ) ) ................' ' ....) ) ) ) / / R R / / / / / / L L / / ) ) @.@.$.$.@.@.#.#.] ] _ _ 9.9.u.u.q.q.%.%.@.@.@.@.+.+.%.%.-.-.%.%.] ] L L G G G G F F S S b b l l b b B B b b l l l k N N B B B B S S G G G G L L L L b b S S L L ^ ^ L L L L S S v v = = u u d d F F L L S S b b F F / / E E Y Y / / ] ] ] ] Y Y S S l l l l N N S S B B N N B B B B M M c c j j j j p p 6 6 y y j j j j p p j j j j p p 9 9 p p 6 6 p p g g g g g g g g g g g g g g j j j j c c c c M M M n c n c c c c c c n n n n n n n n c c c c n n n n n n n n c c c c c c ",
"~ / ~ ~ / / ( ( ( ( / / / / T T Y Y T T T T ~ ~ / / ( ( ( ( ( ( ( ( ( ( _ _ ( ( ( ( ( ( ( ( ( ( ( ( ( ( ( ( / / / / T T T T ~ ~ ~ ~ / / ( ( } } | | | | | | } } _ _ _ _ [ _ ( _ ( ( / / / ( } } | | | | | |  . . . .| | | | | | | | | | } } } } _ _ } } } | [ [ [ [ _ _ [ [ _ _ ( ( ( ( ( _ ( ( _ _ | | | | } } _ ( ( ( ( ( ` _ _ ( _ _ } } } } } } _ _ ( ( Y Y I I U U D D D D J J U U I I D D D D D D D D D D I I J D B B R R / / / / J J S S J J Y Y L L Y Y / / ` ] _ _ / / _ _ _ _ _ _ R R ^ ^ ' ' %.%.0.0.e.e.q.q.6.6.5.5.5.5.-.-.] ] ) ) $.$.=.=.) ) L L v v F F ] ' $.$.3.3.3.3.=.=.' ' / ) +.+.@.@.....$.$.+.+.^ ^ R R / / ^ ^ L L L L ) ) ..../ / K L ^ ^ ....,.,.0.0.,.,.,.,.y.y.l.l.l.l.g.g.u.u.u.u.w.w.t.t.l.l.l.l.0.0.+.+.=.=.7.7.t.t.r.w.4.4.,.,.....) ) ....@.@.] ] ....-.-.9.9.7.7.=.=.....$.$.3.3.,.,.@.@.....R R S S N N k k k k b b k k l b b b b b v v l l b b k k 0 0 k k F G / / / / R R E E / / ) ) / / b b w w d d l l d d d d b b b b d d k d d d < < 0 0 k k k k b N E E ' ] ....$.$.....E E ] ..@.@.%.%.%.%.] ] L G R R ] ] / / R R ) ) ) ) ....#.#.$.$.@.@.) ) +.+.0.0.u.u.0.0.%.%.....@.@.-.-.9.9.t.t.q.q.3.3.-.-.7.7.q.q.5.5.] ] L L S S G G L L S S N N B B N N l l d d l l S S L L G G S S S S N N S S R R / / / / S S 0 0 - > p p S C / / / / F F B B l l D D ) ) X.X.] ] / / L L Y Y / / S S N N B B N N b b S S R R E E Y Y D D M M j j 6 6 * * 4 4 d d c c B B J J S S c c c c j j 6 6 p p g g g g j j j j j j c j c c c c c c n n M M M M M M M M n n c c c c c c n n n n c c c c c c n n M M n n c c c c c c c c ",
"/ / ~ ~ / / ( ( ( ( / / / / T T Y Y T T T T ~ ~ / / ( ( ( ( ( ( ( ( ( ( _ _ ( ( ( ( ( ( ( ( ( ( ( ( ( ( ( ( / / / / T T T T ~ ~ ~ ~ / / ( ( } } | | | | | | } } _ _ _ _ _ _ ( ( ( ( / / / / } } } | | | | |  . . . .| | | | | | | | | | } } } } [ [ } } | | [ [ [ [ _ _ _ [ _ _ ( ( ( ( _ _ ( ( ` ` | | | | ` ` _ _ ( ( ( ( ` ` _ _ _ _ } } } } } } _ _ ( ( Y Y I I U U D D D D D J U U I U D D D D D D D D D D I I D D B B R R / / / / J J S S J J Y Y L L Y Y / / ` ` _ _ / / _ _ _ _ _ _ R R ^ ^ ' ' %.%.0.0.e.e.q.q.6.6.5.5.5.5.-.-.] ] ) ) $.$.=.=.) ) L L v v F F ' ' $.$.3.3.3.3.=.=.' ' / ) +.+.@.@.....$.$.+.+.^ ^ R R / / ^ ^ K K L L ' ) ..../ / K L ^ ^ ....,.,.0.0.,.,.,.,.y.y.l.l.l.l.g.g.u.u.u.u.w.w.t.t.l.l.l.l.0.0.+.+.=.=.7.7.t.t.r.r.4.4.,.,.....) ) ....@.@.] ] ....%.%.9.9.7.7.=.=.....$.$.3.3.,.,.@.@.....R R S S N N k k k k b b k k b b b b b N b v l l l b k k 0 0 k k G G / / / / R R E E / / ) ) / / b b w 0 d d l l d d d d b b b b d d k k d d < < 0 0 k k k k b b E E ] ] ....$.$.....E E ....@.@.%.%.-.-.] ] L G R R ] ] / / L R ) ) ) ) ....#.#.$.$.@.@.) ) +.+.0.0.u.u.0.0.%.%.....@.@.-.-.9.9.t.t.q.q.3.3.-.-.7.9.q.q.5.5.] ] L L S S L G L L S S N N B B N N l l d d l l S S L L G G S S S S N N S S R R / / / / S S 0 0 > > p p S C / / / / F S B B l l D F ) ) X.X.] ] / / L L Y Y / / S S N N B B N N b b B S R R E E Y Y D D M M j j 6 6 * : 4 4 d d c c B B J J S S c c c c j j 6 6 p p g g g g j j j j j j j j c c c c c c n n M M M M M M M M n n c c c c c c c c c c c c c c c c n n M M n n c c c c c c c c ",
"~ ~ ~ ~ / / ~ ~ ~ ~ / / ~ ~ ~ ~ / / ~ ~ ~ ~ ~ ~ T T ~ ~ ~ ~ ( ( ( ( ( ( ( ( _ _ _ _ ( ( ~ ~ Y Y T T T T ~ ~ ~ ~ T T Y Y Y Y Y Y Y Y ~ / ( ( [ [ } } _ _ ( ( ~ ~ T T Y Y Y Y Y Y T T ~ ~ ~ ~ _ _ _ _ _ _ } } [ [ [ [ } } | | [ [ | | } } [ [ [ [ _ _ / / ( ( ( ( _ _ ( ( / / _ _ ( ( ( ( | | | | } } ` ` ( ( ( ( ) ) ) _ ` ` / / ~ ~ ( ( ` ` ) ) ( ( ` ` ) ) ~ ~ / / Y Y D D I I I I L L Y Y D D S S M M M M D D Y Y ) ) ] ] / / / / L L S S l l l j S S E E _ _ #.#.<.<.6.6.%.%.] ] ) ) ) ) / / ) ) @.@.1.1.5.5.-.-.9.9.u.u.a.p.5.5.) ) F F L L =.=.3.3.@.@.] ] L L v v v b / / $.$.=.=.@.@.] ] / / ^ ^ ' ' +.+.+.+./ / L L N N R R ] ] ] ] / / ' ' $.$.=.=.,.,.7.7.h.h.b.b.j.j.d.d.d.d.a.a.d.d.d.d.u.u.u.u.d.d.t.t.0.0.0.0.l.l.l.l.g.g.t.t.q.q.w.w.w.w.0.0.0.0.-.-.-.-.3.3.=.=.+.+.@.@.-.-.q.q.9.9.3.3.=.=.=.=.-.-.%.%.....H H S S b b k k k k d d d d 0 0 0 0 d d b b b b b b l b k k d d l l l l b b S S L L L L G G G G N N l l b b k k d d k k d d b b l l l l w w 0 < w w w w 0 w d d k k b b N N G G ) ) ] ] ) ) / / @.@.$.$.#.#.] ] ) ) ] ] ] ] ) ) ) ) ....@.@.$.$.@.@._ _ ] ] -.-.q.q.y.y.5.5./ / / / 5.5.y.y.9.9.%.%.] ] / / _ _ =.$.%.%.=.=.@.@.+.+.) ) @.+.$.$.....R R G G / / L L F F S S N N b b b b b b d d N N k k b b F F S S S S b b d d k k / / @.@.X.X.] ] _ _ L L l l b b b b F F R R R R F F B B S S b b b b B B F F G G F F F F F F S S c c w w < , , , , , w w j j c c B B D D D G B B d d 6 6 6 6 9 9 g g c c M M M M M M M M M M B B n n c c M M M M b b c c c c l l c c c c c c c c c c b c c c c c M M c c j j c c c c j j ",
"~ ~ ~ ~ ~ ~ ~ ~ ~ ~ / / ~ ~ ~ ~ / / ~ ~ ~ ~ ~ ~ T T ~ ~ ~ ~ ( ( ( ( ( ( ( ( _ _ _ _ ( ( / ~ Y Y T T T T ~ ~ ~ ~ T T Y Y Y Y Y Y Y T / / ( ( [ [ } } _ _ ( ( ~ ~ T T Y Y Y Y Y Y T T ~ ~ ~ / [ _ _ _ _ _ } } [ [ [ [ } } | | [ [ | | } } [ [ [ [ _ _ / / ( ( ( ( _ _ ( ( / / _ _ ( ( ( ( | | | | } } ` ` ( ( ( ( ) ) ) ) ` ` / / ~ ~ ) ( ` ` ) ) ( ( ` ` ) ) ~ ~ / / Y Y D D I I I I L L Y Y D D S S M M M M D D Y Y ) ) ] ] / / / / L L S S l l l j S S E E _ _ #.#.<.<.6.6.%.%.] ] ) ) ) ) / / ) ) @.@.1.1.5.5.-.-.9.9.u.u.a.a.5.5.) ) F F L L =.=.3.3.@.@.] ] L L v v b b / / $.$.=.=.@.@.] ] / / ^ ^ ' ' +.+.+.+./ / L L A A R R ] ] ] ] / / ' ' $.$.=.=.,.,.7.7.h.h.b.b.j.j.d.d.d.d.a.a.d.d.d.d.u.u.u.u.d.d.y.y.0.0.0.0.l.l.l.l.g.g.t.t.q.q.w.w.w.w.0.0.0.0.-.-.-.-.3.3.=.=.+.+.@.@.-.-.q.q.9.9.3.3.=.=.=.=.-.-.%.%.....H H S S b b k k k k d d d d 0 0 0 0 k k b b b b b b l b k k d d l l l l b b S S L L L L G G G G N N l l b b k k d d d k d d b b l l l l w w < < w w w w w w d d k k b b N N G G ) ) ] ] ) ) / / @.@.$.$.$.#.] ] ) ) ] ] ] ] ) ) ) ) ....@.@.$.$.@.@._ _ ] ] -.-.q.q.y.y.5.5./ / / / 3.5.y.y.9.9.%.%.] ] / / _ _ =.$.%.%.=.$.@.@.+.+.) ) @.+.$.$.....R R G G / / L L F F S S N N b b b b b b k d N N k k b b F F S S B S b b d d k k / / @.@.X.X.] ] _ _ L L l l b b b b F F R R R R F F B B S S b b b b B B F F G G F F F F F F S S c c w w < , , , , , w w j j c c B B D D D D M B d d 6 6 6 6 9 9 g g c c M M M M M M M M M M B B b b c c M M M M b b c c c c l l c c c c c c c c c c b c c c c c M M c c j j c c c c j j ",
"~ ~ / / / / / / / / / / ~ ~ Y Y Y Y Y Y Y Y Y Y Y Y Y Y Y Y / / ~ ~ / / ( ( ( ( ( ( / / ~ ~ ~ ~ / / / / / / / / ~ / ~ ~ T T Y T ~ ~ ~ ~ ( ( ( ( ( ( ( ( / / / / / / / / ( ( ( ( ( ( _ _ _ _ [ [ [ [ [ } } } | | } } | | | | | |  . .| | [ [ | | _ _ Y Y W T / / / / Y Y Y Y ( ( ( ( ( ( _ _ _ _ ) ( _ _ | ] o.| | | _ ` ( ( _ _ ( ( ] ] o.o.| | | | o.o.o.o.) ) | | ] ] ] ]  . .| | / / / / I I D D S S S S D D / / | | #.#.#.#.| | _ _ L L B B l l l l b b L L / / X.X.X.X.] ] _ _ ] ] #.#./ / L L / / _ _ _ _ _ _ $.$.7.7.$.$.Q Q F F / / @.@.5.5.0.0.0.0.0.0.3.3._ _ L L ^ ^ ) ) ' ' ] ] H H L L ^ ^ / / R R L G H H H H ^ ^ ....,.%.,.,.$.$.,.,.t.t.d.d.w.w.7.7.3.3.,.,.,.,.y.y.i.i.q.q.....' ' ....3.3.a.a.d.d.w.w.3.3.t.w.a.a.g.g.g.g.a.a.q.q.3.3.,.,.-.-.+.+.] ] ] ] +.+.+.+.+.+.' ' / / _ ] _ _ ) / / / / / R R S S b b N N S S S S S S S S N N b b B B S S S S b b d d d d k k b b N N B B B B G G L L G G S S S S F F N N b b l l l l b l d d b b b b N N b b b b N N N N b b B B b b l l d d k d B B S S S S S S G G L L L L G G L L R R R R L L F F L L L L ) ) @.@.$.$.,.,.q.q.q.q.5.5.@.@.@.@.5.5.t.t.5.5.] ] S S l l l l H H ] ] +.+./ / S S H H A A ) ) =.=.5.5.,.,.....) ) @.@.) ) N N < < 0 0 A A R R / / b b p p p p d d d d b b G G G G / / ] ] $.$.@.@.X.@.X.X._ _ R R d d d d d d b b S S G G F F F F S S S S G G / / L L F F b b l l j j w w - - - - - - < < w w d d c c c c b n M M c c d d w w w w c c c c c c c c c c c c j j j j j j p p p p d d d d d d d d d d p p p p p p p p w w p p p p p d p p j j c c M M S S M M c c ",
"~ ~ / / / / / / / / / ~ ~ ~ T Y Y Y Y Y Y Y Y Y Y Y Y Y Y Y / / ~ ~ / / ( ( ( ( ( ( / / ~ ~ ~ ~ / / / / / / / / ~ / ~ ~ T T T T ~ ~ / ~ ( ( ( ( ( ( / / / / / / / / / / ( ( ( ( ( ( _ _ _ _ [ [ [ [ } } } } | | } } | | | | | |  . .| | [ [ | | [ _ W W W E / / / / Y Y Y Y ( ( ( ( ( ( _ _ _ _ ) ) _ _ ] ] o.o.| | ` ` ( ( _ _ ( ( ] ] o.o.| | | | o.o.o.o.) ) { | | | ] ]  . .| | / / / ~ I I D D S S S S D D / / | | #.#.#.#.| | _ _ L L B B l l l l b b L L / / X.X.X.X.] ] _ _ ] ] $.#./ / L L / / _ _ _ _ _ _ $.$.7.7.$.$.Q Q F F / / @.@.5.5.0.0.0.0.0.0.3.3._ _ L L R R ) ) ' ' ] ] H H L L ^ ^ / / R R L L H H H H ^ ^ ....,.%.,.,.$.$.,.,.t.t.d.d.w.w.7.7.3.3.,.,.,.,.y.y.i.i.q.q.....' ' ....3.3.a.a.d.d.w.w.3.3.t.t.a.a.g.g.g.g.a.a.q.q.3.3.,.,.-.-.+.+.] ] ] ] +.+.+.+.+.+.' ' / / ' _ _ _ ) / / / / / R R S S b b N N S S S S S S S S N N b b N N S S S S b b d k d d k k b b N N B B B B G G L L G G S S S S S S N N b b l l l l l l d d b b b b N N b b b b N N N N N b B B b b l l d d d d B B S S S S S S G G L L L L G G L L R R R R L L F F L L L L ) ) @.@.$.$.,.,.q.q.q.q.5.5.@.@.@.@.5.5.t.t.5.5.] ] S S l l l l H H ] ] +.+./ / S S H H A A ) ) =.=.5.5.,.,.....) ) @.@.) ) N N < < 0 0 S A R R / / b b p p p p d d d d b b G G G G / / ] ] #.$.@.@.X.@.X.X._ _ R R d d d d d d b b S S G G F F F F S S S S G G / / L L F F b b l l j j w w - - - - - - < < w w d d c c c c b b M M c c d d w w w w c c c c c c c c c c c c j j j j j j p p p p d d d d d d d d d d p p p p p p p p w w p p p p d d p p j j c c M M S S M M c c ",
"/ / / / ( ( ( ( ( ( / / / / ~ ~ ~ ~ T T Y Y Y Y Y Y Y Y T T T Y ~ ~ / / ( ( ( / ( / / / / / ( ( / / ( ( ( ( ( ( ( ( ( ( / / / / / / ( ( ( ( ( ( ( ( ( ( ( ( _ _ [ _ } } } } } } } | } } } } _ _ [ [ } } } } | | | | } } } } | | | | | | | | | | [ } / / / / / / ( ( / / / / ` ` | | ` ` | | _ _ ) ) ) ) ) ) / / Y Y L L L L L L G G L L Y Y L L L L ! ! ! ! / ! / / E / Y Y / / ) ) / / / ( ~ ~ Y Y D D S S B B D D Y Y ) ) / / E E L L L L F F B B c c l l l l B B G G L L Y Y ) ) @.@.-.-.%.%.$.$.+.+.X.+.] ] ] ] ' ' / / L L b b A A ] ] 5.5.q.q.y.y.u.u.y.y.t.t.3.3.@.@.@.@.+.+.^ R A A A A b b S S _ _ -.-.=.=.L L d d b b ) ) =.%.,.,.0.0.j.j.b.b.l.l.$.$.K K N N F F ) ) %.%.5.5.,.,.F F N N A A ^ ^ =.=.t.t.d.d.a.a.0.0.0.0.u.u.j.g.g.g.t.t.7.7.3.3.$.$.' ' L L F F G G / / ^ ^ S S b b b b A A b b b b b b v v d d k k N N L L E E E E R R L L L L R R E E R R S S b b b b S S L L B B B B S S S S G G G G G G F F S S N N S S S S F F S S l l d d S S G G G L L L R R R R L L E E E E G G l l 0 0 w w w w d d k k k k d d d d k k b b N N N N b b b b S S L L ) ) $.$.<.<.8.8.y.y.,.,...] ' ' @.@.5.5.-.-.' ' L L F H A A l l b b R R _ _ / / F F f f 0 0 A A @.@.u.u.d.d.5.5.) ) L L L L v v < < d d S S F F L L b b d d p p w w < < p p b b B B F F G G G G L L / / / / L L G G p p d d w w 0 0 k k B B B B l l v v b b F F / / / / F F b b b b p p < < - - - - - - < < w w p d j j p p p p d d j j j j j j j j c c c c j j j j j j j j j j d d c c l l l l l l l l l l l l l l l l l l d d d d p p w w 6 6 3 3 - - < < < < w w l l b b b b ",
"/ / / / ( ( ( ( ( / / / / / ~ ~ ~ ~ T T Y Y Y T Y Y Y Y T T T T ~ ~ / / ( ( ( / ( / / / / / ( ( ( ( ( ( ( ( ( ( ( ( ( ( / / / / / / ( ( ( ( ( _ ( ( ( ( ( ( _ _ [ _ } } } } } } } } } } } } _ _ [ [ } } } } | | | | } } } } | | | | | | | | | | } } / / / / / / ( ( / / / / ` ` | | ` ` | | ` _ ) ) ) ) _ ) / / ! ! L L L L L L G G G G Y Y L L L L ! ! ! ! / ! / / E E Y Y / / ) ) / / / / Y Y Y Y D D S S B B D D Y Y ) ) / / E E L L L L F F B B c c l l l l B B G G L L Y E ) ) #.@.-.-.%.%.$.$.+.+.X.+.] ] ] ] ' ' / / L L b b A A ] ] 5.5.q.q.y.y.u.u.y.y.t.t.3.3.@.@.@.@.+...^ ^ A A A A b b S S _ _ -.-.=.=.L L d d b b ) ) =.%.,.,.0.0.j.j.b.b.l.l.$.$.K K v b F F ) ) %.%.5.5.,.,.F F N N A A ^ ^ =.=.t.t.d.d.s.a.0.0.0.0.u.u.j.g.g.g.t.t.7.7.3.3.$.$.' ' L L F F G G / / ^ ^ S S b b b b A A b b b b b b v v d d k k N N L L E E E E R R L L L L R R E E R R S S b b b b S S L L B B B B S S S S G G G G G G F S S S N N S S S S F F S S l l d d S S G G L L L L R R L L L L E E E E G G l l w w w w w w d d k k k k d d d d k k b b N N N N b b b b S S L L ) ) $.$.<.<.8.8.y.y.,.,.....' ' @.@.5.5.-.-._ _ L L F H A A l l b b R R _ _ / / F F k k 0 0 A A @.@.u.u.d.d.5.5.) ) L L L L v v < < d d S S F F L G b b d d p p w w < < p p b b B B F F G G G G L L E / / / L L G G p p d d w w 0 0 k k B B B B l l v v b b F F / / / / F F b b b b p p < < - - - - - - < < w w p d j j p p p p d d l l j j j j j j c c c c j j j j j j j j j j d d c c l l l l l l l l l l l l l l l l l l d d d d p p w w 6 6 3 3 - - < < < < w w l l b b b b ",
"/ / ( ( ( ( _ ( ( ( / / / / ( ( ( ( ( ( / / ~ ~ / / ~ ~ ~ ~ Y T / / / ( ( ( ( ( / / ( ( ( ( ( ( _ [ [ [ ( ( ( ( _ _ ( ( ( ( ( ( ( ( _ _ _ _ } } | | | | | | | | | | | | } } _ _ _ _ _ _ ( ( _ ( _ _ _ _ [ [ } } } } } } _ _ [ [ { [ _ _ _ _ | | | | ] ] | | ] ] | | ] ` _ _ ` ` ) ) / / ( ( Y Y L L F F S S b b b b S S L L L L G G G G L L G G G G L L L L L L L L G G D S S S J J Y Y E Y ( ( / / Y Y L L D D D D G G L L L L G G G G G G D D S S b b j j w w j j b b G G / E ] ] #.#.#.#.-.-.@.@./ / L L ) ) _ ] / / H F A A A A S S L L ' ' $.$.-.-.@.@.' ' +.+.] ] / / L L F F b b u u A A A A H H / / ] ] / / K K A A S S ] ] @.@.....,.,.h.h.b.b.j.j.y.y.....A A K K ....=.=.$.$.) ) H H ^ ^ $.$.,.,.=.=.3.3.t.t.a.a.0.0.3.3.4.4.u.u.l.l.l.l.u.u.q.q.%.%.+.+.^ ^ S S N N S S H H S S b b N N A A A A A A A A A A N N l l N N F G R R / / E E / / / / L L R R R R S S b b b b S S L L L L G G B B l l l l b b N N b b b b l l S S G G L L F F k k w w B B G G G G L L L L G G F S G G L L S S b b d d k k b b N N S S B B b b k k b b N N N N N N b b N N L L / / ) ) @.@.<.<.w.w.i.i.q.q.=.=.@.@.-.-.-.-.] ] _ _ @.@.-.-.-.-.+.+.^ ^ L L / / ^ ^ H H v v H K $.$.3.3.,.,.,.,...../ / / / ....) ) L L L L S S d d k k G G F F N N d d < < = = - - < < - - d d b b F F G G G G F F S B S S F F F F N N b b b b k k p p - - d d S S G G G G G G H H G G d d w w < < , , < < 3 3 6 w 6 6 6 6 < < , , 6 6 p p p p p p p p r r 9 9 p p j j c c M M b b c c D D S S S S S S S S B B b b c c b b b b b b b b M M b b j j p p p p d d d d d d b b B B S S ",
"/ / ( ( ( ( _ ( ( ( / / / / ( ( ( ( ( ( / / ~ ~ / / ~ ~ ~ ~ T T / / ( ( ( ( ( / / / ( ( ( ( ( ( _ ( [ [ ( ( ( ( _ _ ( ( ( ( ( ( ( ( ( _ [ [ } } | | | | | | | | | | | | } } _ _ _ _ _ _ ( ( _ ( _ _ _ _ [ [ } } | } } } _ _ [ [ | | _ _ _ _ | | | | ] ] | | ] ] | | ] ` _ _ ` ` ) ) / / ( ( Y Y L L F F S S b b b b S S L L L L G H G G L L G G G G L L L L L L L L G G D S S S J J Y Y E E ( ( / / Y Y L L D D D D G G L L L L G G G G G G G D S S b b j j w w j j b b G G / E ] ] #.#.#.#.-.-.@.@./ / L L ) ) _ ] / / H F A A A A S S L L ' ' $.$.-.%.@.@.' ' +.+.] ] / / L L F F b b u u A A A A H H / / ] ] / / K K A A S S ] ] @.@.....,.,.g.g.b.b.j.j.y.y.....A A K K ....=.=.$.$.) ) H H ^ ^ $.$.,.,.=.=.3.3.t.t.a.a.0.0.3.3.3.3.u.u.l.l.l.l.u.u.q.q.-.-.+.+.^ ^ S S A A S S H H S S b b N N A A A A A A A A A A N N l l N N F F R R / / E E / / / / L L R R R R F S b b b b S S L L L L G G B B l l l b b b N N b b b b l l S S G G L L S F k k w w B B G G G G L L L L G G F S G G L L S S b b d d k k b b N N S S B B b b k k b b N N N N N N b b N N L L / / ) ) @.@.<.<.w.w.i.i.q.q.=.=.@.@.-.-.-.-.] ] _ _ +.+.-.-.-.-.+.+.^ ^ L L / / ^ ^ H H v v H H $.$.3.3.,.,.,.,...../ / / / ....) ) L L L L B S d d k k G G F F N N d d < < = = - - < < - - d d b b F F G G G G F F B B S S F F F F N N b b b b k k p i - - f d S S G G G G G G G H G G d d w w < < , , < < 3 3 6 w w 6 6 6 < < , , 6 6 p p p d p p p p r r 9 9 p p j j c c M M b b c c D D S S S S S S S S B B b b c c b b b b b b b b M M b b j j p p p p d d d p d d b b B B S S ",
"( ( ( ( _ _ _ _ ( ( ( ( ( ( _ _ ( ( ( ( / / ~ ~ ~ ~ ~ ~ Y Y Y Y ~ ~ / / / ( / / / / ( ( ( ( ( _ _ _ } } } } } } } } [ _ _ ( _ _ [ [ [ _ } } | | | |  . . . .| | | | ` ` _ _ / / / / / / / / ( ( _ _ _ _ ( / _ _ _ _ _ _ ( ( ( ( _ _ / / ) ( ` ` ` ` ] ] @.@.>.>.>.>.-.-.-.-.>.>.#.@./ / L L b b d d p p l l A S F F L L ) ) ) ) / / / / ) ) ) ) ) ) ] ] ] ] _ _ ] ] ] ] _ _ E E Y Y Y Y Y Y L L D D D D L J L L L L G G D D S S B B b b b b b b b b c c l l l l l l b b G D _ _ #.#.#.#.] ] %.%.] ] S S d d v v H H L L H L / / ' ' ] ] / ) ^ / ] ] +.+.) ) ' ' / / b N u u f f v v v v f f b b L K ' ' / / G G F H / / $.$.=.=.,.,.7.7.7.7.=.=.=.=.7.7.w.w.g.g.d.d.3.3.^ ^ K K ....$.$.....,.,.w.w.g.g.j.j.q.q.,.,.3.3.7.7.7.7.3.3.3.3.u.u.v.v.b.b.g.g.0.0.] ] / / ^ ^ ^ ^ L L H H H H F H A A b b A A H H L L H H S S S S N N N N B B G G R R R R E E / / R R E / E E F F b b k d b b F F L L S S l l d d l l B B B B N N l l k k N N B B B B B B k k d k B B G G L L L L L L G G S S G G S S S S N N b b B B B B N N B B S S b b k k b b N N S S F F F F L L E E L L F F / / $.$.w.w.h.h.u.u.3.3.@.@.@.@.@.@.] ] ' ' +.+.5.5.0.0.9.9.-.-.=.=.%.%.$.$.' ' R R ....7.7.,.,.] ] / / R R / / %.%.,.,...../ / / / G G N N L L / / ) ) / / H H b b p p t t p p t t S S / / / / / / ) ) / / G G / / R R L L S S b b d d 0 w 0 0 d d F F Q Q G G S S F F G G L L l l d d 3 3 < < 3 3 w w w w 6 6 , , , , < < 6 6 6 6 6 6 < < < < , , 6 6 p p l j M M B B M M c c B B M M M M B B S S B B l l w w p p p d l l B B G D G G B B l l B B F F G G G G L L S S l l ",
"( ( ( ( _ _ _ _ ( ( ( ( ( ( _ _ ( ( ( ( / / ~ ~ ~ ~ ~ ~ Y Y Y Y ~ ~ / / ( ( / / ( / ( ( ( ( ( ( _ _ } } } } } } } } [ [ _ ( _ _ [ [ [ [ } } | | | | |  . .| | | | | _ _ _ _ ( / / / / / / / ( ( _ _ _ _ ( / _ _ [ _ _ _ ( ( ( ( _ ) / / ( ( ` ` ` ` ] ] @.@.>.>.>.>.-.-.-.-.>.2.@.@./ / L L b b d d p p l l A A S F L L ) ' ) ) / / / / ) ) / / ) ) ] ] ] ] _ _ ] ] ] ] _ _ E E Y Y Y Y Y Y L L D D D D J J L L L L G G D D S S B B b b b b b b c c c c l l l l l l b b G D _ _ #.#.#.#.] ] %.%.] ] S S d d v v H H L L H L / / ' ' ] ] / / ^ / ] ] +.+.) ) ' ' / / N N u u f f v v k v f f b b L K ' ' / / G G F F / / $.$.=.=.,.,.7.7.7.7.=.=.=.=.7.7.w.w.g.g.d.d.3.3.^ ^ K K ....$.$.....,.,.w.w.g.g.j.j.q.q.,.,.3.3.7.7.7.7.3.3.3.3.u.u.v.v.b.b.g.g.0.0.] ] / / ^ ^ ^ ^ L L H H H H F F A A b b A A H H L L G G S S S S N N N N S B G G R R R R E E / / R R E E E E F F b b k d b b F F L L B S l l d d l l B B B B N N l l k k N N B B B B B B d d d k B B G G L L L L L L G G S S G G S S S S N N b b B B B B N N B B S S b b k k b b N N S S F F F F L L E E L L F F / / $.$.w.w.h.h.u.u.3.3.@.@.@.@.@.@.] ] ' ' +.+.5.5.0.0.9.9.-.-.=.=.%.%.$.$.' ' R R ....7.7.,.,.] ] / / R R / / %.%.,.,...../ / / / G G N N L L / / ) ) / / H H b b p p t t p p t t S S / / / / / / ) ) / / G G / / R R L L S S b b d d 0 0 0 0 d d F F Q Q G G S S F F G G L L l l d d 3 3 < < 3 3 w w w w 6 6 , , , , < < 6 6 6 6 6 6 < < < < , , 6 6 p p l l M M B B M M c c B B M M M M B M S S S B l l w w p p p d j j B B D D G G B B l l B B F F G G G G L L S S l l ",
"_ _ ( ( ( ( _ _ _ _ _ _ _ _ _ _ ( ( ( ( / / ~ ~ ~ ~ Y Y Y Y Y Y ~ ~ ~ ~ ~ ~ ~ ~ ~ ~ / / ( ( ( ( _ _ } } } } } } } } [ [ ( ( _ _ [ [ _ [ } } | | | | | | | | | | _ _ ) ) / / / / / / / / ( ( ( ( } } } } _ _ _ _ _ _ _ _ ( ( / / ( ( ( ( _ ` | | ] ] ] ] $.$.q.q.q.q.9.9.q.q.p.u.q.q.o.o.L L S S v v v v H H ' ) ' ' / / / / / / L L / / / / L L / / ] ] @.@.@.@.@.@.$.$.X.X./ / / / ) ) / / D D S S M M M M B M B B B B M M c c c l j l d j l l M M S S F F b b b b b b D D _ _ $.$.| | / / @.@.@.@.] ] L L b b b b A A S S ] ] ] ] @.@.=.=.$.$.=.=.,.,.-.-.-.-.=.=.] ] G G F F S S A A S S / / +.+.,.-.3.3.$.$.] ] ] ] @.@.$.$.=.=.7.7.w.w.3.3.$.$.$.$.$.$.r.r.d.d.a.a.=.=.....,.,.y.y.a.a.w.w.q.r.t.t.t.t.4.4.+.+.........$.$.=.=.,.,.0.0.u.u.a.a.4.4.) ) L L S S / / $.$.-.-.@.@._ _ / / S S l l v v A A F F S S S S F F R R L L L L E E ) ) E E R R G G / / ) ) E E G G b b k k b b F F L L S S B B B B F F E E E E L L B B N N F F G G G G S S l l l l B B G G R R R R E E L L G G R R R R R R G L G G G G S S b b l l b b k k k k k k N N L L / / ) ) ....] ] L L b N S S / / @.@.5.5.+.+./ / L L L L L L S S S S S S L L / / / / R R _ _ =.=.=.=.] ] ] ] ) ) ........] ] ] ] / / R R ) ) / / F F S S L L L L G G R R ) ) @.@.@.@.] ] ) ) F F b b l l F F ) ) @.@._ _ ) ) _ _ ] ] _ _ ) ) L G b b k k b b k k d d d d S S / / ) ) G G b b N b S S F S b b l l p p 3 3 w w d d j j d d d d p p j j j j p p 6 r 6 6 6 6 r r p p d d c c c c b b c c j j j j j j j j c c M M b b d d < < 3 3 6 6 d d b b S S S S M M l l S S D D G G G G G G b b p p ",
"_ _ ( ( ( ( _ _ _ _ _ _ _ _ _ _ ( ( ( ( / / ~ ~ ~ ~ Y Y Y Y Y Y ~ ~ ~ ~ ~ ~ ~ ~ ~ ~ / / ( ( ( ( _ _ } } } } } } } } [ [ [ ( [ [ [ [ _ [ } } | | | | | | | | | | _ _ ) ) / / / / / / / / ( ( ( ( } } } } _ _ ) ) _ _ _ _ ( ( / / ( ( ( ( _ _ | | ] ] ] ] $.$.q.q.q.q.9.9.q.q.p.p.q.q.o.o.L L S S v v v v H H ' ' ' ' / / / / ^ ^ L L / / / / ^ L / / ] ] @.@.@.@.#.#.$.$.X.X./ / / / ) ) / / D D S S M M M M B B M B S S B M c c c l j j d j l l M M S S F F b b c c b b D D _ _ $.$.| | / / @.@.@.@.] ] L L b b b b A A S S ] ] ] ] @.@.=.=.$.$.=.=.,.,.-.-.-.-.=.=.] ] L L F F S S A A S S / / +.+.-.-.3.3.@.$.] ] ] ] @.@.$.$.=.=.7.7.w.w.3.3.$.$.$.$.$.$.r.r.d.d.a.a.=.=.....,.,.y.y.a.a.w.w.q.r.t.t.t.t.4.4.+.+.........$.$.=.=.,.,.0.0.u.u.a.a.4.4.) ) L L S S / / $.$.-.-.@.@._ _ / / S S l l v v A A F F S S S S F F R R L L L L E E ) ) E E R R G L / / ) ) E E G G b b k k b b F F L L S S B B B B F F E E E E L L B B N N F F G G G G S S l l l l B B G G R R R R E E L L G G R R R R R R L L G G G G S S b b l l b b k k k k l l N N L L / / ) ) ....] ] L L b b S S / / @.@.5.5.+.+./ / L L L L L L S F S S S S L L / / / / ^ ^ _ _ =.=.=.=.] ] ] ] ) ) ........] ] ] ] / / R R ) ) / / F F S S L L L L G G R R ) ) o.@.@.@.] ] / / F F b b l l F F ) ) @.@._ _ ) ) _ _ _ _ _ _ ) ) G G b b k k b b k k d d d d S S / / ) ) G H b b N b S S F S b b l l p p 3 3 w w d d j j d d d d p p j j j j p p 6 r 6 6 6 6 r r p p d d c l b c b b c c j j j j j j j j c c M B b b d d < < 3 3 6 6 d d b b S S S S b M l l S S D D G G G G G G b b p p ",
"( ( ( ( ( ( ( _ _ _ _ _ [ [ [ [ ( ( ( ( / / / / ~ ~ ~ ~ T T ~ / ~ ~ ~ ~ ~ ~ ~ / / / ( ( / / ( ( ( ( } } } } } } } } ( ( ( ( ( ( ( ( ( ( ( ( } } } } _ _ _ _ _ _ ) ) ) ) / / / / ( ( ( ) ) ) _ _ | | O.O. . .| | | | ] ] ( ( ~ ~ ( / _ ` @.@.2.2.-.-.%.%.-.-.q.q.q.q.9.0.9.9.9.9.1.1.] ] Q Q ' ' R ^ / / +.+.@.@.' ' L L L L / / ^ ^ / / ^ ^ H H L L ' ' +.+.+.+._ ] ) ) E E G G Y Y ) ) ) ) / / Y Y L L S S M M M M M M M M L L G G S S S S S S H H G G S S b l b b C C G G / / ] ] ) ) G G G H ] ] =.=.+.+.^ ^ S S S S H H F S S S ^ ^ +.+.@.@.=.=.=.=.-.-.@.@.5.5.t.t.3.3./ / b b A A / / 3.3.q.q.y.y.9.9.+.@.^ ^ ^ ^ ' ' ] ] ] ] +.+.$.$.$.$.=.=.,.,.,.,.4.4.3.3.=.=.=.=.4.3.0.0.q.q.0.0.$.$.....' ' +.+.$.$.^ ^ F F K K ) ) ' ' ' ' ....=.$.=.=.' ' S S L L H H _ _ 5.5.q.q.5.5.$.$.....L L A A b b A A S S N N F F R R ) ) E E / / ] ] ] ] E E R R G G R R R R G G S S b b k k b b B B E / / / L L F G G G R R R R G G S S B B L L R R E E L L b b d d k k B B G G G G L L G G S S G G L L L L G G G G R R L L S S B B b b b b N N b b S S R R _ _ ....$.$.....R E S S B B F F E E ] ] ] ] ' ) / / ^ ^ H H S S S S S S _ _ _ _ / / L L ) ) $.$.=.=.@.@.] ] / / ....$.$.....) ) R R R R R R / / / / R R L L G G F F A A L L ] ] @.@.X.X._ _ G G l l d d G G L L / / / / ) ) _ ) _ _ _ _ ) ) R R S S N N S S F F S B l l b b S S H H F F M M b b S S S S D D B B d d 3 3 6 6 d d j j d d j j p p p p d d p p p p w w p p p p p p p p p p d d j j j j l l p p l l M M M M S S S S b b d d d d d d l l l l l b l l b b l l B B B B b b d d d d d d d d ",
"( ( ( ( ( ( ( ( _ _ _ _ [ [ [ [ ( ( ( ( / / / / ~ ~ ~ ~ T T ~ ~ ~ ~ ~ ~ ~ ~ / / / ( ( ( / / ( ( ( ( } } } } } } } } ( ( ( ( ( ( ( ( ( ( ( ( } } } } [ _ _ _ _ _ ) ) ) ) / / / / ( ( ( ( ( ) _ _ | | O.O. . .| | | | ] ] ( ( ~ ~ ( ( _ _ @.@.>.2.-.-.%.%.-.-.q.q.q.q.0.0.9.9.9.9.1.1.] ] Q Q ' ' R R / / +.+.@.@.' ' L L L L / / ^ ^ / / ^ ^ H H L L ' ' +.+.+.+._ _ ) ) E E G G Y Y ) ) ) ) / / Y Y L L S S M M M M M M M M L L G G S S S S S S G G G G S F b l b b C C G G / / ] ] ) ) G G H H ] ] =.=.+.+.^ ^ S S S S H H F S S S ^ ^ +.+.@.@.=.=.%.%.-.-.@.@.5.5.t.t.3.3./ / b b A A / / 3.3.q.q.y.y.9.9.+.+.^ ^ ^ ^ ' ' ] ] ] ] +.+.$.$.$.$.=.=.,.,.,.,.4.4.3.3.=.=.=.=.4.4.q.0.q.q.0.0.$.$.....' ' +.+.$.$.^ ^ F F K K ) ) ' ' ' ' ....=.=.=.=.' ' A S L L G H _ _ 5.5.q.q.5.5.$.$.+.+.L L A A b b A A S S N N F F R R ) ) E E E / ] ] ] ] E E R R G G R R R R G G S S b b k k b b B B E E / / L L G G G G R R R R G G S S B B L L R R E E L L b b d d d d B B G G G G L L G G S S G G L L L L G G G G R R L L S S B B b b b b N N b b S S R R _ _ ....$.$.....E E S S B B F F E E ] ] ] ] ' ) / / ^ ^ K K S S S S S S _ _ _ _ / / L L ) ) $.$.%.=.@.@.] ] / / ....$.$.....) ) R R R R R R / / / / R R L L G G F F A A L L ] ] @.@.X.X._ _ G G l l d d G G L L / / / / ) ) _ ) _ _ _ _ ) ) R R S S N N S S F F S S l l b b S S H H F F M M b b S S S S D D B B d d 3 3 6 6 d d j j d d j j p p p p d d p p p p w w p p p p p p p p p p d d j j j j l l p p l l M M M M S S S S b b d d d d d d k k l l l l l l b b l l B B B B b b d d d d d d k k ",
"( ( ( ( ( ( ( ( _ _ ` ` } } ( ( ( ( / / / / ~ ~ ~ ~ Y Y T T ( ( / / ~ ~ / / ( ( ( ( ( ( ( ( / / ( ( [ [ } } | | } } ( ( ( ( ( ( ( ( ( / ( ( [ [ _ _ _ _ _ _ / / ( ( ) ) ( ( ( ( ( ( / / / / _ _ #.#.:.:.#.#. . . . .| | ` ` ~ ~ ) ) ] ] 5.5.p.p.y.y.0.0.0.0.p.p.p.p.t.y.1.1.@.@.) ) Q Q / / ] ] ] ] @.@.=.=...+.L L H H / / ..+.] ] _ ] / / H H F F / / ] ] ..../ / R R G G S S L L / / E E Y Y Y Y L L D D M M n n M M M M L L G G S S S S F F G G G G C C l l S S G G ! ! / / ) ) ! ! F F L L _ _ +.+.] ] L L H H L L / / L L L L / / +.+.$.$.,.,.,.,.=.=.-.-.-.-.=.=.+.+.) ) H H H H / / @.@.-.-.5.5.5.5.$.@.' ' ) ) ' ' ] ] ) ) +.+.,.,.$.$.' ' ....=.=.4.4.w.w.7.7.$.$.$.$.3.3.0.0.w.q.,.,.$.$.+.+.$.$.$.=.^ ^ K K ' ' ' ' ' ' ....=.=.0.0.q.q.,.,.] ] F F F S / / +.+.@.@.] ] ' ' / / F F b b b b S S S S b b b b F F R R G G G G E E W W R R G G R R E E R E R R G G B B b b b b N N B B S S B B b b N N G G E E E E S S N N B B S S S S S S k k w w d d S S L L E E E E L L G G L L L L G G B B B B S S S S b b l l k k N N b b d d d d N N G G L L _ _ _ _ R R S S N N G G ....7.7.s.s.w.w.-.-.@.@.+.+._ _ ' ' ' ' ] ] =.=.,.,.,.,.3.3.5.5.3.3.=.=.] _ R R ] ] ,.,.,.,.$.$.) ) / / / / $.$.,.,.....R R R R / / L L L L _ _ ) ) L L F F l l 3 3 t t t t y y d d S S L L Q Q L L G G F F R R R R G G S S S S l l - - t t p p l l S S F F S S S S F F Y Y F F j j , , - - 3 3 w w 6 6 < < * * * * * * , , , , 6 6 6 6 w w 6 6 6 6 6 6 6 6 d d b c M B l l M M D D D D F F D D S S M M l l l l b b l l d d d d b b S S d d d d < < & & & & - - 0 0 ",
"( ( ( ( ( ( ( ( _ _ ` ` } } ( ( ( ( ( / / / ~ ~ ~ ~ Y Y T T ( ( / / ~ / / / ( ( ( ( ( ( ( ( / / ( ( [ [ } } | } } } _ _ ( ( ( ( ( ( ( / ( ( [ [ _ _ ( ( _ [ / / ( ( ) ) ( ) ( ( ( ( / / / / _ _ #.#.*.:.#.#. . . . .| | ` ` ~ ~ ) ) ] ] 5.5.p.p.y.y.0.0.0.0.u.p.p.p.y.y.1.1.@.@.) ) Q Q / / ] ] ] ] @.@.=.=.....L L G G / / ..+.] ] _ _ / / H H F F / / ] ] ..../ / R R G G S S L L / / E E Y Y Y Y L L D D M M n n M M M M L L G G S S S S F F G G G G C C l l S S G G ! ! / / ) ) ! ! F F L L _ _ @.+._ ] L L H H L L / / L L L L / / +.+.$.$.,.,.,.,.=.=.-.-.-.-.=.=.+.+.) ) H H H H / / @.@.-.-.5.5.5.5.$.$.' ' ) ) ' ' ] ] ) ) +.+.,.,.$.$.' ' ....=.=.4.4.w.w.7.7.$.$.$.$.3.3.0.0.q.q.,.,.$.$.+.+.$.$.$.$.^ ^ K K ' ' ' ' ' ' ....=.=.0.0.q.q.,.,.] ] F F F S / / +.+.@.@.] ] ' ' / / F F b b b b S S S S b b b b F F R R G G G G E E W W R R G G R R E E R R R R G G B B b b b b N N B B S S B B b b N N G G E E E E S S N N B B S S S S S S k k w w d d S S L L E E E E L L G G L L L L G G B B B B S S S S b b l l k k N b b b d d d d N N G G L L _ _ _ _ R R S S N N G G ....7.7.s.s.w.w.-.-.@.@.+.+._ _ ' ' ' ' ] ] =.=.3.,.,.,.3.3.5.5.3.3.=.%._ _ R R ] ] ,.,.3.3.$.$.) ) / / / / $.$.,.,.....R R R R / / L L L L _ _ ) ) L L F F l l 3 3 t u t t t t d d S S L L Q Q L L G G F F R R R E G G S S S S l l - - u u p p l l S S F F S S S S F F Y Y F F j j , , - - 3 3 w w 6 6 < < * * * * * * , , , , 3 3 6 6 w w 6 6 6 6 6 6 6 6 d d c c M B l l M M D D D D F F D D S S M M l l l l b b l l d d d d b b S S d d d d < < & & & & - - 0 0 ",
"/ / ( ( ( ( ( ( _ _ _ _ } } / / / / ~ ~ T T Y Y Y Y ~ ~ ~ ~ Y Y Y Y Y Y Y Y T T ~ ~ / / / / ( ( ( ( _ _ _ _ ( ( ( ( ( ( _ _ ( ( ( ( } } } } } } _ _ [ [ } } ) ) ( ( / / / / ( ( _ _ _ _ _ _ | | | | | | | | | | | | _ [ _ _ Y Y Y Y _ _ $.$.-.-.2.2.9.9.w.w.a.a.p.p.u.u.p.p.q.q.@.@.Q Q H H S S H H ^ ^ ' ' ] ] ] ] ) ' / / R R ^ ^ L L H H H H ^ ^ ] ] @.@.....@.@.....) ) E E / / E E L L D D M M c c c c M M B B c c p p c c c c j j d d x l S S S S b b x x d d b b / / @.@.] ] / / ) ) +.X._ _ / / H H b b d k A A L L ' ' ] ] =.=.=.=.+.+.] ] ....+.+.+.+.' ' S S l l A A b b f f f f H H / / @.@.=.=.+.+.] ] ] ] +.+.+.+.$.$.5.5.0.0.=.=.........$.$.w.w.g.g.u.u.+.+.) ) @.@.,.,.7.7.7.7.t.t.d.d.s.s.7.7.=.=.3.3.5.7.5.5.=.=.5.5.w.w.l.l.B.B.g.g.,.,.' ' L L / / / / L L L L H G F F b b b b A A S S F F F F S S S S b b N N B B S S S F E E E E G G R R R R G G D D N N w w k k B B S S G G S S b b d k l l N N B B d d d d l l B B S S G G S S d d d d N N G G G G G G L L G L G G L L S S S S N N w w d d b b b b S S S S N N f f f f b b S S A A S S b b A A H H R R ..] 9.9.u.u.g.d.w.w.%.%.] ] @.@.%.%.$.$.] ] ] ] @.@.0.0.q.q.@.@.L L G G L L L L S S F F / ) $.$.%.%.%.%.%.%.....] ] _ _ _ _ ] ] ) ) G G b b - - d d A A N N l l d d 3 3 = = 3 3 : - - - i i b b b b A A G G F F L L N N b b S S b b d d d d l l i i - - - - C C / / ! ! G G L L S S l l w w 3 3 3 3 < < - - - - , < 6 6 6 6 w w p p d d j j l l j j p p p p j j j j l l j j j j j j j j l j c b b b b b b b b b l l l l l l l l l l j j d d w w < < = = & & & & - - 6 6 ",
"/ / ( ( ( ( ( ( _ _ _ _ } } / / / / ~ ~ T T Y Y Y Y ~ ~ ~ ~ Y Y Y Y Y Y Y Y T ~ ~ ~ / / / / ( ( ( ( _ _ _ _ ( ( ( ( ( ( _ _ ( ( ( ( } } } } } } _ _ [ _ } } ) ) ( ( / / / / ( ( _ _ _ _ _ _ | | | | | | | | | | | | [ [ _ _ Y Y Y Y _ _ $.$.-.-.2.2.9.9.w.w.a.a.p.p.u.u.p.p.q.q.@.@.Q Q H H S S H H ^ ^ ' ' ] ] ] ] ) ) / / R R ^ ^ L L H H H H ^ ^ ] ] @.@.....@.@.....) ) / / / / E E L L D D M M c c c c M M B B c c p p c c c c x x d d x l S S S S b b x x d d b b / / @.@.] ] / / ) ) X.X._ _ / / H H b b d d A A L L ' ' ] ] =.=.=.=.+.+.] ] ....+.+.+.+.' ' S S v l A A b b f f k f H H / / @.@.=.=.+.@.] ] ] ] +.+.+.+.$.$.5.5.0.0.=.=.........$.$.w.w.g.g.u.u.+.+.) ) @.@.,.,.7.7.7.7.t.t.g.d.s.s.7.7.=.=.3.3.5.7.5.5.=.=.5.5.w.w.l.l.B.B.g.g.3.,.' ] L L / / / / L L L L H G H F b b b b A A S S F F F F S S S S b b N N B B S S S F E R E E G G R R R R G G D D N N w w k k B B S S G G S S b b k k l l N N B B d d d d l l B B S S G G S S d d w w N N G G G G G G L L L L G G L L S S S S N N w w d d b b b b S S S S N N f d f f b b S S A A S S b b A A H H L L ....7.7.u.u.g.g.w.w.%.%.] ] @.@.%.%.$.$.] ] ] ] @.@.0.0.q.q.@.@.L L G G L L L L S S F F ) ) $.@.%.%.%.%.%.%.....] ] _ _ _ _ ] ] ) ) G G b b - - d d S S N N l l d d 3 3 = = 3 3 : : - - i i b b b b A A G G F F L L N N b b S S b b d d d d l l i i - - - - C C / / ! ! G G L L S S l l w w 3 3 3 3 < < - - - - , < 6 6 6 6 w w p p d d j j l l j j p p p p j j j j l l j j j j j j j j l j c b b b b b c b b b l l l l l l l l l l j j d d w w < < = = & & & & - - 6 6 ",
"( ( _ _ ( ( / / / / / / ( ( ~ ~ ~ ~ T T Y Y Y Y Y Y Y Y Y Y Y Y Y Y Y Y Y Y T T / / / / ( ( ( ( ( ( [ [ [ [ ( ( ( ( ( ( [ [ } } } } | | | | } } } } } } } } ( ( / / / / ~ / / / / / ( ( ) ) ) ) ( ( ( ( _ _ _ _ ( ( / / / / / / / / / / / / ) ) ] ] &.&.9.9.1.1.-.-.-.-.1.1.$.$./ / S S b b p p d d b b S S L L / / / / / / ^ ^ / ^ ^ ^ ^ ^ ^ ^ ) ) _ _ _ _ ] ] ....] ] / / R E / / / / L L S S S S S S S S D D J J D D S S M M b b l l d d d d d d d d x x d d j j b b ! ! @.@.@.@.@.@.$.$._ _ S S p p d d S S L L H H S S ' ' ^ ^ L L L L ^ ^ ) ) ) ) ^ ^ H H L L b b u u u d d d f f v v S S L L / / G L b b k k F F ] ] ....=.=.,.,.@.@.$.$.w.w.d.d.a.a.t.t.,.,.^ ^ F F / / ........) ) ) ) +.+.0.0.u.u.7.7.$.$.-.-.0.0.t.t.=.=.%.%.q.q.g.g.h.h.y.y.q.q.3.3.] ] ' ' L L S S S S S S S S S S b b v v N N S S S S S S S S d d k k B B R R R L R R E E W W R R R R R R R R S S b b N N S S / / R R B B l l k k b b b b b b N b b b b b S S G G L L G G b b l l S S G G L L L L E E / / E E E E G G G G S S b b k k l l d d b b v v f f f f k k b b N N N N v v l l S S L L L L ) ' %.%.9.9.9.9.t.t.0.0.@.@.] ] =.=.3.3.-.-.] ] ' ' / / F F k k v v F F / / _ _ L L N N k k N N / / %.%.e.e.y.y.$.$.E E R R L L k k < < 3 3 F F L L ! / F F v v p p t t 3 3 d d l l N N G G / / _ _ ) ) ! ! ) ) / / S S l l l l d d w w d d F F H H S S b b F F L L L L L L L L S S b b d d 6 6 , , - - * * , , 6 6 p p p p p p p p p p p p d d p p w w w w p p j j l l l l d d d d p p d d d d p p p p w w p p w w 6 6 w w p p p p w w 3 3 < < < < < < 3 3 w w p p d d ",
"( ( _ _ ( ( / / / / / / ( ( ~ ~ ~ ~ T T Y Y Y Y Y Y Y Y Y Y I Y Y Y Y Y Y Y T T / / / / ( ( ( ( ( ( [ [ [ [ ( ( ( ( ( ( [ [ } } } } | | | | } } } } } } } } ( ( / / / / / / / / / / ( ( ) ) ) _ ( ( ( ( ( _ _ _ ( ( / / / / / / / / / / / / ) ) ] ] &.&.9.9.1.1.-.-.-.-.1.1.$.$./ / S S b b p p d d b b S S L L / / / / / / ^ ^ / ^ ^ ^ ^ ^ ^ ^ ) ) _ _ ' _ ] ] ....] ] / / E E / / / / L L S S S S S S S S D D J J D D S S M M b b l l d d d d d d d d x x d d j j b b ! ! @.@.@.@.@.@.$.$._ _ S S p p d d S S L L H H S F ' ' ^ ^ L L L L ^ ^ ) ) ) ) ^ ^ H H L L b b u u u u d d f f v v S S L L / / L L b b f f F F ] ] ....=.=.,.,.@.@.$.$.w.w.d.d.a.a.t.t.,.,.^ ^ F F / / ........) ) ) ) +.+.0.0.u.u.7.7.$.$.-.-.0.0.t.t.=.=.%.%.q.q.g.g.h.h.y.y.q.q.3.3.] ] ' ' L L S S S S S S S S S S b b v v N N S S S S S S S S d d k k B B R R R L R R E E W W R R R R R R R R S S b b N N S S / / R R B B l l k k b b b b b b N N b b b b S S G G L L G G b b b l S S G G L L L L E E / / E E E E G G G G S S b b k k l l d d b b v v f f f f k k b b N N N N v v l l S S L L L L ) ' %.%.9.9.9.9.t.t.0.0.@.@.] ] =.=.3.3.-.-.] ] ' ' / / F F k k v v F F / / ' ' L L N N k k N N / / -.%.e.e.y.y.$.$.E E R R L L k k - < 3 3 F F L L / / F F v x p p t t 3 3 d d l l N b G G / / _ _ ) ) ! ! ) ) / / S S l l l l d d w w d d F F H H S S b b F F L L L L L L L L S S b b d d 6 6 , , - - * * , , 6 6 p p p p p p p p p p p p d d p p w w w w p p j j l l l l d d d d p p p p d d p p p p w w p p w w 6 6 w w p p p p w w 3 3 < < < < < < 3 3 w w p p d d ",
"~ ~ ~ ~ Y Y Y Y Y Y Y Y Y Y Y Y Y Y Y Y Y Y Y Y Y Y Y Y Y Y Y Y Y Y Y Y Y Y Y Y ~ ~ / / / / ( ( ( ( ( ( ( ( ( ( ( ( ( ( _ _ } } } } | | | | } } } } } } } } ( ( / / / ~ Y Y ~ / / / / / / / T T Y Y Y Y ~ ~ / / / / ~ / ~ ~ / / / / ( ( / / / / / / ) _ @.@.] _ _ _ _ _ ] ] ] ] ! ! H H C C i i i i f f l l b b S S H H G G H H H H F F H H G G L L G G F F F F G G G G F F F F L L L L L L L L L L D D D D D D D D G G D D D D F F F F F F S S j j d d d d c c S S S S G G _ _ @.@.@.@.| | %.%.) ) G G L L ) ) / / S S v k A A b b F F / / @.@.3.3.3.3.@.@.] ] @.@.] ] ^ ^ L L S S b b k k N b b b H H ] ] =.=.] ] S S f f d d / / $.$.$.@.5.5.j.j.b.b.g.g.=.=.R R v v A A ) ) $.$.$.$.....A A b b N N K K ) ) $.$.0.0.i.i.q.w.=.=.=.%.t.t.g.g.a.a.9.9.9.9.=.%.) ) L L S S b b S S S S F F S S l l f f v l b b v v f f d d k k w w N N R R E E R R R R / E R R L L L L L L B B b l b b S S S S S S B B B B S S L L L L G G L L S S S S S S F F L L G F N N w w b b S S S S G G G G G G G G G G B B B B B B k k w w d d d d d d v v b b A A b b k k b b H H ^ ^ S S b b N A F F ) ) +.+.@.@.%.%.0.0.q.q.-.-.+.+.=.=.-.-.=.=.-.-.%.%.' ' A A f f v v F F ) ) ] ] R R b b 0 0 d d L L %.%.y.y.w.w.@.@./ / _ _ ) ) S S i p d d F F L L L L S S i p 3 3 p p d d b b F F G G F F G G _ _ @.@.X.X.@.@.] ] ) ) G G l l 0 0 p p c c G D G G F F S S S S C C C C G G D D S S c c j j d d p p < < * * , , , , < < w w d d j j c c c c M M b b l l j j p p p p p p p p l l c c c c b b c c c c c c c c d d d p p p d j j j d j p p w w 6 6 p p p p j j j j j j l l ",
"~ ~ ~ ~ Y Y Y Y Y Y Y Y Y Y Y Y Y Y Y Y Y Y Y Y Y Y Y Y Y Y Y Y Y Y Y Y Y Y Y Y ~ ~ / / / / ( ( ( ( ( ( ( ( ( ( ( ( ( ( _ _ } } } } | | } | } } } } } } } } ) _ / / / ~ Y Y ~ / / / / / / / T T Y Y Y Y ~ ~ / / / / ~ / ~ ~ / / / / ( ( ) ) / / / / ) ) @.@._ _ _ _ _ _ ] ] ] ] ! ! H H C C i i i i f d l l b b S S H H G G H H H H F F H H G G L L G G F F F F G G G G F F F F L L L L L L L L L L D D D D D D D D G G D D D D F F F F F F S S j j p d d d c c S S S S G G _ _ @.@.@.@.| | %.&.) ) G G L L ) ) / / S S v d A A b b F F / / @.@.3.3.,.3.@.@.] ] @.@.] ] ^ ^ L L S S b b k f b b b b H H ] ] =.=.] ] S S f f d d / / $.$.$.$.5.5.j.j.b.b.g.g.=.=.R R v v A A ) ) $.$.$.$.....A A b b N N K K ) ) $.$.0.0.i.i.q.w.=.=.%.%.t.t.g.g.a.a.9.9.9.9.%.%.) ) L L S S b b S S S S F F S S l l f f v v b b k k f f d d k k d w N N L R E E R R R R E E R R L L L L L L B B l l b b S S S S S S B B B B S S L L L L G G L L S S S S S S F F L L G F N N w w b b S S S S G G G G G G F G G G B B B B B B l l w w d d d d d d v v b b A A b b k k b b H H / / S S b b N A H F ) ) +.+.@.@.%.%.0.0.q.q.-.-.+.+.=.=.-.-.=.=.-.-.%.%.' ' A A f f v v F F ) ) ] ] R R b b 0 0 d d L L %.%.y.y.w.w.@.@./ / _ _ _ ) S S p p d d F F L L L L S S i i 3 3 p p d d b b F F G G F F G G _ _ @.@.X.X.@.@.] ] ) ) G G l l 0 0 p p c c G D G G F F S S S S C C C C G G D D S S b c j j d d p p < < * * , , , , < < w w d d j j c c c c M M b b l l j j p p p p p p p p l l c c c c b b c c c c c c c c d d d p p p d d j j j j p p w w 6 6 p p p p j j j j j j j j ",
"I I Y Y Y Y Y Y Y Y Y Y Y Y Y Y Y Y Y Y Y Y Y Y Y Y Y Y Y Y Y Y Y Y Y Y Y Y Y Y T T T T ~ ~ T T ~ ~ ~ ~ ~ ~ ~ ~ / / ( ( ( ( ( ( / / ( ( ( ( ( ( ( ( ( ( _ _ _ _ / / / / ~ ~ / / / / _ ( ( ( ~ / ~ ~ ~ ~ ~ ~ ( ( ( ( ( ( / / Y Y ~ ~ ( ( ) ) / / Y Y Y Y ! ! / ! ! ! ! ! ) ) ] ] _ _ ! ! Q Q G G G G F F S S S S S S S S S S F F F F S S S S F F G G F F S S F F G G L L G G L L Y Y Y Y Y Y D D D D S S S S S S L L L L G G L L D D F F S S b b d d p p p p l l S S G G D D / / @.@.@.@.] ] _ _ ] ] ] ] _ _ ' _ _ _ / / F F d d b b / / %.%.9.9.q.q.q.q.9.9.t.t.3.3.+.+.] ] ....' ' H H b b v v v v F F ] ] $.$.' ' S S v v S S ] ] ,.,.,.,.,.,.w.w.d.d.d.d.,.,.' ' L L F F L L ....,.%.$.$.H H H H F F ' ' 0.0.h.h.s.s.9.9.=.=.9.9.u.u.s.s.d.d.y.y.5.5.%.%.%.%.] ] ' ' / / / / ] ] ' ' _ _ L L L L ^ ^ / / ^ ^ L L G G L L B N k d k k N B S S B B N N b b B B N N N N N N b b k d k k b b k k b b N N B B S S S S S S F F G G S S B N b b l l l l l b d d w w b b B B B B b b b b l l d k k k b b b b b b d d d d B B L L G G L L ^ / / / R ^ L L R R ) ) ] ] ^ ^ L L ^ ^ ) ) ] ] ] ] ) ) ] ] @.@.3.3.q.q.t.t.5.5.....L L =.=.5.5.-.-.] ] / / ^ ^ / / ] ] %.%.....] ] ....@.@.....@.@.$.$.) ) R R L L / / ) ) L L b b d d p p l l S S b b d d d d l l b b N N G G F F d x p p b b L Q ) ) ) ) ) ) ) ) G G p p - - l l G G L L F F b b C C F F S S l b b b G G B B b c M M G G L L S S b c p p 6 6 , , < < w w d d c c M M S S S S b b j j w w 6 6 < < 6 6 p p d d j j c c c c c c c c n n c c c c c c c c b b c c l l j j j j j j j j j j j j j j j j ",
"I I Y Y Y Y Y Y Y Y Y Y Y Y Y Y Y Y Y Y Y Y Y Y Y Y Y Y Y Y Y Y Y Y Y Y Y Y Y Y T T T T ~ ~ T T ~ ~ ~ ~ / ~ ~ ~ / / ( ( ( ( ( ( / / ( ( ( ( ( ( _ ( ( ( _ _ _ _ / / / / ~ ~ / / / / _ _ ( ( ~ ~ ~ ~ ~ ~ / ~ ( ( ( ( ( ( / / Y Y ~ ~ ( ( ) ) / / Y Y Y Y ! ! ! ! ! ! ! ! ) ) ] ] _ _ ! ! Q Q G G G G F F S S S S S S S S S S F F F F S S S S F F G G F F S S F F G G L L G G L L Y Y Y Y Y Y D D D D S S S S S S L G L L G G L L D D F F S S b b d d p p d p l l S S G G D D / / @.@.@.@.] ] _ _ ] ] ] ] _ _ _ _ _ _ / / F F d d b b / / %.%.9.9.q.q.q.q.9.9.t.t.3.3.+.+.] ] ] ..' ' H H b b v v v v F F ] ] $.$.' ' S S v v S S ] ] ,.,.,.,.,.,.w.w.d.d.d.d.,.,.' ' L L F F L L ....%.%.$.$.H H H H H F ' ' 0.0.h.h.s.s.9.9.=.=.9.9.u.u.s.s.d.d.u.y.5.5.%.%.%.%.] ] ' ' / / / / ] ] ' ' _ _ L L L L / / / / ^ ^ L L G G L L B B k d k k B B S S B B N N b b B B N N N N N N b b k d k k b b k k b b N N B B S S S S S S F F G G S S B N b b l l l l l l d d w w b b B B B B b b b b l l d k k k b b b b b b d d d d B B L L G G L L ^ ^ / / ^ ^ L L R R ) ) ] ] ^ ^ L L ^ ^ ) ) ] ] ] ] ) ) ] ] @.@.3.3.q.q.t.t.5.5.+...R L =.=.5.5.-.-.] ] / / R R / / ] ] %.%.....] ] ....@.@.....@.@.$.$.) ) R R L L / / ) ) L L b b d d p p l l S S b b d d d d l l b b N N G G F F x x p p b b Q Q ) ) ) ) ) ) ) ) G G w p - - l l G G L L F F b b C C F F S S b b b b G G B B c c M M G G L L S S b b p p 6 6 , , < < w w d d c c M M S S S S b b j j w w 6 6 < < 6 6 p p d d j j c c c c c c c c n n c c c c c c c c b b c c l l j j j j j j j j j j j j j j j j ",
"Y Y Y Y Y Y Y Y Y Y Y ~ Y Y Y Y Y Y Y Y Y Y Y Y Y Y Y Y Y I I I I I I U U U U U I I Y Y Y Y Y Y Y Y Y Y T T ~ ~ ~ / / / ~ ~ ~ ~ ~ ~ ~ ~ ~ ~ / / / / ( ( ( / _ _ / / / / / ~ / / / / / / ( ( _ _ ( ( ( ( / ( ( ( _ _ _ _ _ _ / ( T ~ Y Y I I I I L L Y Y Y Y Y Y L L L L ~ ~ ) ) _ ) / / ~ ~ ( ( / / / / ! ! ! ! Y Y L L L L / / ! ! ! ! ! ! / / / / / / / / / / / / / / / / Y Y Y Y L L D D M M M M M M J J ) ) | | | | ) ) E E G G b b d d p p l l M M S S L L _ _ ) ) L L / / | | ] ] / / S S / / / / L L / / @.@.%.%.@.@.G G b b F F ] ] =.=.-.-.5.5.5.5.%.%.L L l b A A L L ) ) / / R R S S S S S S H F S S b b A A H H ) ) ] ] @.@.@.@.] ] ....,.,.q.q.7.7.,.,.5.5.q.q.q.q.q.q.q.q.3.3.@.@.,.-.3.3.0.0.g.g.h.h.5.5./ / 3.3.g.g.l.l.u.u.9.9.5.5.3.3.-.-.9.9.-.-.%.%.@.@.$.$.&.&.o.o.@.@.$.$.5.5.9.9.1.1.@.@.@.@.@.@.@.@._ _ R L S S N N b b k k d d 0 0 0 0 < < 0 0 d d b b k k d d k k d d d d k k b b B B S S L L R R G G G G S S B B d d w w d d d d l l b b l l d d 0 0 < < < < < < < < k k l l k k b b G G _ _ @.@.$.$.] ] ) ) ] ] =.=.3.3.$.$.' ' / / / / ] ] ] ] ) ) _ _ @.@.@.@.@.@.+.+.+.+.-.-.5.5.5.5.-.-.$.$.+.+.%.%.%.%.@.@.%.%.,.,.3.3.5.9.7.7.,.,.5.6.e.e.0.0.....L L L L G G G G S S b b b b N b l l w w l l b b S S S F S S S S S S S B F F L L L L S S d d p p d d l l F F F F G G B N p p k k L L ] ] ] ] / / G G ! ! ) ) L L M M c c c c l l j j b b D D L L G G S S M M j j w w < < , , < < w p j j b b l l d d w w 3 3 6 6 6 6 6 6 6 6 w w p p p p 9 9 6 6 9 9 p p p p p p d d j j j j j j d g p p c c j j j j d d p p p p p g ",
"Y Y Y Y Y Y Y Y Y Y ~ ~ Y Y Y Y Y Y Y Y Y Y Y Y Y Y Y Y Y Y Y Y I I I I U U U U I I Y Y Y Y Y Y Y Y Y Y T T ~ ~ ~ / / / ~ ~ ~ ~ ~ ~ ~ ~ ~ ~ / / / / ( ( ( ( _ _ / / / / ~ ~ / / / / / / ( ( _ _ ( ( ( ( ( ( ( ( _ _ _ _ _ _ / ( T ~ Y Y I I I I L L Y Y Y Y Y Y L L L L ~ ~ ) ) _ ) / / ! ~ ( ( / / / / ! ! ! ! Y Y L L L L / / ! ! ! ! ! ! ! / / / / / / / / / / / / / / / Y Y Y Y L L D D M M M M M M J J ) ) | | | | ) ) E E G G b b d d p p l l M M S S L L _ _ ) ) L L / / | | ] ] / / S S / / / / L L / / @.@.%.%.@.@.G G b b F F ] ] =.=.-.-.5.5.5.5.%.%.L L l l A A L L ) ) / / R R S S S S S S F F S S b b A A H H ) ) _ _ @.@.@.@.] ] ....,.,.0.q.7.7.,.,.5.5.q.q.q.q.q.q.q.q.3.3.@.@.-.-.3.3.0.0.g.g.h.g.5.5./ / 3.3.g.g.l.l.u.u.9.9.5.5.3.3.-.-.9.9.-.-.%.%.@.@.$.$.&.&.o.o.@.@.$.$.5.5.9.9.1.2.@.@.@.@.@.@.@.@._ _ R L S S N N b b k k d d 0 0 0 0 < < 0 0 d d l l k k d d k d d d d d k k b b B B S S L L R R G G G G S S B B d d w w d d d d l l b b l l d d 0 0 < < < < < < < < k k l l k k b b G G _ _ @.@.$.$.] ] ) ) _ ] =.=.3.3.$.$.' ' / / / / ] ] ] ] ) ) _ _ @.@.$.@.@.@.+.+.+.+.-.-.5.5.5.5.-.-.$.$.+.+.%.%.%.%.@.@.%.%.,.,.3.3.5.5.7.7.,.,.5.5.e.e.0.0.....L L L L G G G G S S b b b b N N l l w w l l b b S S S F S S S S S S S S F F L L L L S S d d p p d d l l F F F F G G B B p p k k L L ] ] ] ] / / G G ! ! ) ) L L M M c c c l l l j j b b D D L L G G S S M M j j w w < < , , < < w w j j b b l l d d w w 3 3 6 6 6 6 6 6 6 6 w w p p p p 9 9 6 6 9 9 p p p p d d d d j j j j j j d g p p c c j j j j d d p p p p p p ",
"Y Y Y Y Y Y Y Y Y Y Y Y Y Y Y Y Y Y Y Y Y Y Y Y Y Y I I U U D D D D D D D D D D D D I I Y Y Y Y Y Y Y Y T T / / / / / / / / / / / / T T Y Y Y Y T T ~ ~ ~ ~ / / / / ~ ~ ~ ~ ~ ~ / / ~ ~ ~ ~ _ _ ( / / / ~ ~ ~ ~ ~ ~ ( ( ( ( ( ( T T U U D D U P I I L L L L Y Y Y Y Y Y Y Y ~ ~ / ~ ~ ~ Y Y ~ ~ ~ ~ ~ ~ ~ / / / / / ! ! Y Y ~ ~ / / ( ( ` ` _ _ / / / ~ / / L L L L Y Y L L D D S S C M M M n n n n M M Y Y ] ] X.X.] ] E E L L S S l l d d c c G G / / ) ) @.@.-.-.X.X.E E E E / / Y Y G G Y Y o.o.&.&.@.@.@.@.2.2.0.0.5.5.$.$.G G b b G G ] ] @.@.] ] ) ) S S f f v v L L ] ] +.+.+.+.] ] / / ^ ^ ^ ^ / / ' ' / / H H A A S S S S G F L L L L / / ) ) ) ) ) ) ....7.7.h.h.k.k.i.i.y.y.u.u.h.h.g.g.u.u.0.0.9.9.3.3.3.3.q.q.g.g.j.j.q.q.=.=.=.=.-.-.5.5.7.9.=.=.$.$.] X.) ) ] ] ] ] ) ) _ ) $.$.5.5.9.9.-.-.X.X.] ] @.@.$.$.-.-.X.X./ / G G l l d d d k d d d d d d k k b N B B N N k k w w d d w w d d B B E E _ _ _ _ / / / / E E E E L L b N d k k k k k w w k k b b b b b b k k d d d d w w d d d d l l F F / / ] ] X.X.@.@.] ] ) ) _ _ $.$.,.-.@.@.) ) L L ^ ^ / / / ^ L L / / +.+.@.@.-.-.=.=.] ] ^ ^ ^ ^ @.@.9.9.y.y.-.-.%.%.+.+.+.+.-.-.0.0.9.7.3.3.] ] / / ) ) ] ] / / b b k k b b G G S S b b l l d d d d l l b b S S S S F F F F F F F F S S b b G G L L L L L L S S d d 3 3 - - l l b b B B B B S S G G L L / / L L L L L L / / / / G G l l j j p p d d l l l l l l l l l l c c l l d d p p p p w w 6 6 p p c c l l d d 6 6 3 3 w w p p p p p p p p p p p p p p p p 9 9 9 9 9 9 6 6 6 6 p p g g g g j j j j j j g g j j j j j j j j g g p p ",
"Y Y Y Y Y Y Y Y Y Y Y Y Y Y Y Y Y Y Y Y Y Y Y Y Y Y I I U U D D D D D D D D D D P D I I Y Y Y Y Y Y Y Y T T / / / / ( ( / / / / / / T T Y Y Y Y T T ~ ~ ~ ~ / / / / ~ ~ ~ ~ ~ ~ / / ~ ~ ~ ~ _ _ ( / / / ~ ~ ~ ~ ~ ~ ( ( ( ( ( ( Y T U P D D U U I I L L L L Y Y Y Y Y Y Y Y ~ ~ ~ ~ ~ ~ Y Y ~ ~ ~ ~ ~ ~ ~ ~ / / / / ! ! Y Y ~ ~ / / ( ( ` ` _ _ / / / ~ / / L L L L Y Y L L D D S S C C M M n n n n M M I I ] ] X.X.] ] E E L L S S l l d d c c G G / / ) ) @.@.-.-.X.X.E E E E / / L L G G Y Y o.o.&.&.@.@.@.@.2.2.9.0.5.5.$.$.G G b b L G ] ] @.@.] ] ) ) S S f f v v L L ] ] +.+.+.+.] ] / / ^ ^ ^ ^ / ) ' ' / / H H A A S S S S F F L L L L / / ) ) ) ) ) ) ....7.7.h.h.k.k.i.i.y.y.u.u.h.h.g.g.u.u.0.0.9.9.3.3.3.3.q.q.g.g.j.j.q.q.=.=.=.=.-.-.5.5.7.9.=.=.$.$.X.X.) ) ] ] ] ] ) ) ) ) $.$.5.5.9.9.-.-.X.X.] ] @.@.$.$.-.-.X.X.) ) G G l l d d d d d d d d d d k k b N B B N N k k w w d d w w d d B B E E _ _ _ _ / / / / E E E E L L b b k k k k l k w w k k b b b b b b k k d d d d w w d d d d l l F F / / ] ] X.X.@.@._ ] ) ) _ _ $.$.-.-.@.@.) ) L L ^ ^ / / / / L L / / +.+.@.@.-.-.=.=.] ] ^ ^ ^ ^ @.@.9.9.y.y.-.-.%.%.+.+.+.+.-.-.0.0.9.9.3.3.] ] / / ) ) ] ] / / b b k k b b G G S S b b l l k d d d l l b b S S S S F F F F F F F F S S b b G G L L L L L L S S d d 3 3 - - l l b b B B B B S S G G L L / / L L L L L L / / / / G G l l j j p p d d l l l l l l l l l l c c l l d d p p p p w w 6 6 p p c c l l d d 6 6 3 3 w w p p p p p p p p p p p p p p p p 9 9 9 9 9 9 6 6 6 6 p p g g g g j j j j j j g g j j j j j j j j g g p p ",
"I I U U U U I I Y Y I I I I Y Y Y Y Y Y Y Y Y Y I I I I U U D D D D D D D D D D D D U U I I Y Y Y Y Y Y T T / / ( ( ( ( ( ( ( ( / / T T Y Y Y Y Y Y Y Y T T ~ ~ ~ ~ ~ Y Y Y Y Y T T T T Y Y ~ ~ Y Y Y Y Y Y Y Y Y Y Y Y Y Y T T Y Y Y Y Y Y Y Y Y Y I I J J Y Y Y Y Y Y Y Y ~ ~ ~ ~ ~ ~ Y Y Y Y Y Y Y Y Y Y Y Y ! ! Y Y Y Y Y Y Y Y ~ ~ ~ ~ ! ! J J D D D D S S S S D D S S S S S S S S C C n n n M M M S S D D L L G G S S S S M M l l n n S S L J Y Y E E _ _ ] ] _ _ E E E E E E L L L L Y Y o.o.5.5.9.6.2.2.-.-.>.>.5.5.-.>.] ] / / ) ) ] ] ] ] L L b b v v b b L L +.+.=.=.=.=.@.@.) ) L L / / ' ' ] ] ] ] ' ' ^ ^ H H L L F F S S N N S S R R / / F F S S F F R R ] ] ] ] ) ) @.X.7.7.y.y.u.u.9.9.=.=.@.@.@.@.7.7.j.j.z.z.u.u.] ] ' ' ,.,.3.3.3.3.5.5.X.X.X.X.] ] / / _ _ X.X.) ) _ _ ) ) _ _ ] X.@.@.@.@.@.@.-.-.5.5.%.%._ _ R R L L F F F F G G G G / / / / / / ) ) ) ) E E L L F F G G S S S S R R ) / E E S S b b S S S S L L L L S S B B S S S S S S L L / / ] ] ] ] _ _ ) ) / / L L G G S S G G E E R R E E ] ] ] ] ] ] ] ] ] ] ] ] _ _ / / ^ ^ L L L L / / / / / ) ) ) / / L L ) ) +.+.@.@._ _ / / _ _ =.=.5.5.5.5.$.$._ _ ' ' ] ] $.$.$.$._ _ L L S S b b k k d d 0 0 d d l l l l l l l l b b l l d d l l b b b b l l b b b b N b b b b l d l S S F F F F S S b b d d 3 3 < < 0 w S S F F B B S S B B l l d d d d l l b b C C C C x x 6 6 6 6 p d l l b b B B B B b b b b b b p p w w p p d d j j j j M M D D S S l l p p w w d d j j d d w w 6 6 6 6 6 6 9 9 p p p p y p 9 9 p p p p g g j j c j c c c c c c p p g g j j j j j j j j g g ",
"I I U U U U I I I Y I I I I Y Y Y Y Y Y Y Y Y Y I I I I U U D D D D D D D D D D D D I I I I Y Y Y Y Y Y T T / / ( ( ( ( ( ( ( ( / / T T Y Y Y Y Y Y Y Y T T ~ ~ ~ ~ Y Y Y Y Y Y T T T T Y Y ~ ~ Y Y Y Y Y Y Y Y Y Y Y Y Y Y T T Y Y Y Y Y Y Y Y Y Y I I J J Y Y Y Y Y Y ~ Y ~ ~ ~ ~ ~ ~ Y Y Y Y Y Y Y Y Y Y Y Y Y ~ Y Y Y Y Y Y Y Y ~ ~ ~ ~ ! ! J J D D D D S S S S D D S S S S S S S S C C n n M M M M S S D D L L G G S S S S M M l l n B S S L J Y Y E E _ _ ] ] _ _ E E E E E E L L L L Y Y o.o.5.5.6.6.2.2.-.-.>.-.5.5.-.2.] ] ! / ) ) ] ] ] ] L L b b v v b b L L +.+.=.=.=.=.@.@.) ) L L / / ' ' ] ] ] ] ' ' ^ ^ H H L L F F S S N N A A R R / / F F S S F F R R ] ] ] ] ) ) @.X.7.7.y.y.u.u.9.9.=.=.$.@.@.@.7.7.j.j.z.z.u.u.] ] ' ' ,.,.3.3.3.3.5.5.X.X.X.] ] ] / / ] _ X.X.) ) _ _ ) ) _ _ ] ] @.@.@.@.@.@.-.-.5.5.%.%._ _ R R L L F F F F G G G G / / / / / / ) ) ) ) E E L L F F G G S S S S R R ) ) E E S S b b S S S S L L R R S S B B S S S S F F L L / / ] ] ] ] _ _ ) ) / / L L L L S S G G E E R R E E ] ] ] ] ] ] ] ] ] ] ] ] _ _ / / ^ ^ L L L L / / / / / ) ) ) / / L L ) ) +.+.@.@._ _ / / ] ] =.=.5.5.5.5.$.$._ _ ' ' ] ] $.$.$.$._ _ L L S S b b k k d d 0 0 d d l l l l l l l l b b l l k k l l b b b b l l b b b b N b b b b l j l S S F F F F S S b b d d 3 3 < < 0 w S S F F B B S S B B l l d d d d l l b b C C C C x x 6 6 6 6 p d l l b b B B B B b b b b b b p p w w p p d d j j j j M M D D S S l l p p w w d d j j d d r w 6 6 6 6 6 6 9 9 p p p p p p 9 9 p p p p g g j j j j c c c c c c g p g g j j j j j j j j g g ",
"I I U U U I I Y Y Y Y I I I U U I I I I I I I I I I I I U U Y Y I I P P D D D D U U I I I I Y Y Y Y Y Y T T / / ( ( ( ( ( ( ( ( ~ ~ Y Y Y Y Y Y Y Y ~ ~ ~ ~ T T ~ ~ ~ ~ Y Y ~ ~ T T T T Y Y Y Y I U P P D D D P U U U U U U Y Y Y Y Y Y Y Y Y Y Y Y Y Y Y Y I I Y Y Y Y Y Y Y Y Y Y Y Y Y Y Y Y I Y Y I Y Y Y Y ~ ~ ~ ~ ~ ~ ( ( ~ ~ Y Y Y Y I I D D Z Z C C C C S S M M M M M M M M S S S S D D J J D D S S S S L L / / ] ] ` ` L L S S G G G G S S S S G J E E / / / / E E E E L L S S S S F F G G / / | | ] ] ! Y L L ! ! Y Y / / _ _ _ _ ) ) ' ' / / S S v v N N F F K K L L ' ' ....R R L L L L L L L L ^ ^ / / ^ ^ F F F F S S S S S S F F R R R R F F N N S S N N b b S S G G L L _ _ +.+.3.3.-.-.$.$.,.,.5.5.0.0.u.u.a.a.t.t.....+.+.5.5.=.=.=.=.%.%.$.$.%.%.$.$.] ] @.@.@.@.) ) ] ] ] ] ) ) _ _ %.%.-.-.$.$.$.$.-.-.-.-./ / G G _ _ $.$.%.%.-.-.%.%.7.9.5.5.,.,.%.%.%.%.%.%.%.%.-.-.#.#.] ..] ] ] ] / / G G b b k k w w d d B B E E ) ) ] ] X.X.@.@.%.%.%.%.$.$.@.@.#.#.#.#.%.%.-.-.,.,.%.%.#.#.X.X.] ] G G L L #.#.,.-.=.=.$.$.%.%.$.$.' ' L L L L ) ) ) ) ' ' ) ) / / ) ) ] ] _ _ ) ) / / ' ' ] ] ] ] ] ] +.+.-.-.%.%.] ] ) ) ) ) / / ] ] $.$.@.@.$.$.] ] L L S S S S F F B B k k l l b b b b l l d d d d p p 3 3 3 3 w w d p k k l l d d p p p p d d B B F F b b 3 3 & & = = < < b b _ _ _ _ S S l l l l d d c c d p d d p d p p d d y y 3 3 6 6 , , < < w w c c F F G G F F M M b b l l j j j j p p p d n n D D L L M M p p p p j j c c j j 6 6 p p p p p p p p g g g g p p p p p p p p g g g g g g g g j j j j j j j j g g g g p p p p g g ",
"I I U U I I I I Y Y I I I I U U I I I I I I I I I I I I U U Y Y I I P U D D D D U U I I I I Y Y Y Y Y Y T T / / ( ( ( ( ( ( ( ( ~ ~ Y Y Y Y Y Y Y Y ~ ~ ~ ~ Y T ~ ~ ~ T Y Y ~ ~ T T Y T Y Y Y Y I U P P D D D P U U U U U U Y Y Y Y Y Y Y Y Y Y Y Y Y Y Y Y I I Y Y Y Y Y Y Y Y Y Y Y Y Y Y Y Y I I Y Y Y Y Y Y ~ ~ ~ ~ ~ ~ ( ( ~ ~ Y Y Y Y I I D D Z Z C C C C C Z M M M M M M M M S S S S D D J J D D S S S S L L / / ] ] ` ` L L S S G G G G B S S S G J E E / / / / E E E E L L S S S S F F G G / / | | ] ] ! ! L L ! ! Y Y / / _ _ _ _ ) ) ' ' / / F S v v N N F F K K L L ' ' ....R R L L L L L L L L ^ ^ / / ^ ^ F F F F S S S B S S F F R R R R F F N N S S N N b b S S G G L L _ _ +.+.3.3.-.-.$.$.,.,.5.5.0.0.u.u.a.a.w.t.....+.+.5.5.=.=.=.=.%.%.$.$.&.%.$.$.] ] @.@.@.@.) _ ] ] ] ] ) ) _ _ %.%.-.-.$.$.$.$.-.-.-.-./ / G G _ _ $.$.%.%.-.-.%.%.7.7.5.5.,.,.%.%.%.%.%.%.%.%.-.-.#.#.] ] ] ] ] ] / / G G b b k k w w d d B B E E ) ) ] ] X.X.@.@.%.%.%.%.$.$.@.@.#.#.#.#.%.%.-.-.,.,.%.%.#.#.X.X.] ] G G L L #.#.,.,.=.=.$.$.%.%.$.$.' ' L L L L ) ) ) ) ' ' ) ) / / ' ) ] ] _ _ ) ) / / ' ' ] ] ] ] ] ] +.+.-.-.%.%.] ] ) ) ) ) / / ] ] $.$.@.@.$.$.] ] L L S S S S F F B B k k l l b b b b l l d d d d p p 3 3 3 3 w w p p k k l l d d p p p p d d B B F F b b 3 3 & & = = < < b b _ _ _ _ S S l l l l d d c c p p d d p p p p p d y y 3 3 6 6 , , < < w w c c F F G G F F M M b b l l j j j j p p p p n n D D L L M M p p p p j j c c j j 6 6 p p p p p p p p g g g g p g p p p p p p g g g g g g g g j j j j j j j j g g g g g g p p g g ",
"I I U U I I I I I I I Y Y Y Y Y Y Y Y Y I I I I I I I I U I Y Y I I U I U U U U U U U U I I I I Y Y Y Y T T T T ~ ~ / / ( ( / / T T Y Y Y Y Y Y ~ ~ ~ ~ Y Y Y Y Y Y ~ ~ T Y ~ ~ Y Y Y Y Y Y / / T T Y Y Y Y U U P P U U U U U U Y Y Y Y T T Y Y Y Y Y Y Y Y ~ ~ ~ T Y Y Y Y I I I I I I I I I I I I I I Y Y Y Y Y Y Y Y ~ ~ ~ ~ ~ Y Y Y Y Y Y Y U U U U U U J J J J D J J J D D D D D D D D D D Y Y / / I I D D L L | | :.:.@.@.) ) L L D D D D L L L L L L ) ) ] ] X.X.] ] / / L L S S w w l l l l c c M M F F D D D D D D S S D D D D F F / / %.%.-.-./ / b b 0 0 > > k k R R ) ) ) ) R R b b N b N N S S K K S S N N N N v v d d d d B B G G G G S S b b N B F F R R ) ) ] ] ....,.,.u.u.a.a.w.w.5.5.$.$.] ] ) ) ] ] $.$.%.%.=.=.@.@.%.%.0.0.5.5.@.@.@.@.@.@.5.5.$.$./ / ] ] %.=.-.-.5.5.,.,.,.,.$.$.@.@.,.,.5.5.5.5.-.-.%.%.........-.-.8.8.q.q.y.y.s.s.y.y.%.%.] ] _ _ ....-.-.8.8.q.q.%.%.%.%.$.$.| | / / F F b b d d d d l l S S G G / / ] ] #.@.$.$.-.-.>.>.-.-.#.#./ / L L / / @.@.8.8.u.u.y.y.9.9.<.<.%.%.@.@.$.$.@.@.%.%.%.%.$.$.] ] ) ) ] ] %.%.%.%.] ] @.@.@.@.L L L L @.@.%.%.@.@.) ) ....,.,.$.$.L L L L _ _ ] ] / / ^ ^ R R L L L L ) ) @.@.w.e.e.e.%.%.L L L L E Y B B - - O O & & - - 3 3 - - - - < < d d l l b b b b b b N N S S B B b b S S F F b b d d d d < < 3 3 S S Y Y _ _ / / G G E E L L b b c c j j p p d d p p p p p p j j 6 6 , , < < p p d d w w p p d d p p p p j j j j p p p p j j c c j j j j j j g g g g p p p p 9 9 9 9 p p p p p p g g g g j j j j j j j j c c c c g g g g g g g g p p g g g g p p p p g g g g p p ",
"I U U U I I I I I I I Y Y Y Y Y Y Y Y Y I I I I I I I I I I Y Y I I U I U U U U U U U U I I I I Y Y Y Y T T T T ~ ~ / / ( ( ~ / T T Y Y Y Y Y Y ~ T ~ ~ Y Y Y Y Y Y ~ ~ T Y ~ ~ Y Y Y Y T T / / ~ Y Y Y Y Y U U P P U U U U U U Y Y Y Y T T Y Y Y Y Y Y Y Y ~ ~ ~ ~ Y Y Y Y I I I I U I I I I I I I I I Y Y Y Y Y Y Y Y ~ ~ ~ Y Y Y Y Y Y Y Y Y I I U U U U J J J J D D J J D D D D D D D D D D Y Y / / I I D D L L | | :.:.@.@.) ) L L D D D D L L L L L L ) ) ] ] X.X.] ] / / L L S S w w l l l l c c M M F F D D S D D D S S D D G D F D / / %.%.-.-./ / b b 0 0 > > k k R R ) ) ) ) R R b b b b N N S S K K S S N N N N l v d d d d B B G G G G S S b b B B F F R R ) ) ] ] ....,.,.u.u.a.a.w.w.5.5.$.$.] ] ) ) ] ] $.$.%.%.=.=.@.@.%.%.0.0.5.5.@.@.@.@.@.@.5.5.$.$./ / ] ] =.=.-.-.5.5.,.,.,.,.$.$.@.#.,.-.5.5.5.5.-.-.%.%.........-.-.8.8.q.q.y.y.s.s.y.y.%.%.] ] _ _ ....-.-.8.8.q.q.%.%.%.%.$.$.] | / / F F b b d d d d l l S S G G / / ] ] #.#.$.$.-.-.-.>.-.-.#.#./ / L L / / @.@.8.8.u.u.y.y.9.9.<.<.%.%.@.@.$.$.@.@.%.%.%.%.$.$.] ] ) ) ] ] %.%.%.%.] ] @.@.@.@.L L L L @.@.%.%.@.@.) ) ..] ,.,.$.$.L L L L _ _ ] ] / / ^ ^ R R L L L L ) ) @.@.w.w.e.e.-.-.L L L L E E B B - - O O & & - - 3 3 < - - - < < d d l l b b b b b b N N S S B B b b S S F F b b d d d d < < 3 3 S S Y Y _ _ / / G G E E L L b b c c j j p p d d p p p p p p j j 6 6 , , < < p p d d w w p p p p p p p p j j j j p p p p j g c c j j j j j j g g g g p p p p 9 9 9 9 p p p p p p g g g g j j j j j j j j c c c c g g g g g g g g g p g g g g p p p p g g g g p p ",
"D D D D D D P P U U U U U U I I U U U U I I I I U U I U I I I I I I U U U U U J D D D D D P D D I I Y Y Y Y Y Y Y Y ~ ~ ( ( / / / / T T Y Y Y T T T Y Y Y Y Y Y ~ ~ ~ ~ ~ ~ ~ ~ ~ ~ ~ ~ ~ / ~ ~ Y Y I I I I J U D D P P U P P D U U Y Y Y Y Y Y Y Y Y Y ~ ~ ~ ~ T T Y Y Y Y I Y U U U U U U U U U U U U U U U U U U U U U U Y Y I Y I I I I I I I I I I U U Y Y I I I I I I U U D D D D D D M M D D U U D D S S D D Y Y ( ( / / I I D D D D D D D D L L I I / / Y Y L L L L G G G G S S l l d d b b M M M M S S S S S S D D S S Y Y ) ) _ _ #.#.7.7.q.q.,.3.+.+.R R N N b b A A K K R R ^ ^ ^ ^ / / / / / / / / L L F F F F L L B B p p w w d d w w ; ; @ @ O O l k / / ] ] ....$.$.u.u.M.M.j.j.8.8._ _ R R / / ) ) ) ) ) ) @.@.@.@.) ) ] ' 5.5.w.w.%.%.' ' 7.7.q.q.....L L ] ] ,.,.%.%.@.@.%.%.,.,.%.%.%.%.,.,.7.7.7.7.9.9.5.5.5.5.-.-.$.$.$.$.$.$.%.%.<.<.] ] F F N N R R ....-.-.,.,.$.$.-.-.%.%.@.@._ _ E E L L G G G G S S F F L G L L / / _ _ @.#.%.%.-.%.%.%.$.$.@.@._ _ L L S S S S _ _ #.#.#.#.| | @.@.X.X.] ] ] ] @.@.@.@.X.X.X.X.$.$.$.$.$.$.$.$.$.$.....$.$.%.%.) ) L L ) ) @.@.] ] / / ] ] %.%.@.@.L L F F G G R L G G F F B B b b b b G G ) ) 0.0.0.q.-.-.) ) / / E E F F l l < < w w 0 0 - - O O X X = = d d S S F F F F G G L L E E / / E E L L G G l l < < - - = = w w S S G G B B d d G G %.%.@.@.S S j j d d p p p p d d g g c c M M M M c c d d d d w w - - - - 6 6 6 6 d d j j j j j j c j c c c c c c d d j j g g g g p p p p 9 9 9 9 9 9 9 9 9 9 p p g g j j j j g g j j j j j j g g g g g g g g g g g g g g p p p p p p y p 9 9 ",
"D D D D D D P P U U U U U U I I U U U U I I I I U U U U I I I I I I U U U U U U D D D D D D D D I I Y Y Y Y Y Y Y Y ~ ~ ( ( / / / / T T Y Y T T Y Y Y Y Y Y Y Y ~ ~ ~ ~ ~ ~ ~ ~ ~ ~ ~ ~ / / ~ ~ Y Y I I I I J J D D D D P P P P U U Y Y Y Y Y Y Y Y Y Y ~ ~ ~ ~ T T Y Y Y Y I I U U U U U U U U U U U U U U U U U U U U U U Y Y I Y I I I I I I I I I I U U Y Y I I I I I I U U D D D D D D M M D D U U D D S S D D Y Y ( ( / / I I D D D D D D D D L L I L / / Y Y L L L L G G G G S S l l d d b b M M M M S S S S S S D D S S Y Y ) ) _ _ #.#.7.7.q.q.,.3.+.+.R R N N b b A A K K R R ^ ^ ^ ^ / / / / / / / / L L F F F F L L B B p p w w d d 0 w ; ; @ @ O O l k / / ] ] ] ..$.$.u.u.M.M.j.j.8.8._ _ R R / / ) ) ) ) ) ) @.@.@.@.) ) ] ] 5.5.w.w.%.%.' ' 7.7.q.q.....L L ] ] ,.,.%.%.@.@.%.%.,.,.,.,.%.%.,.,.7.7.7.7.7.9.5.5.5.5.-.-.$.$.$.$.$.$.%.%.<.,.] ] F F N N R R ....-.-.,.,.$.$.-.-.%.%.@.@._ _ E E L L G G G G S S F F L L L L / / _ _ @.#.%.%.-.-.%.%.$.$.@.@._ _ L L S S S S _ _ #.#.#.#.X.| @.@.X.X.] ] ] ] @.@.@.@.X.X.X.X.$.$.$.$.$.$.$.$.$.$.....$.$.%.%.) ) L L ) ) @.@.] ] / / ] _ %.%.@.@.L L F F G G R R G G F F B B b b b b G G ) ) 0.0.q.q.-.-.) ) / / E E F F l l < < w w 3 3 - - O O X X = = d d S S F F F F G G L L E E / / E E L L G G l l < < - - = = 0 0 S S G G B B d d G G %.#.@.@.S S j j d d p p p p d d g g c c M M M M c c d d d d w w - - - - 3 6 6 6 j d j j j j j j c j c c c c c c d d j j g g g g p p y p 9 9 9 9 9 9 9 9 9 9 p p g g j j j j g g j j j j j j g g g g g g g g g g g g g g p p p p p p y y 9 9 ",
"D D D D D D D D D D D D D D P D D D P P U U U U U U I I I I Y Y Y Y I I I I U U U U U U U U D D I I Y Y Y Y Y Y Y T ~ / ( ( ( ( / / ~ ~ ~ ~ ~ ~ ~ ~ Y Y Y Y Y Y Y Y ~ ~ Y Y Y Y T ~ ~ ~ T T ~ ~ Y Y Y Y I I D D D D P P P P D D P P U U I I I U I I Y Y Y Y Y Y Y Y Y Y Y Y I I U U U U U U D D D D D D D D D D D D D D D D U I I I U U I I Y Y I I I Y Y Y Y Y Y Y Y Y I Y I I D D D D D D Z Z S Z S S D D D D D D D D D J L I D D D D L L L J J D L L Y I S S M M B M b b b b B B F F G G F F / / / / L L D D S S S S D D L L I I | | q.q.e.e.#.#.R R ^ ^ ....R R b N 0 0 0 0 k k L L ) ) ....@.@.$.$.@.@.....) ) ) ) ] ] _ _ S S - - O O O O - - l l S S S S ) ) @.@.#.#.@.@.$.$.q.q.f.h.u.u.5.5.] ] / / ) ) ] ] @.@.$.$.@.@.@.@.] ] ] ] 5.5.w.w.%.%.) ) ....$.$.....) ) @.@.$.$.....] ] @.@.%.%.%.%.$.$.%.%.,.,.5.5.9.9.@.@.....] ] _ _ ) ) / / / / ) ) L L S S B B F F L L R R E E L L ] ] ] ] ] ] ] ] $.$.%.%.#.#._ _ F F / / @.@.-.-.%.%.X.X.) ) / / ] ] / / G G L L L L G G B B l l S S F F S S b b F F G G G G G G / / @.@.%.%.%.%.%.%.$.$.$.$.%.-.$.$.) ) R R R R G G N N S S / / L L G G / / X.X.$.$.@.@....._ _ ] ] ] ..] ] / / R R R R ) ) ....X.X.X.X._ _ / / / / / / / / ) ) / / E E F F d d & & O O O O = = 6 6 p p d d d d c c B B S S F S M M l l w w - - & & & & - - p p w w 6 6 6 6 S S ] ] ) ) M M d d j j j j j j j j p p c c B B B B l l d d p p p p < < - - 6 6 w w l l j j j j c c c c c c c c c c g g g g g g g g p p y p 9 9 9 9 9 9 6 6 9 9 9 9 p p g g g g g g g g g g j j j j j j j j g g g g g g p p 9 9 9 9 9 9 9 9 9 9 ",
"D D D D D D D D D D D D D D D D D D P P U U U U U U I I I I Y Y Y Y I I I I U U U U U U U U D D I I Y Y Y Y Y Y Y Y / / ( ( ( ( / / ~ ~ ~ ~ ~ ~ ~ ~ Y Y Y Y Y Y Y Y ~ ~ Y Y Y Y T Y ~ ~ T ~ ~ ~ Y Y Y Y I I D D D D P P U U D D P P U U I I I I I I Y Y Y Y Y Y Y Y Y Y Y Y I I U U U U U U D D D D D D D D D D D D D D D D U I I I I U I I Y Y I I Y Y Y Y Y Y Y Y Y Y I Y I I D D D D D D M M Z Z S S D D D D D D D D D D I I D D D D L L L L J D L L Y I S S M M M M b b b b B B F F G G F F / / / / L L D D S S S S D D L L Y Y | | q.q.e.e.#.#.R R ^ ^ ....R R b N 0 0 0 0 k k L L ) ) ....@.@.$.$.@.@.....) ) ) ) ] ] ) ) S S - - O O O O - - l l S S S S ) ) @.@.#.#.@.@.$.$.q.q.f.f.y.u.5.5.] ] / / ) ) ] ] @.@.$.$.@.@.@.@.] ] ] ] 5.5.w.w.%.%.) ) ....$.$.....) ) @.@.=.=.....] ] @.@.%.%.%.%.$.$.%.%.,.,.5.5.9.9.@.@.....] ] _ _ ) ) / / / / ) ) L L S S B B F F L L R R E E L L ] ] ] ] _ _ ] ] $.$.%.%.#.#._ _ F F / / @.@.-.-.%.%.X.X.) ) / / ] ] / / G G L L L L G G B B l l S S F F S S b b F F G G G G G L / / @.@.%.%.%.%.%.%.$.$.$.$.%.-.$.$.) ) R R R R G G N N S S / / R R G G / / X...$.$.@.@....._ _ ] ] ] ..] ] / / R R R R ) ) ....X.X.X.X._ _ / / / / / / / / ) ) / / E E F F d d & & O O O O = = 6 6 p p d d d d c c B B S S S S M M l l w w - - & & & & - - p p w w 6 6 6 6 S S ] ] ) ) M M d d j j j j j j j j p p c c B B B B l l d d p p p p < < - - 6 6 6 w l l j j j j c c c c c c c c c c g g g g g g g g p p p p 9 9 9 9 9 9 6 6 9 9 9 9 p p g g g g g g g g g g j j j j j j j j g g g g g g g g 9 9 9 9 9 9 9 9 9 9 ",
"D D D D D D D D D D D D D D D D D D U P P D U U U U I I I I Y Y I I I I I I I I U U I U U U U U I I Y Y Y Y Y Y Y Y T T ~ ~ / / / / ~ ~ ~ ~ ~ ~ ~ ~ ~ ~ T T Y Y Y Y Y Y Y Y Y Y Y Y Y Y Y Y ~ ~ Y Y Y Y I I U U U U U U U U D D D D D D D D D D D D U U P P Y Y Y Y Y Y I I U U U U J J D D D D D D D D D D U U P P U U U U I I I I Y I Y Y Y Y Y Y Y Y T T Y Y Y Y Y Y U U D D D D S S Z Z D D S S S S D D J J I I I I I I I I I I I I Y Y Y Y L L L L L L S S b b l l d d j j B B G G F F G G / / _ _ Y Y D D S S S S D D D D S S / / 0.0.y.y.] ] b b N N N N k k 0 0 < < ; ; 0 0 N N L L L L / / ) ) / / L L S S N N S S w w < < - - - - 3 3 b b / / @.@.%.%.%.%.$.$.@.@.@.@.$.$.$.$.%.%.<.<.,.,.,.,.-.-.$.#...] @.@.%.%.-.-.$.$.$.$.5.5.q.q.,.,.....) ) / / R R F F S S F F S S F F R R -.,.7.7.9.9.,.,.5.5.7.7.0.0.q.q.X.X.G G N N G G L L N N b N F F S S B B S S F F S S B B S S F F L L / / ] ] #.#.-.-.,.,.#.#._ _ R R ) ) @.@.%.%.%.%.#.#.] ] ] ] / / F F b b b b F F G G S S B B S S S S S S B B F F G G G G F F L L $.$.5.5.-.-.@.@.] ] ] ] #.@.%.%./ / l l b b S S k k 3 3 d d N N b b S S L L ) ) X.X.@.X.) ) L L / / _ _ ] ] ] ] ........] ] ) ) _ _ ) ) / / / / E E E E _ _ ] ] ) ) L L G G S B d d - < & & O O & & - - - - < < d d b b M M c c l l b c b b l l l l l l l l w w B B F F S S S S B B c c j j j j j d j j p p r r j j c c c c p p w w l l M M l l d d l l c c c c j j g g j j c c d d g g g g g g g g g g p p p p p p 9 9 9 9 9 6 6 6 6 6 9 9 p p g g g g g g g g g g g g j j g g g g g g g g g p 9 9 9 6 6 6 6 6 6 6 6 9 ",
"D D D D D D D D D D D D D D D D D D U P P D U U U U I I I I Y Y I I I I U U I I U U U U U U U U I I Y Y Y Y Y Y Y Y T T ~ ~ / / / / ~ ~ ~ ~ ~ ~ ~ ~ ~ ~ T T Y Y Y Y Y Y Y Y Y Y Y Y Y Y Y Y ~ ~ Y Y Y Y I I U U U U U U U U D D D D D D D D D D D D U U P P Y Y Y Y Y Y I I U U U U J J D D D D D D D D D D U U P D U U U U I I I I Y Y Y Y Y Y Y Y Y Y ~ ~ Y Y Y Y Y Y U U D D D D S S S S D D S S S S D D J J I I I I I I I I I I I I Y Y Y Y L L L L L L S S b b l l d d j j B B G G F F G G / / _ _ Y Y D D S S S S D D D D S S / / 0.0.y.y.] ] b b N N N N k k 0 0 < < ; ; 0 0 N N L L L L / / ) ) / / L L S S N N S S w w < < - - - - 3 3 b b / / @.@.%.%.%.%.$.$.@.@.@.@.$.$.$.$.%.%.<.<.,.,.,.,.-.-.$.$.....@.@.%.%.-.-.$.$.$.$.5.5.q.q.,.,.....) ) / / R R F F S S F F S S F F R R -.-.7.7.7.7.,.,.5.5.7.7.0.0.q.q.X.X.G G N N G G L L N N b b F F S S B B S S F F S S B B S S F F L L / / ] ] @.@.-.-.,.,.#.#._ _ E R ) ) @.@.%.%.%.%.#.#.] ] ] ] / / F F b b b b F F G G S S B B S S S S S S B B F F G G G G F F L L $.$.5.5.-.-.@.@.] ] ] ..@.@.%.%./ / l l b b S S k k 3 3 d d N N b b S S L L ) ) X.X.X.X.) ) L L / / _ _ ] ] ] ] ........] ] ) ) _ _ ) ) / / / / E E E E _ _ ] ] ) ) L L G G S B d d < < & & O O & & - - - - < < d d b c M M c c l l b c b b l l l l l l l l w w B B F F S S S S B B c c j j j j j d j j p p r r j j c c c c p p w w l l M M l l d d l l c c c c j j g g j j c c d d g g g g g g g g g g g p p p p p 9 9 9 9 6 6 6 6 6 6 9 9 p p g g g g g g g g g g g g j j g g g g g g g g p p 9 9 9 6 6 6 6 6 6 6 6 6 ",
"D D D D D D D D P D D D D D D D P P P P P P U U U U I I I I I I U U U U U U U U J D D D J J J U U U I I I I I I I I I I I I Y Y Y Y Y Y Y Y ~ ~ ~ ~ ~ ~ Y Y Y Y Y Y Y Y Y Y Y Y Y Y Y Y Y Y Y Y Y Y Y Y I U U U D D D P P P D D D D D D D D D D D D U P P D Y Y I I I I I I U U U U U U U U D D D D D D D D D D P P P P P P I I I I Y Y Y Y Y Y Y Y Y Y Y Y Y Y Y Y I I U I D D D D S S S S D S S S Z Z S S D D U U I U I I Y Y I I L L I I I I L L L L L L Y Y L L S S M M S S Y Y L L B B b b F G L L D D D D D D S S D D D D L L L L / / X.X.....) ) ) ) G G L L L L G G S S F F G G L L L L / / / / L L S S d d < < < < & & = = < < l l S S E E _ _ @.@.%.%.-.%.%.%.#.#.$.$.$.$.%.%.-.-.$.$.X.X.@.@.%.%.<.<.%.%.@.@.] ] ) ) L L R R @.@.@.@.R R S S F F G G N N d d d d S S R R R R F F ....$.$.@.@.....@.@.$.$.%.%.-.-.$.$./ / F F / / ) ) R R R R ] ] L L F F L R ] ] ] ] ] ] / / L L S S L L ) ) _ _ _ _ ] ] @.@.#.#.] ] ] ] ] ] ..X.X.| _ _ _ _ _ _ F F S S F F E E ) ) ) ) / / / / B B S S G G L L L L E E L L L L E E ] ] ] ] / / / / E E L L G G R R B B k k F F _ _ L L d d d d b b l l l l l l l l B B b b w w & & - - p p b b G G E E L L F F F F Y L / / E E E E R L L L / / L L G G S S F F F F b b 3 3 & & & & < < d d d d d d d d b b S S B B M M B B S S S S D D L L G G S S F F S S l l d d l l d d p p 6 6 w w d d d d d d n n S S M M b b b b S S G G B B b b S S L L B B c c p p j j j j r p 9 9 p p p p p p p p p p p p 9 9 6 6 6 6 6 6 6 6 6 6 6 6 p p g g p p p p p p p p p p p p g g p p p p p p p p 6 6 6 6 4 4 4 4 6 6 6 6 ",
"D D D D D D D D P P D D D D D D U P P D P P U U U U I I I I U I U U U U U U U U J D D D J J J U U U I U I I I I I I I I I I Y Y Y Y T Y Y Y ~ ~ ~ ~ ~ ~ Y Y Y Y Y Y Y Y Y Y Y Y Y Y Y Y Y Y Y Y Y Y Y Y U U U U D P P P P P D D D D D D D D D D D D U U P P Y Y Y Y I I I I U U U U U U U U D D D D D D D D D D P P P P P P I I I I Y Y Y Y Y Y Y Y Y Y Y Y Y Y Y Y I I U U D D D D S S S S D D S S Z Z S S D D U U U U I I Y Y I I L L I I I I L L L L L L Y Y L L S S M M S S Y Y L L B B b b G G L L D D D D D D S S D D D D L L L L / / X.X.....) ) ) ) G G L L L L G G S S F F G G L L L L / / / / L L S S d d < < < < & & = = < < l l S S E E _ _ @.@.%.%.-.%.%.%.#.#.$.$.$.$.%.%.-.-.$.$.X.X.@.@.%.%.<.<.%.%.@.@.] ] ) ) L L R R @.@.@.@.R R S S F F G G N N d d d d S S R R R R F F ....$.$.@.@.....@.@.$.$.%.%.-.-.$.$./ / F F / / ) ) R R R R ] ] L L F F L R ] ] ] ] ] ] / / L L S S L L ) ) _ _ _ _ ] ] @.@.#.#.] ] ] ] ] ] ....X.X._ _ _ _ _ _ F F S S F F E E ) ) ) ) / / / / B B S S G G L L L L R R L L L L E / ] ] ] ] / / / / E E L L G G R R N N k k F F _ _ L L d d d d b b l l l l l l l l B B b b w w & & - - p p b b G G E E L L F F F F L L / / E E E E L L L L / / L L G G S S F F F F b b 3 3 & & & & < < d d d d p d d d b b S S B B M M B B S S S S D D L L G G S S F F S S l l d d l l d d p p 6 6 r w d d d d d d n n S S M M b b b b S S G G B B M b S S L L B B c c p p j j j j p p 9 9 p p p p p p p p p p p p 9 9 6 6 6 6 6 6 6 6 6 6 6 6 p p g g p p p p p p p p p p p p g g p p p p p p p p 6 6 6 6 4 4 4 4 6 6 6 6 ",
"D D S S S S D D D D D D D D D D D D D D D D D D J J J J J J U U U U I I I I I I I I I I U I U U U J J J J J J J J J U U J J Y Y I I Y Y Y Y Y Y Y Y Y Y Y Y Y Y Y Y Y Y Y Y Y Y Y Y Y Y Y Y I I I I U U D D D D D D D D D D D D D D D D J J I I I Y Y Y Y Y Y Y Y Y Y Y I I I I I I U U U U D D D D D D D S S S S S S S S S D D U U U U I I I I I I I I I I Y Y Y Y I I I I U U D D D D S S M M Z Z Z Z S S S S D S D D S S L J D D D D D D D D D D D D L L Y Y _ _ X.X.] ] / / ) ) _ _ ) ) G G E E E E E E E E L L D D D D D D L L D D B B S S L L R E / / _ _ ] ] ........] ] ) ) / / E E R R ) ) / / L L L L S S b b b b S S d d < < w w B B E E _ _ ] ] _ _ ........] ] ] ] _ _ _ _ X.X.X.X./ / G G L L / / R R N N p p 3 3 = = < < b b S S S S N N b b N N S S N N b b / / -.-.$.$.L L l b B B B B b b S S F F F F G G R R / / _ _ ] ] _ _ ) ) ) ) ) ) L L L L / / ....@.@.....] ] ) ) E E / / E E L L / / ] ] | | ] ] / / / / ) ) ] ] ] ] / / G G F F L L L L / / ] ] ] ] _ _ ) ) _ _ G G F F L L E E L L E E ) ) ) ) G G G G N N b b b b b b l l k k d d d d k k G G _ _ R R b b b b B B N N N B b b l l l l d d - - = = = = - - 3 3 d d l l k k d d 3 3 b l b b l b b b b b B B S S B B b b l l d d d d 3 3 < < - - p p c c B B b b j j d d d d j j l l b b l l d d l l b b B B B M S S j j w w d d l l l l j j j j j j c c b b b b M M D D L L F F B B b b b N b b l j b b D D L L B B c c d g p p 9 9 6 6 9 9 9 9 9 9 9 9 9 9 9 9 9 9 6 6 6 6 6 6 6 6 6 6 6 6 6 6 9 9 p p p p p p p p p p p p p p p p 9 9 6 6 6 6 6 6 6 6 4 4 , , , , , , , , ",
"D D S S S S D D D D D D D D D D D D D D D D D D J J J J J J U U U U I I I I I I I I I I I I U U J J J J J J J J J U U U J J Y Y I I Y Y Y Y Y Y Y Y Y Y Y Y Y Y Y Y Y Y Y Y Y Y Y Y Y Y Y Y I I I I U U D D D D D D D D D D D D D D D D J J I I Y Y Y Y Y Y Y Y Y Y Y Y I I I I I I U U U U D D D D D D D S S S S S S S S S D D U U U U I I I I I I Y I I I Y Y Y Y I I I I U U D D D D S D M M Z Z Z Z S S S S D D D D S S L L D D D D D D D D D D D D L L Y Y _ _ X.X.] ] / / ) ) _ ] ) ) G G E E E E E E E E L L D D D D D D L L D D B B S S L L R R / / _ _ ] ] ........] ] ) ) / / E E R R ) ) / / L L G G S S b b b b S S d d < < w w B B E E _ _ ] ] _ _ ........] ] ] ] _ _ _ _ X.X.X.X./ / G G L L / / R R N N p p 3 3 = = < < b b S S S S N N b b N N S S N N b b / / -.-.$.$.L L l l B B B B b b S S F F F F G G R R / / _ _ ] ] _ _ ) ) ) ) ) ) L L L L / / ....@.@.....] ] ) ) E E / / E E L L / / ] ] | | ] ] / / / / ) ) ] ] ] ] / / G G F F L L L L / / ] ] ] ] _ _ ) ) _ _ G G F F L L E E L L E E ) ) ) ) G G L G N N b b b b b b l l k k p d d d k k G G _ _ R R b b b b B B N N N N b b l l l l d d - - = = = = - - 3 3 d d l l d k d d 3 3 b l b b l l b b N b B B S S B B b b l l d d d d 3 0 < < - - p p c c B B b b j j d d d d j l l l b b l l d d l l b b B B M M S S j j w w d d l l l l j j j j j j l c b b b b M M D D L L F F B B b b b N b b l l b b D D L L B B c c d d p p 9 9 6 6 9 9 9 9 9 9 9 9 9 9 9 9 9 9 6 6 6 6 6 6 6 6 6 6 6 6 6 6 9 9 p p p p p p p p p p p p p p p p 9 9 6 6 6 6 6 6 6 6 4 4 , , , , , , , , ",
"S S Z Z Z Z Z Z S S S S S S S S S S S S S S S S D D D D D D J J I I I I I I Y Y I I I I I I I I U U U U J J J J U U U U D D I I U U I I I I Y Y Y Y Y I I I Y Y Y Y Y Y Y Y Y Y Y Y Y Y Y Y J J U U D D D D D D D D D D D D J J D D U U I I Y Y ~ ~ ~ ~ Y Y Y Y Y Y Y Y I I U U D D D D D D S S S S S S Z Z Z Z C C C C M C D D D D D D D D D J U U J J I I J J J J D D D D D D D D S S S S M M M M Z Z Z Z S S S S Z Z Z Z S S C C C C S S M M M M S S L L L L _ _ %.-.-.-._ _ E E ) ) X.X._ _ _ _ ] ] ] ] X.| / / Y Y Y Y S S M M S S L L G G S F F F F F L L R R / / E E L L R L L L G G F F L L G G S S S S F F G G L L L L B B d d d d b b S S S S S S b b S F G G G G F F b b l l b b w w w w d d k k l l d d d d b b p p < < d d b b S S R R / / F F R R / / L L b b N N / / E E b b w 0 b b b b b b b b N N N N N N l l S S G G F F N N b b d d 0 0 d d p p k k B B S S L L ) ) ....X.X.X.X.] ] ) ) ) ) ) ) L L B B S S B B S S G G L L E E / / _ _ %.%.] ] _ _ / / E E F F B B b b w w < < w w p p 3 3 p p l l d d k k b b b b d d d k d d p p d d b b d d 0 0 d d b b b b d d k k F F S S S S F F G G G G G G B B l l l l d d w w - - = = 3 3 l l b b B S l l - - & & = = < < l l b b d d 3 3 3 3 w w d d k k l l b b S S D D S S M M c c l l d d M M D D M M j j l l c c j j j j b b d d d d b b M M M M B B S S S S S S B B b b b b S S D D b b d d d d p p w w w w c c S S S S c c l l p p 6 6 4 4 6 6 6 6 6 6 6 6 6 6 6 6 6 6 6 6 6 6 6 6 6 6 6 6 6 6 4 4 6 6 6 6 6 6 6 6 6 6 6 6 6 6 6 6 6 6 6 6 6 6 6 6 6 6 6 6 4 4 , , , , , , , , , , ",
"S S Z Z Z Z Z Z S S S S S S S S S S S S S S S S S D D D D D J J I I I I I I Y Y I I I I I I I I U U U U J J J J U U U U D D U U U U I I I I Y Y Y Y Y Y I I Y I Y Y Y Y Y Y Y Y Y Y Y Y Y Y J J U U D D D D D D D D D D D D J D D D U U I I Y Y Y ~ ~ ~ Y Y Y Y Y Y Y Y I I U U D D D D D D S S S S S S Z Z Z Z C C C C M C D D D D D D D D D D U U J J I I J J U J D D D D D D D D S S S S M M M M Z Z Z Z S S S S Z Z Z Z S S C C S S S S M M M M S S L L L L ` ] %.%.-.-._ _ E E ) ) X.X._ _ _ _ _ ] ] ] | | / / Y Y Y Y S S M M S S L L G G S F F F F F G L L L / / E E L L R L L L G G F F L L G G S S S S F F G G L L L L B B d d d d b b S S S S S S b b S S G G G G F F b b l l b b w w w w d d l k k l d d k d b b p p < < d d b b S S R R / / F F R R / / L L b b N N / / E E b b w 0 b l b b b b b b N N N N N N l b S S G G F F N N b b d d 0 0 d d p p k k B B S S L L ) ) ....X.X.X.X.] ] ) ) ) ) ) ) L L B B S S B B S S G G L L E E / / _ _ %.%.] ] _ _ / / E E F F B B b b w w < < w w p p 3 3 p p l l d d k k b b b b d d d d d d p p d d b b d d 0 0 d d b b b b d d k k F F S S S S F F G G G G G G B B l l l l d d w w - - = = 3 3 l l b b B B l l < < & & = = < < k k b b d d 3 3 3 3 w w d p k k l l b b S S D D S S M M c b l l d d M M D D M M j j l l c c j j j j b b d d d d b b M M M M B B S S S S S S B B b b b b S S D D b b d d d d p p w w w w c c S S S S c c l l p p 6 6 4 4 6 6 6 6 6 6 6 6 6 6 6 6 6 6 6 6 6 6 6 6 6 6 6 6 6 6 4 4 6 6 6 6 6 6 6 6 6 6 6 6 6 6 6 6 6 6 6 6 6 6 6 6 6 6 6 6 4 4 , , , , , , , , , , ",
"Z Z M M M M Z Z Z Z Z Z Z Z M M M M M M C C Z Z Z Z S S S S S S D D D D D D J J J J D D D D D D D D D D D D D D D D D D D D U U D D U U I I I I I I I I J J U U I I I I I I I I I I I I I I U U U U D D J J D D D D D D D D I I I I I I I I Y Y Y Y Y Y Y Y Y Y Y Y I I J J D D D D S S Z Z M M M M M M M M Z Z M C M M M M D D S S D D D D D D J J U J J J S S S S S S Z Z S S Z Z M M M M Z Z M M M M M M Z Z S S S S S S M M S S S S S S M M M M S S L L ) ) / / ] ] #.#._ _ G D S S G G L L L L / / ] ] @.@.] ] / / ] ] ] ] / / / / / / / / ) ) / / S S G G L L L L G G G G G G F F S S ) ) _ _ / / G G F F G G / / ] ] ] ] / / G G S S B B b b b b l l l l F F E R L L b b = = # # < < S S L L / / L L l b < < w w b b L L F F L L / / R R R R R R G F R R L L L L L L F F S S d d & & < < k k b b b b b b l l k k k k N N k k 0 0 0 0 0 0 w 0 d k b b d d - - & & 0 0 l l F F R R E E S S _ _ #.#.] ] L L F F F F S S S S B B b b S S S S G G E E _ _ ] ] / / G G G G L L S S l l 3 3 & & & & < < d d d d p p w w - - 0 0 d d b b b b N N k k d d d d b b < < @ @ @ @ 0 0 b b S S F F G G B B b b B B S S S S S S B B b b b b b b l l < < = = d d L L ) ) L L b b - - O O & & d d R E L L N N d d d d l l l l d d p p c l M M S S D D L L L L D D B B Y Y ) ) G G j j b b b b c c M M p p d d l l l l l l B B S S b b S S B B l l d d w w l l l l 3 3 w w w w p p d d l l S S S S d d p p d d p p , , , , 4 4 6 6 6 6 6 6 6 6 6 6 6 6 6 6 6 6 6 6 6 6 6 6 4 4 , , , , 4 4 4 4 , , , , 4 4 4 4 6 6 6 6 6 6 6 6 6 6 6 6 4 4 , , , , , , , , , , , , ",
"Z Z M M M M Z Z Z Z Z Z Z Z M M M M M M Z C Z Z Z Z Z Z S S S S D D D D D D J J J J D D D D D D D D D D D D D D D D D D D D U J D D U U I I I I I I I I J J U U I I I I I I I I I I I I I I U U U U J J J J D D D D D D D D I I I I I I I I Y Y ~ Y Y Y Y Y Y Y Y Y I I J J D D D D S S Z Z M M M M M M M M M M M M M M M M D D S S D D D D D D J J J J J J S S S S S S Z Z S S Z Z M M M M Z Z M M M M M M Z Z S S S S S S M M S S S S S S M M M M S S L J ) ) / / ] ] #.#._ _ G D S S G G L L L L / / ] ] @.@.] ] / / ] ] ] ] / / / / / / / / ) ) / / S S G G L L L L G G G G G G F F S S ) ) _ _ / / G G F F G G / / ] ] ] ] / / G G S S B B b b b b l l l l F F L L L L b b = = # # < < S S L L / / L L l l < < w w b b L L F F L L / / R R R R R R G F R R L L L L L L F F S S d d & & < < k k b b b b b b l l k k k k N N k k 0 0 0 0 0 0 0 0 d d b b d d - - & & 0 0 l l F F R R E E S S ) _ #.#.] ] L L F F F F S S S S B B b b S S S S G G E E _ _ ] ] / / G G G G L L S S l l 3 3 & & & & < < d d p d p p w w - - 0 0 d d b b b N N N k k d d d d b b < < @ @ @ @ 0 0 b b S S F F G G B B b b B B S S S S S S B B b b b b b b l l < < = = d d L L ) ) L L b b - - O O & & d d E E L L N N d d d d l l l l d d p p c c M M S S D D L L L L D D B B Y Y ) ) G G j j b b b b c c M M p p d d l l l l l l B B S S b b S S B B l l d d w w l l l l 3 3 w w w w p p d d l l S S S S d d p p d d p p , , , , 4 4 6 6 6 6 6 6 6 6 6 6 6 6 6 6 6 6 6 6 6 6 6 6 4 4 , , , , 4 4 4 4 , , , , 4 4 4 6 6 6 6 6 6 6 6 6 6 6 6 6 4 4 , , , , , , , , , , , , ",
"C M M M M M M M M M M M M M M M M M M M M M C C C M M M M M M M M M M M C C Z Z S S D D D D S S S D D D D D D D D D D D D D S S D D D D D D U U U U D D J J U U J J D D D D U U U U I I I I J J D J D D D D D D D D D D D D D D D D D D D D J J I I U U U U U U D D D D S S Z Z Z S Z Z C C M M M M M M M M M M M M M M M M Z Z S S Z Z S S D D D D S S S S Z Z S S M C C C M M M M M M M M C C M M M C M M S S S S S S S S S S S S M M M M M M M M b b b b D D G G L L / / _ _ / / G G B B B B S S F F G G G G G G S S S S / / ] ] ] ] / / / / L L G G G G / / D D S S G G E E / / L L L L ] ] <.<.$.$.E E ) _ #.#.X.X.] ] / / / / G G B B B B S S S S S S B N G G ] ] @.@.L L 3 3 = = 3 3 L L _ _ X.X._ _ D G d d 6 6 j j B B S S S S F F L L E E L L G G S S F F L L E / G G B B d d = = = = ; ; < < w w 0 3 d d S S G G L L / / E E S S l l 3 3 0 3 l l < < & & - - d d d d b b S S B B d d d d b b S S F F G G L L L L S S S S S S G G E E / / G G S S d d w w p p l b N N l l d d d d d d < < - - 3 3 3 3 - - w w b b G G L L L L F F S S l l < < & & & & # # # # = = 3 3 p p k k b b b b S S b b l l b b b b k d l l d d d d 3 3 = = = = < < d d l l d d l l w w = = = = d d S S D D S S B B l l j j d d d d d p p p d d w w l j S S D D S S S S S S S S M M B B G G E E / / L L M M p p d d l l l l d d w w p p d d w w 3 3 w w l l b b j j d d l l b b l l d d k d l l b b d d - - & & , , 6 6 5 5 , , : : , , 6 6 4 4 4 4 4 4 6 6 6 6 4 4 4 4 4 4 4 4 4 4 , , , , 4 4 , , , , , , 4 4 4 4 4 4 4 4 6 6 6 6 4 4 , , , , , , , , : : : : * * * * ",
"M M M M M M M M M M M M M M M M M M M M M M C C M M M M M M M M M M M M C C Z Z S S D D D D S S S S D D D D D D D D D D D D S S D D D D D P U U U U D D D J U U D J D D D P U U I U U I I I J J J J D D D D D D D D D D D D D D D D D D D D J J I I U U U U U U J J D D S S Z Z Z Z Z Z C M M M M M M M M M M M M M M M M M Z Z S Z Z Z S S S D D D S S S S Z Z S S M C C M M M M M M M M M C C M M C C M M S S S S S S S S S D S S M M M M M M M M b b b b D D G G L L / / _ _ / / G G B B B B S S F F G G G G G G S S S S / / ] ] ] ] / / / / L L G G G G / / D D S S G G E E / / L L L L ] ] <.<.$.$.E E ) ) #.#.X.X.] ] / / / / G G B B B B S S S S S S B B G G ] ] @.@.L L 3 3 = = 3 3 L L _ _ X.X._ _ D D d d 3 0 j j B B S S S S F F L L E E L L G G S S F F L L E E G G B B d d = = = = ; ; < < w w 0 0 d d S S G G L L / / E E S S l l 3 3 3 3 l l < < & & - - d d d d b b S S B B d d d d b b S S F F G G L L L L S S S S S S G G E E / / G G S S d d w w p p l b N N l l d d d d d d < < - - 3 3 3 3 - - w w b b F F L L L L F F S S l l < < & & & & # # # # = = 3 3 p p k k b b b b S S b b l l b b b b d d l l d d d d 3 3 ; = = = < < d d l l d d l l w w = = = = d d S S D D S S B B l l j j d d d d d d p p d d w w l l S S D D S S S S S S S S M M B B G G E E / / L L M M p p d d l l l l d j w w p p d d w w 3 3 w w l l b b j j d d l l b b l l d d k k l l b b d d - - & & , , 6 6 5 5 , , : : , , 6 6 4 4 4 4 4 4 6 6 6 6 4 4 4 4 4 4 4 4 4 4 , , , , 4 4 , , , , , , 4 , 4 4 , 4 4 4 6 6 6 6 4 4 , , , , , , , , : : * * * * * * ",
"n n n n c c n n n n n n n n m m n m n M M M M M M M M M M M M M n n M M M M C C Z Z S S Z Z Z Z Z Z S S S S D S S S S S Z Z Z Z Z Z S S D D D D D D D D D D D D D D D D D D D D D D D D D D D D S S S S S S Z Z Z Z Z Z C Z Z C M M M M C C Z Z S S S S S S S S Z Z M M M M M M M M M M n n n n M M n n n n M M M M n n n n M M M M M M M M Z Z S Z S S Z Z M M M M M M M M M M M M M M n n M M M M M M M M C M C M M M M M M M M M M M M M n n c c c c c c c c b b b b b b L L ] ] _ _ G G / / R R L L G G G G G G D D G G G G G G D D D D G G F F B B B B L L G G S S F F _ _ -.-.-.-.#.#./ / ] ] ] ] _ _ ] ] ) ) / / _ _ L L S S d d d d b b S S S S B B S S G G E E ) ) / / S S d d < < d d j j l l c c b b d d - - - - - - 3 3 p p d d l l b b b b b b p p d d b b N N d d w w 3 3 < < & & & & & & & & & & 3 3 S S L L G G / / / / L L F F l l - - & & = = - - l l S S N N b b b b b b k k p p < < - - < < l l S S G G S S S S S S S S b b l l p p < < ; ; - - 3 3 l l b b b b l l b b b b d d 3 3 = = & & = = p p b b S S F F B B d d p p 3 3 - - = = = = = = & & & & & & = = ; ; - - < < 3 3 - ; = = 3 3 3 3 - - - - & = & & & & & & O O & & - - 3 3 < < p p p p < < 3 3 l l S S F F c c j j d d j j b b b b b b c l 6 6 6 6 d d j j j j c c c c j j b b l l c c S S L L Y Y L L S S p p d d l l l l l l d d l l b b d d w w d d B B G G S S b b l l b b d d w w w w w w p p w w < < , , - - * * * * - - , , 4 4 , , , , , , 4 4 4 4 4 4 4 4 , , , , , , , , , , , , , , , , , , : : , , , , , , , , 4 4 4 4 , , , , : : : : : : : * * * * * * * ",
"n n n n c c n n n n n n n n m m n n n M M M M M M M M M M M n M n n M M M M C M Z Z S S Z Z Z Z Z Z S S S S S S S S S S Z S Z Z Z Z S S D D D D D D J J J D D D D D D D D D D D D D D D D D D D S S S S S S S S Z Z Z Z C Z Z Z M M M M C C Z Z S S S S S S S S Z Z M M M M M M M M M M n n n n M M n n n n n M M M M n n n M M M M M M M M Z Z Z Z S S Z Z M M M M M M M M M M M M M M n n M M M M M M M M C M C M M M M M M M M M M M M M n n c c c c c c c c b b b b b b L L ] ] _ _ G G / / R R L L G G G G G G D D D D G G G G D D D D G G F F B B B B L L G G S S F F _ _ -.-.-.-.#.#./ / ] ] ] ] _ _ ] ] ) ) / / _ _ L L S S d d d d b b S S S S B B S S G G E E ) ) / / S S d d < < d d j j l l c c b b d d - - - - - - 3 3 p p d d l l b b b b b b p p d d b b b N d d w w 3 3 < < & & & & & & & & & & 3 3 S S L L G G / / / / L L F F l l - - & & = = - - l l S S N N b b b b b b d k p p < < - - < < l l S S G G S S S S S S S S N N l l p p < < ; - - - 3 3 l l b b b b l l b b b b d d 3 3 = ; & & = = p p b b S S F F B B d k p p 3 3 - - = = = = = = & & & & & & = = ; ; - - < < 3 3 - - = = 3 3 3 3 - - - - & & & & & & # # O O & & - - 3 3 < < p p p p < < 3 3 l l S S F F c c j j d d j j b b b b b b c l 6 6 6 6 d d j j j j c c c c j j b b l l c c S S L L Y Y L L S S p p d d l l l l l l d d l l b b d d w w d d B B G G S S b b l l b b d d w w w w w w p p w w < < , , - - * * * * - - , , 4 4 , , , , , , 4 4 4 4 4 4 4 4 , , , , , , , , , , , , , , , , , , : : , , , , , , 4 4 4 4 4 4 , , , , : : : : : : : * * * * * * * ",
"c c c c c c c c c c c c c c c c c c m n n n M M M M n n n n m m n n n n M M M M M M M M M M Z Z Z Z S S S S S S S S Z Z Z Z S S Z S S S S S D D D D D D D D D D D D S S S S S S S S Z S Z Z Z C M M M M M M M M M M M M M M n n n n n n M M M M M M M M n n n n n n c c c c n n n n m m c c n n n n n n m m m m n n n n n n M M M n n n M M M M M M M M M M M M M M M M M M n n n n n n M M M M M M M M M M M M M M M M M M M M M M M M M M c c c c l j j j j j j j w w 6 6 l l D D F F b b b b B B G G E E / / ) ) _ _ ] ] L L S S b b S S L L G G S S D D Y Y G G B B S S / / %.%.-.-.@.@.Y Y G G G G L L L L G G D D G G G G b b d d l l S S G G G G L L S S S S S S G G / / ) ) G G l l d d l l l l j j w w * * & & = = * * - - < , * * & & & = - - - - - - = = - - 6 6 w w 3 3 - - & & # # & & < < 3 3 & & & & < < 6 w l l B B b b k k d d w w ; ; & & p p d d l l l l p p 3 3 w w w w 3 3 w w w w 3 3 p p l l l l d d p p p p d d d d d d d d d d d d d d p p p p p p 3 3 - - - - 3 3 l k l l d d < < < < w w d d d d w w l l l l d d d d 3 3 - ; = = & & = = & & O O & & 3 3 d d d d d d 3 3 & & O O & & & & X X X X & & & & - - 3 3 - - & & & & = = w 6 j j b b l l l l M M S S B B l l d d w w p p l l c c l l d d 6 6 d d c c l l j j b b b b d d w w < < w w d d l l b b b b l l d d l l b b b b c b l l l l b b w w < < w w b b S S b b d d w w d d w w d d b b l l d d p p < < < < , , , , , , , , 4 4 4 4 , , , , , , , , , , , , , , , , , , , , , , , , , : : : : : : : : : , , , : , , , , , 4 , , , , , , * * * * * * * * * * * * * * ",
"c c c c c c c c c c c c c c c c c c m n n n M M M M n n n n m m n n n n n M M M M M M M M M Z Z Z Z S S S S S S S S Z Z M Z S S S S S S S S D D D D D D D D D D D D S S S S S S S S S S Z Z Z C M M M M M M M M M M M M M M n n M n n n n M M M M M M M n n n n n n c c c c n n m n m m c c n n n n n n m m m m m m n n n n M M n n n n M M M M M M M M M M M M M M M M M M n n n n n n M n M M M M M M M M M M M M M M M M M M M M M M M M c c c c l l j j j j j j w w 6 6 l l D G F F b b b b B B G G E E / / ) ) _ _ ] ] L L S S b b S S L L G G S S D D Y Y G G B B S S / / %.%.-.%.@.@.L Y G G G G L L L L G G D D G G G G b b d d l l S S G G G G L L S S S S S S G G / / ) ) G G l l d d l l l l j j w w * * & & = = * * - - < < * * & & = = - - - - - - = = - - 6 6 w w 3 3 - - & & # # & & < < 3 3 & & & & < < 6 6 l l B B b b k k d d w w ; ; & & p p d d l l l l p p 3 3 w w w w 3 3 w w w w 3 3 w p l l l l d d p p p p d d d d d d d d d d d d d d p p p p p p 3 3 - - - - 3 3 l l l l d d < < < < w w d d d d w w l l l l d d d d 3 3 - ; = = & & = = & & O O & & 3 3 d d d d d d 3 3 & & O O & & & & X X X X & & & & - - 3 3 - - & & & & = = 6 6 j j b b l l l l M M S S B B l l d d w w p p l l c c l l d d w 6 d d c c l l j j b b b b d d w w < < w w d d l l b b b b l l d d l l b b b b b c l l l l b b w w < < w w b b S S b b d d w w d d w w d d b b l l d d p p < < < < , , , , , , , , 4 4 4 4 , , , , , , , , , , , , , , , , , , , , , , , , , , : : : : : : : : , , : : , , , , , , , , , , , , * * * * * * * * * * * * * * ",
"c c c c c c c c c c c c c c c c c c m m n n n n n n m m c c c c c c m m n n M M M M M M M M S S S S D D D D D D S S Z Z M M S S Z S S S Z Z Z Z S S S S D S D D S S S S Z S Z Z Z Z M M M M Z Z M M M M M M M M M M M M M M M M M M n n n n M M M M n n n n m m c c c c c m c c n m m c c c c c c c c c c c c c c c c m m m n n n n m m n n n M M M M M M M M M n n n n c c c c c c n n n n n n n M M M M n M M M M M M M M M M M M M M n M c c c c l l j j j j d d j j c c b b c c S S G G G G G G F F S S S S G G ) ) @.@.) ) F F l b S S L L L L G G E E _ _ L L S S S S G G L L L L L L G G B B l l p p l l L L Y Y B B F F G G F F S S B B B B S S S S c c b b c c b b D D E E E E J J G G / / / / S S p p & & - - l l S S B B d d - - # # # # = & - - = = & & < < b b G G G G B B w w X X # # < , 3 3 - - < < d d l l b b B B l l 3 3 3 3 d d b b S S d d p p 3 3 - - & & @ @ & & & & d d b b S S S S S S F F B B p p d d p p 3 3 w w d d b b B B S S S S B B b b l l w w = = @ @ O O & & = = < < w w l l b b l l p p < < l l b b b b S S b b d d p p 3 3 w w - - O O O O p p b b B B b b d d - - = = - - 3 3 < < < < < < p p b b F G S S d d - - , , l l M M S S M M b b b b l l d d p p w w < < < < w w d d d d d d l l B B G G G G S S B B b b j l , - - - w w l l j j j j l l j j d d l l b b M M b c d d p p p p < < - - < < d d d d 0 0 0 0 d d < < ; ; < < d d p p 3 3 - - - - = = < < p p p p 6 6 , , : : , , , , , , , , , , , , , , , , , , - - - - - - : : * * * * * * * * - - : : * * - - , , - - , , : : * * * * * * * * * * * * * * ",
"c c c c c c c c c c c c c c c c c c m m n n n n n n m m c c c c c c m m n n M M M M M M M M S S S S D D D D D D S S Z Z M M S S Z S S S Z Z Z Z S S S S D D D D S S S S Z Z Z Z Z Z M M M M C Z M M M M M M M M M M M M M M M M M M n n n n M M M M n M n n m m c c c c m m c c n n c c c c c c c c c c c c m m c c c m m m n n n n n m n n n n M M M M M M M M n M n n c c c c c c n n n n n n n M M M n n M M M M M M M M M M M M M M M M c c c c l l j j j j d d j j c c b b l c S S G G G G G G F F S S S S G G ) ) @.@.) ) F F l l S S L L L L G G E E _ _ L L S S S S G G L L L L L L G G B B l l p p l l L L Y Y B B F F G G F F S S B B B B S S S S c c b b c c b b D D E E E E G J G G / / / / S S p p & & - - l l S S B B d d - - # # # # = = - - = = & & < < b b G G G G B B w w X X # # , , 3 3 - - , < d d l l b b B B l l 3 3 3 3 d d b b S S d d p p 3 3 - - & & @ @ & & & & d d b b S S S S S S F F B B p p d d p p 3 3 w w d d b b B B S S S S B B b b l l w w = = @ @ O O & & = = < < w w l l b b l l p p < < l l b b b b S S b b d d p p < < w w - - O O O O p p b b B B b b d d - - = = - - 3 3 < < < < < < p p b b F F S S d d - - , , l l M M S S M M b b b b l l d d p p w w < < < < w w d d d d d d l l B B G G G G S S B B b b j l , - - - w w l l j j j j l l j j d d l l b b M M b b d d p p p p < < - - < < d d d d 0 w 0 0 d d < < ; ; < < d d p p 3 3 - - - - = = < < p p p p 6 6 , , : : , , , , , , , , , , , , , , , , , , - - - - - - : : * * * * * * * * - - : : * * - - , , - - , , : : * * * * * * * * * * * * * * ",
"c c c c c c c c c c c c c c n n n n M M M M n n n n c c c c c c c c n n n n n n M M M M M M S S S S S S S S D D S S C C M M M M M M M M n M M M M M M M M M S S Z Z S S S S S S S S M M M M S S M M M M M M M M M M M M M M M M M M M M M M M M M M n M n n n n c n c c c c c c m n c c c c c c c c c c c c c c n m c c c c n n n n c c c n n n n n M M M M n n c c c c c c c c c c c c c c n n c c c c n n n n n n M M M M n n n n n n n n c c c c j j j j M M M M B B M M l l d d b b G G L L S S b b k k b b S S F F G G G G b b p p l l F F S S B B G G / / E E L L L L D D S S F F G G S S S S c c 3 3 d d L L ) ) G G E E ] ] ] ] R L S S B B M M l l d d d d p p d d c c b b M M S S S S L L L L S S M M j j c c D G _ _ Y Y S S l l w w w w d d l l p p d d B B G G G G D D M M p p O O - * c c F F F F G G E E / / G G L L F F B B S S F F S S S S S S c c w w = = & & = = p p b b G G L L G D M M B B F F F F b b b b b b b b l l b b b b S S F F l l N N F F L L F F l l < < & & O O & & 3 3 d d b b b b S S S S b b B B B B B B G G G G F F F F G G G L b b - - # # < < d d k d B B l l d d d d d d d d d d d d w w d d B B L L G G b b d d d d d d c c b b d d p p w w 6 3 < < < < 3 3 3 3 < < w w l l S S F F S S S S G G G G M M d d w w w w < < 3 3 l l B B b b c c b b l l d d d d l l l l j l p p p p d d d d < < ; ; < < w w d d k k N N d d & & O O O O O O & & - - w w - - 6 6 j j j j 6 6 - - * * - - - - - - , , , , , , , , - - - - * * * * * * * * * * * * * * * * * * * * * * * * * * * * * * * * * * = * * * * * * * & & & & ",
"c c c c c c c c c c c c c c n n n n M M M M n n n n c c c c c c c c c n n n n n M M M M M M S S S S S S S S D D S S C M M M M M M M M M M M M M M M M M M M S S Z Z S Z S S S S S S M M M M S S M M M M M M M M M M M M M M M M M M M M M M M M M M n n n n n n c c c c n c n n m c c c c c c c c c c c c c c c n n c c c c n n n n m m c c n n n n M M M M n n c c c c c c c c c c c c c c n n c c c c n n n n n n M n M M n n n n n n n n c c c c j j j j M M M M B B M M l l j d b b G G L L S S b b k k b b S S F F G G G G b b p p l l F F S S B B G G / / E E L L L L G D S S F F G G S S S S c c 3 3 d d L L ) ) G G E E ] ] ] ] R E S S B B M M l l d d d d p p d d c c b b M M S S S S L L L L S S M M j j c c D G _ _ Y Y S S l l w w w w d d l l p p d d B B G G G G D D b b p p O O - * c c F F F F G G E E / / G G L L F F B B S S F F S S S S S S c c w w = = & & = = p p b b G G L L G G B M B B F F F F b b b b b b b b l l l l b b S S F F l l N N F F L L F F l l < < & & O O & & 3 3 d d b b b b S S S S b b B B B B B B G G G G F F F F G G G G b b - - # # < < d d k d B B l l d d d d d d d d d d d d w w d d B B L L G G b b d d d d d d c c b b d d p p w w 6 6 < < < < 3 3 3 3 < < w w l l S S F F S S S S G G G G M M d d w w w w < < 3 3 l l B B b b c c b b l l d d d d l l l l j j p p p p d d d d < < - - < < w w d d l k N N d d & & O O O O O O & & - - w w - - 6 6 j j j j 6 6 - - * * - - - - - - , , , , , , , , - - - - * * * * * * * * * * * * * * * * * * * * * * * * * * * * * * * * * * = = * * * * * * & & & & ",
"j j j j j j c c c c c c c c n n M M n n n n c c c c c c c c c c c c c c n n n n M M M M M M M M M M C C S C M M M M M M n n n n n n n n c c n n M M M M M M M C M M M M M M S C C C M M M M M M M M M M n n M M M M M M M M M M M M M n M M n n n n n n c n c c c c c c c c c c c c j j j j g g g g j j c c j j c c c c c c c c c c c c c c c c c c c c n n c c c c c c j j c c c c c c c c c c c c c c c c c c c c c c c c c c c c c c c c j j j j j j j j G G L L S S d d w w j l k k 3 3 < < & & & & d d F F R R G G N N b b d d w w l l S S D D B B B B B B L L E E D D S S L L E E L L G G Y Y G G b b d d b b M M M M L L ] ] ] ] / / E E _ _ ) ) G G b b j j j j n b M M j j w w p p w w j j l l c c M M b M M M D D / / L L S S M N b b l l l l b b S S S S S S b b l l l l p p & & = = w w S S E E E E L L L L G G G G F F B B B B G D S S d d < < p p d d 0 0 = = # # O O - - b b S S F F F F b b b b B B b b l l d d b b F F S S b b k k b b S S l k b b F S G G S S l l < < & & O O - - p p d d 3 3 - - < < p p b b b b l l l l S S S S S S S S b b b b d d < < = = < < d d l l b b l l b b M M l l w w < < - - w w p w d d c c b b d d p p d d w w w w 3 0 < , - - < < 6 w w w k k c c b b l l l l B B G G Y Y M M l l b b b b d d < < 6 6 p p l l l l B B D D B B l l l l d d w w w w w w w w p p d d l l B B l l - - O O # # - - 0 0 d d k k k k ; ; O O O O @ # - - d d b b p p p p p p p p w w 6 6 , , * * * * * * * * - - - - * * * * * * * * * * * * * * * * * * * * * * * * * * & & & & * * * * * * * * * * * * * * & & & & & & & & ",
"j j j j j j c c c c c c c c n n n n n n n n c c c c c c c c c c c c c c n n n n M M M M M M M M M M C C S C M M M M M M n n n n n n n n c c n n M M M M M M M M M M M M M M C C C C M M M M M M M M M M n n M M M M M M M M M M M M M M M M n n n n n n c n c c c c c c c c c c c c j j j j g g g g j j j j j j c c c c c c c c c c c c c c c c c c c c n n c c c c c c j j c c c c c c c c c c c c c c c c c c c c c c c c c c c c c c c c j j j j j j j j G G L L S S d d w w j j k k < 3 < < & & & & d d F F R E G G b b b b d d w w l l S S D D B B B B B B L L E E D D S S L L E E L L G G Y Y G G b b d d c b M M M M L L ] ] ] ] / / E E _ _ ) ) G G b b j j j j n n M M j j w w w w w w j j l l c c M M b b M M D D / / L L S S M M b b l l l l c c S S S S S S b b l l l l p p & & = = w w S S E E E E L L L L G G G G F F B B B B G G S S d d < < p p d d 0 0 = = # # O O - - b b S S F F F F b b b b B B b b l l d d b b F F S S b b k l b b S S l l b b S S G G S S l l < < & & O O - - p p d d 3 3 - - < < p p b b b b l l l l S S S S S S S S b b b b d d < < = = < < d d l l b b l l b b M M l l w w < < - - w w p p d d c c b b d j p p d d w w w w 3 3 < , - - < < 6 w w w k k c c b c l l l l B B G G Y Y M M l l b b b b d d < < 6 6 p p l l l l B B D D B B l l l l d d w w w w w w w w p p d d l l B B l l - - O O # # - - 3 0 d d k k k k ; ; O O O O @ @ - - d d b b p p p p p p p p w w 6 6 , , * * * * * * * * - - - - * * * * * * * * * * * * * * * * * * * * * * * * * * & & & & * * * * * * * * * * * * * * & & & & & & & & ",
"g g g g g g j j c c j j c j n n n n n c c c c c c c c c c c c c c c c c c c c c n n M M n n n n M M M M M M M M n n n n c c c n n c c c n n n M M M M M S S M M M M M M M M M M M M n n c c c c c c c c c c n c n n n n n n M n c c c c n n c c c c c c c c c c c c j j j j j j j j j j g g g g g g g g g g g g g g j j j j c c c c j j c j c c c c c c j j g g g g g g g g j j j j j j j j j j j j j j j j c j c c c c c c j j c c c c j j g g d d j j j j S S L L S S l l b b L L G G d d < < # # O O < < B B L L F F N N p p p p 3 3 d d D D E E L L S S l l S S S S l b b b G G G L S S L L _ _ ) ) G G S S b b d d l l b b G G G G S S G G _ _ ] ] / / S S S S D D L L L L M M j j d d 6 6 d d j j j j j j d d j j M M S S b b l l l l l l d d d d d d b M M M b b l l B M L L G G d d , , - - - - < < 3 3 d d b b B B B B b b d d d d l l p p - - < < 3 3 b b S S S S S S p p = = ; = < < d d b b b b b b l l d d 0 0 k l B B S S S S l l w w w w p p l l b b l l d d < < & & & & & & p p b b S S N N l l d d 3 3 = = - - < < 3 3 p p l l l l w w w p & & # # # # & & = = - - l l F F c c d d l l B B l l d d w w < < w w < < , , < < w w w w w w 3 3 < < < < < < < , < < p p l l c c S S F F S S M M b b B B S S S S j j d d l k l l d d k d b b B B G G S S S S G G N B k k d d p p 3 3 < < < < 0 3 w w p p l l b b l l - - O O O O @ @ & & & & < < d d 0 0 < < < < < - 3 3 p p 3 3 w w p p p p p p w w < < , , * * * * * * * * * * * * * * * * * * * * * * * * * * * * * * * & & & * * & & & & & & & & * * * * * * * * * * * * * * & & & & & & ",
"g g g g g g j j c c c j c j n n n n c c c c c c c c c c c c c c c c c c c c c c n n M M n n n n M M M M M M M M n n n n c c c c n c c c n n M M M M M M S S M M M M M M M M M M M M n n c c c c c c c c c c n n n n n n n n M M c c c c n n c c c c c c c c c c c c j j j j j j j j j j g g g g g g g g g g g g g g j j j j c c c c j j c c c c c c c c c j g g g g g g g g j j j j j j j j j j j j j j j j c c c c c c c c g g c c c c j j g g d d j j j j S S L L S S l l b b L L G G d d < < # @ O O < < B B L L F F N N p p p p 3 3 d d D D E E L L S S l l S S S S l l b b G G G L S S L L _ _ ) ) G G S S b b d d l l b b G G G G S S G G _ _ ] ] / / S S S S D D Y Y L L B M j j d d 6 6 d d j j j j j j d d j j M M S S b b l l l l l l d d d d d d b b M M b b l l B B L L G G d d , , - - - - < < 3 3 d d b b B B B B l l d d d d k l p p - - < < 3 3 b b S S S S S S p p = = ; = < < d d b b b b b b l l d d 0 0 k l B B S S S S l l w w w w p p l l b b l l d d < < & & & & & & p p b b S S N N l l d d 3 3 = = - - < < 3 3 p p l l l l w w w w & & # # # # & & = = - - l l F F c c d d l l B B l l d d w w < < w w < < , - < < w w w w w w 3 3 < < < < < < < < < < p p l l c c S S F F S S M M b b B B S S S S k d d d l l l l d d k k b b B B G G S S S S G G N B k k d d p p 3 3 < < < < w 3 w w p p l l b b l l - - O O O O @ @ & & & & < < d d 0 0 < < < < < < 3 3 p p 3 3 w w p p p p p p w w < < , , * * * * * * * * * * * * * * * * * * * * * * * * * * * * * * * = & & * * & & & & & & & & * * * * * * * * * * * * * * & & & & & & ",
"p p p p p p j j j j j j j j c c c c c c j j j j c c c c c c c c c c c c c c c c c c c c c c n n n n n n n n n n n n n n c c c c n n c c c c n n n n M M M M M n M M n n M M M M n n c c c c c c c c c c c c c c n c c c c n n c c c c c c c c c c c c c c c c c c c j j g g g g g g j j g g g g g g g g g g p p g p p p g g g g g g g g j j j j j j g g g p p p p p p p g g g g g g g g g g g g g g g g g g g g j g j j j j g g j j j j j j g g d d j j c c M M S S S S F F L L / / L L B B 0 0 < < 0 0 l l S S S S l l d d - - - - & & - = b b / / Y Y S S N M c c d d d d l l b b M M b b G G _ _ _ _ E E _ _ _ _ L L G G b b S S S S b b b b G G Y Y E E D D L L / / ) ) E E G G D D D D b n c c w w 6 6 p p d d d p l l j j p p w w p p p p p p d d l l d d S B G G S F S S L L L L B B l l w w < < - - - - < < p p w w d d p p 3 3 - - & & O O & & p p b b b b k k d d b b d d = = & & & & = = < < 3 3 w 0 w w d d k k d d d d d d d d d d k k d d d d < < w w w w - - & & # # & & - - p p d d p p - - p p l l w w X X O O & & = = < < p p 0 0 - - < < d d 3 3 - - 3 3 0 0 0 0 b b E E E E S S S S S S l l p p p p < < - - * * = = - - < < p p p p 3 3 3 3 3 3 3 3 3 3 w w j l b b B B c c B B B B b b b b B M b b d d d d l l b b b b b b S S G G D D B B l l l l l l d d w w 6 6 6 6 6 6 6 6 6 6 p p w w 6 6 w w p p d d p p w 6 < < & = # # - - d d S S B B S S b b d d 3 6 - - & & & & , , d d p p , , & & & & * * * * * * * * * * * * * * * * * * * * * * * * * * * * * = = = & * & & & & & & & & & & & & & & & & & & & & & & * * * * * * * * ",
"p g p p p p j j j j j j j j c c c c c c j j j j c c c c c c c c c c c c c c c c c c c c c c n n n n n n n n M M n n n n c c c c n n c c c n n n n n M M M M M M M M n n M M M M n n c c c c c c c c c c c c c c n c c c n n c c c c c c c c c c c c c c c c c c c c j j g g g g j g d d g g g g g g g g g g p p p p p p g g g g g g g g j j j j j j g g p p p p g g p p g g g g g g g g g g g g g g g g g g g g g g j j j j g g j j j j j j g g d d j j c c M M S S S S F F L L / / L L B B 0 w < < 0 0 l l S S S S l l d d - - - - & & - - b b / / Y Y S S N b c c d d d d l l b b M M b b G G _ _ _ _ E E _ _ _ _ L L G G b b S S S S b b b b G G Y Y E E D D L L / / ) ) E E G G D D D D n n c c w w 6 6 p p d d d d l l j j p p w w p p p p p p d d l l d d S S G G S S S S L L L L B B l l w w < < - - - - < < p p w w d d p p 3 3 - - & & O O & & p p b b b b d k d d b b d d = = & & & & = = < < 3 3 w w w w d d k k d d d d d d d d d d k k d d d d < < w w w w - - & & # # & & - - p p d d p p - - p p l l w w X X O O & & = = < < p p 0 0 - - < < d d 3 3 - - 3 3 0 0 0 3 b b E / E E S S S S S S l l p p p p < < - - * * = = * - < < p p p p 3 3 3 3 3 3 3 3 3 3 w w j j b b B B c c B B B B b b b b M M b b j d d d l l b b b b b b S S G G D D B B l l l l l l d d w w 6 6 6 3 6 6 6 6 6 6 p p w w 6 6 w w p p d d p p w 6 < < & = # # - - d d S S B B B S b b d d 6 6 - - & & & & , , d d p p , , & & & & * * * * * * * * * * * * * * * * * * * * * * * * * * * * * = = = & & & & & & & & & & & & & & & & & & & & & & & & * * * * * * * * ",
"p p p p p p j j j j c c c c c c n n c c c c j j g g j j c c c c c c c c n n n n M M M M M M M M M M M M n n c c c c c c c c c c c c c c c c M M M M n M c c c c c c c c n n M M M M n c c c c c c c c c c c j j j j c c c c c c c c c c c c c c c c c c c c c c j j j j j j g g p p p p p p p p p p g g p p p p p p p p p p j j g g p p p p g g g g p p p p 9 9 9 9 9 9 9 9 p p p p p p g g g g g g g g g g g g g g g g g g p p d d d d d d d d j j j j j j p p M B L L L L M M j j j j c c b b S S G G G G / / _ _ D D < < & & - - d d M M D D D D S S M M l l l l c c c c c c b b b b c b S S S S S S S S D D Y Y ) ) | | / / Y Y L L G G D D D D D D D D J J D D D D D D J J J J D D S S M M c c j j d d p p p p p p p p p p 6 6 , , , , , , , , 6 6 j j d d B B S S S S Y Y | | _ _ G G l l l l l l l l B B S S b b d d w w l l b b p p = = & & = = - - < < < < = = O O O O O O & & < - - - ; ; - - < < - - & & ; - d d d d d d d d d d d d k k d d d d # # & & - - < < < < - - = = = = O O O O O O O O = = - - & & & & = = & & - - w w p p w w d d b b S S b b b b l l d d d d b b S S L L B B d d d d d d w w < < < < - - , , w w d d d d w w < < , , 6 6 6 6 6 6 6 6 6 6 6 w p p p p p p p p w w p p j j c c M M M M M M c c l l j j j j j j j j j j w w 6 6 6 6 6 6 r r p p p p p p p p r r 6 6 6 6 r 6 6 6 6 6 < < p p p p p p 6 6 5 5 , , , , < < j j d d w w 6 6 6 6 6 6 < < , , < < , , , , , , - - - - * * * * * * = * * * * & * * * * * * * * * * * * * * * * * * * * * * * * & & & & & & & & & & & & & & & & & & & & * * * * = = = * * * ",
"p p p p p p j j j j c c c c c c n n n n c c j j g g j j c c c c c c c c n n n n M M M M M M M M M M M M n n c c c c c c c c c c c c c c c c M M M M n n c c c c c c c c n n M M M M c c c c c c c c c c c c j j j j c c c c c c c c c c c c c c c c c c c c c c j j j j j j g g p p p p p p p p p p g g p p p p p p p p p p j j g g p p p p g g g g p p p p 9 9 9 9 9 9 9 9 p p p p p p g g g g g g g g g g g g g g g g g g p p d d d d d d d d j j j j j j p p B B L L L L M M j j j j c c b b S S G G G G / / _ _ D D < < & & - - d d M M D D D D S S M M l l l l c c c c c c b b b b b b S S S S S S S S D D Y Y ) ) | | / / Y Y L L G G D D D D D D D D J J D D D D D D J J J J D D S S M M c c j j d d p p p p p p p p p p 6 6 , , , , , , , , 6 6 j j d d B B S S S S Y Y | | _ _ G D l l l l l l l l B B S S b b d d w w l l b b p p = = & & = = - - < < < < = = O O O O O O & & - - - - = ; - - < < - - & & ; - d d d d d d d d d d d d k k d d d d # # & & - - < < < < - - = = = = O O O @ O O O O = = - - & & & = = & & & - - w w p p w w d d b b B B b b b b l l d d d d b b S S L L B B d d d d d d w w < < < < - - , , w w d d d d w w < < , , 6 6 6 6 6 6 6 6 6 6 6 6 p p p p p p p p w w p p j j c c M M M M M b c c l l j j j j j j j j j j w w 6 6 6 6 6 6 r r p p p p p p p p r r 6 6 6 6 6 6 6 6 6 6 < < p p p p p p 6 6 < 5 , , , , < 5 j j d d w w 6 6 6 6 6 6 < < , , < < , , , , , , - - - - * * * * * * = * * * * & * * * * * * * * * * * * * * & * * * * * * * * * & & & & & & & & & & & & & & & & & & & & & * * * * * = = * * ",
"p p p p g g j j j j j j c c c c c c c c c c j j g g g j j c n c c c c c n n n n M M M M M M M M M M M M M M M M n n n n M M c c c c c c c c n n n n n n c c x j c c c c c c c n c c c c c c c c c j j j j j j j j j c c c c j j j j c c c c c c c c c c c c j j j j j j j j g g g g g g g g g g g g g g g g g g g g g g g g j j g g p p p p p p g g p p p p p p p p p p p p p p p p p p p p g g g g p p p p p p p p p p g p p p p p p p p p p p d d d d d d w w l c M M M M c c d d j j j j M M D D D D D D L L E E D D j j p d j j c c M M B B M M c c j j c c c c c c b b M M M M M M M M c c c c c c c c c c M M S S D D M M M M M M C C S S D D L L L L D D S S n n c c j j c c c c c c j j d d p p p p d d j j j j j j j j c c M M b b c c l l j j p p 6 6 d d l l c c S S G G G G b b d d j j d d d d c c B B S S M M l l w w = = & & & & - - = = & & 3 3 3 3 - - - - < < 0 0 - - - - = & & & & & & & & & # # - - d d p p k k d d d d d d k k d d 3 3 & & & & & & & & & & & & & & & & - - - - = = - - w w 3 3 = = & & - - = = = = = = = = - - p p b b l l d d w w w w 0 3 0 0 p d d d b b p p 3 3 0 3 3 3 - - - - - - p p p p p p d d j j d d p p w w 6 6 6 6 6 6 6 6 6 6 w w r r p p 6 6 < < , , < < w w p p d d d d d d p p 6 6 6 6 6 6 6 6 9 9 9 9 9 9 6 6 6 6 6 6 6 6 9 9 9 9 6 6 9 9 6 6 6 6 6 6 6 6 6 6 4 4 , , , , , , , , , , : : * * * * - - , , - - * * * * - - - - - - * * * * * * * * * * * * & & & & & & * * = = * * * * * * * * * * * * * * * & * * & = * * * * * * * * & & & & & & & & & & & & & & & & * * * * * * * * * * & & * * ",
"p p p p g g j j j j j j c c c c c c c c c c j j g g g j j c c c c c c c n n M M M M M M M M M M M M M M M M M M n n n n M M c c c c c c c c n n n n n n c c j j c c c c c c c n c c c c c c c c j j j j j j j j j j c c c c j j j j c c c c c c c c c c c c j j j j j j j j g g g g g g g g g g g g g g g g g g g g g g g g j j g g p p p p p p g g p p p p p p p p p p p p p p p p p p p p g g g g p p p p p p p p p p p p p p p p p p p p p p d d d d d d w w l c M M M M c c d d j j j j M M D D D D D D L L E E D D j j p p j j c c M M B B M M c c j j c c c c c c b b M M M M M M M M n n c c c c c c c c M M S S D D M M M M M M M C S S D D L L L L D D S S n n c c j j c c c c c c j j d d p p p p d d j j j j j j j j c b M M b b c c l l j j p p 6 6 d d l l c c S S G G G G b b d d j j d d d d c c B B S S M M l l w w = = & & & & - - = = & & 3 3 3 3 - - - - < < 0 0 < - - - = & & & & & & & & & # # - - d d p p k d d d d p d d k k d d 3 0 & & & & & & & & & & & & & & & & - - - - = = - - w w 3 3 = = & & - - = = = = = = = = - - p p b b l l d d w w w w 0 0 0 0 d d d d b b p p 3 3 3 3 3 3 - - - - - - p p p p p p d d j j d d p p w w 6 6 6 6 6 6 6 6 6 6 w w w w p p 6 6 < < , , < < w w p p d d d d d d p p 6 6 6 6 6 6 6 6 9 9 9 9 9 9 6 6 6 6 6 6 6 6 9 9 9 9 6 6 9 9 6 6 6 6 6 6 6 6 6 6 4 4 , , , , , , , , , , : : * * * * - - , , - - * * * * - - - - - - * * * * * * * * * * * * & & & & & & * * * = * * * * * * * * * * * * * * & & = = = = * * = = * * * * & & & & & & & & & & & & & & & & * * * * * * * * * * & & * * ",
"g g g g g g c c c c c c c c c c c c c c c c j j j j j j j j c c c c c c c c c c n n n n M M c c c c c c c c c c c c c c c c c c c c c c c c c c c c c c c c j j c c c c c c c c c c j j j j g g j j j j j j j j c c c c c c j j j j c c c c c c c c c j j j j j j j j j g g j j j j j j j j j j j j j j j j j j j j j j j j j j g g p p p p g g p p p p p p p p p p p p p p p p p p g g g g p p p p p p p p p p p p p p p p p p p p p p p p p p p p p p p p p p p p p p d d d d p p p p p p p p j j j j j j j j j j j j p p j j l j j j l l j j j j j j d d l l l l c c c c b b M M M M M M c c c c c c j j j j c c c c c c j j j j j j c c n n M M S S S S M M c c p p 6 6 9 9 p p d g j j d d d d d d j j j j j j j j j j b b S S D D M M c c M M c c p p 3 3 w w d d l l l l d d d d p p d d d d d d d d l l M M S S G G b b - - . .     & & 3 3 3 3 - - 3 3 0 0 - - & & & & & & # # # # O O O O X X X X X X O O & & - - p p l l l l d d d d l l d d - - # # O O X X X X X X O O O O O O @ @ # # O O O O = = - - - - - - 3 3 - - O O     X X & & d d N b b b l l d d d d d d d d p p p p 3 3 3 3 w w d d p p 3 3 < < w w d d p p 6 6 w w d d l l j j p p r w w w 6 w 6 6 5 5 6 6 3 3 3 3 < < , , , , , , < < 6 6 6 6 < < 6 6 4 4 , , , , , , 4 4 4 4 4 4 9 9 6 6 6 6 6 6 6 6 6 6 6 6 6 6 6 6 4 4 , , 6 5 5 5 , 4 , , , : * * * * * * * * * * * * * * - - * * & & & & & & * * * * * * & & & & & & & & & & * * * * * * * * = * * & & & = = = & * * * * * * * * & * * * & * * * = = & & * * & & & & & & & & & * & & & & & & * * & & & * * * * * * * * * ",
"g g g g g g c c c c c c c c c c c c c c c c j j j j j j j j c c c c c c c c c c c c n n n M c c c c c c c c c c c c c c c c c c c c c c c c c c c c c c c c c c c c c c c c c c c c j j j j g g j j j j j j j j c c c c c c j j j j c c c c c c c c c j j j j j j j j j g g j j j j j j j j j j j j j j j j j j j j j j j j j j g g p p p p g g p p p g p p p p p p p p p p p p p p g g p g p p p p p p p p p p p p p p p p p p p p p p p p p p p p p p p p p p p p p p d d d d p p p p p p p p j j j j j j j j j j j j p p j j l l j j l l j j j j j j d d l l l l c c c c b b M M M M M M c c c c c c c j j j c c c c c c j j j j j j c c n n M M S S S C M M c c p p 6 6 9 9 p p g g j j d d d d d d j j j j j j j j j j b b S S D D M M c c M M c c p p 3 3 w w d d l l l l d d d d p d d d d d d d d d l l M M S S G G b b - - . .     & & 0 0 3 3 - - 3 3 0 0 - - & & & & & & # # # # O O O O X X X X X X O O & & - - p p l l l l d d d d l l d d - - # # O O X X X X X X O O @ @ O O @ @ # # O O O O = = - - - - - - 3 3 - - O O     X X & = d d b b b b k k d d d d d d p d p p p p 3 3 3 3 w w d d p p 3 3 < < w w d d p p 6 6 w w d d l l j j p p w w w w 6 6 6 6 5 5 6 6 3 3 6 6 < < , , , , , , < < 6 6 6 6 < < 6 6 4 4 , , , , , , 4 4 4 4 4 4 9 6 6 6 6 6 6 6 6 6 6 6 6 6 6 6 6 6 4 4 , , 5 5 4 5 4 4 , , , : * * * * * * * * * * * * * * - - * * & & & & & & * * * * * * & & & & & & & & & & * * * * * * * * = = * & & & = = = * * * * * * * * * & = * * & * * * = = & & * * & & & & & & & & & * & & & & & & * * & = = = * * * * * * * * ",
"j j g g j j c c c c c c c c c c c c c c c c c c c c j j j j c c c c c c c c c c c c c c c c j j j j j j g g j j j j j j c c c c c c c c c c c c c c c c c c c c c c c c c c c c c c c c j j j j j j j j c c c c c c c c c c c c c c c c c c c c c c j j j j j j j j j j j j j j j j j j c c j j j j j j j j j j j j j j j j j j j j g g g g g g g g g g p p j j g g g g g g p p p p p p p p p p y y p p p p p p p p p p p p p p d d d d p p p p p p p p p p j j p p p p p p p p p p p p 6 6 p p p p p p p p 6 6 6 6 p p p p p p w w w w p p p p p p d j j j j j j j j j j j c c c c c c c c c c c c c c n n c c n n c c c n j j j j j j j j j j j j j j g g p p p p p p p p p p j j j j j j j j d d d d j j j j j j j j j j n b M M b b p p 6 6 p p d d p p p p p p d d l l d j w w 3 3 w w d d d d d d j l l l b b B B S S b b < - O O O X # # = = - - - - O O = = & & O O O O X X X X X X X X X X             X X # # & & w w d d d d d d d d d d w w - - O O X X             X X O O O O     O O O O O O @ # # # @ @ & & = = = = + # X X X O - - l l b b d d d d d d d d d d p p w w 3 3 - - - - 3 3 p p w w < < , , < < < < - - & & - - 6 6 d d p p 6 6 w 6 6 6 6 6 < < , , , , , - - - < < , , , , , , , , , , , , : - 4 4 , , , , , , 4 4 4 4 4 4 4 4 6 6 4 4 4 4 6 6 6 6 6 6 6 6 , , , , , , , , , , , , , , , , : : * * * * * * : : : : : : : : , , , - - - * * * * * * * * * * * * * * * * * * * * * * * * * * * * * * * * & & = = * * * * * * * * * * * * * * * * * * * * & * * * & & & & & & & & & * & & & & & & * * * = * * = * * * * * * * ",
"j j j j j j c c c c c c c c c c c c c c c c c c c j j j j j c c c c c c c c c c c c c c c c c c j j j j g g j j j j j j j c c c c c c c c c c c c c c c c c c c c c c c c c c c c c c c j j j j j j j j c c c c c c c c c c c c c c c c c c c c c c j c j j j j j j j j j j j j j j j j c c j j j j j j j j j j j j j j j j j j j j g g g g g g g g p p p p j j g g g g p g p p p p p p p p p p y y p p p p p p p p p p p p p p p d d d p p p p p p p p p p j j p p p p p p p p p p p p 6 6 p p p p p p p p 6 6 6 6 p p p p p p w w w w p p p p p p j j j j j j j j j j j j c c c c c c c c c c c c c c n n c c n n c c c c j j j j j j j j j j j j j j g g p p p p p p p p p p j j j j j j j j d d d d j j j j j j j j j j b b M M b b p p 6 6 p p d d p p p p p p d d l l d j w w 3 3 6 6 d d d d d d j l l l b b B B S S b b - - O O O X # # = = - - - - O O = = & & O O O O X X X X X X X X X X             X X # # & & w w d d d d d d d d d d w w - - O O X X             X X O O O O     O O O O O O @ # # # # # & & = = = = + + X X O O - - l l b b d d d d d d d d d d p p w w 3 3 - - - < 3 3 p p w w < < , , < < < < - - & & - - 6 6 d d p p 6 6 6 6 6 6 6 6 < < , , , , , , - - < < , , , , , , , , , , , , - - 4 4 , , , , , , 4 4 4 4 4 4 4 4 6 6 4 4 4 4 6 6 6 6 6 6 6 6 , , , , , , , , , , , , , , , , : : * * * * * * : : : : : : : : , , , - - - * * * * * * * * * * * * * * * * * * * * * * * * * * * * * * * * * * * * * * * * * * * * * * * * * * * * * * * * * * * * & & & & & & & & & & & & & & & & * * * * * * * * * * * * * * ",
"j j j j c c c c c c c c c c c c c c c c c c c c c c c c c c c c c c c c c c c c c c c c n n c c c c c c j j j j c c c c c c c c c c c c c c c n c c c c c c c c c n n n n n b b c c c c c c c c c c c c c c c c c c c c c c c c c c c c c c c c c c c c c c c c c c j j j j c c j j c c j j j j j j j j j j j j j j j j j j j j j j j j j j j j j j g g g g j j j j g g g p p g p p p p p p p p y p p p p p p p g p p g p p p p j d d d d d d d d d d d j j j j d d p p p p p d d d y y y 9 j j p p p p j j j j p p p p j j p p p p p p p p p p p p d d j j p p p p p p j j l l c c c c j j j j j j c c c c c c c c c c c c j j g g g g g g g g g g p p p p 9 9 9 9 p p p p p p p p p p 9 9 6 6 6 6 6 6 6 6 p p p p j j j j c c j j p p 6 6 , , , , 6 6 p p w w w w 6 6 6 6 6 6 d d l l j j j j j j j j b b M M b b l l j j b b d d < < * * & & # # # # # #     & & , , d d c l d d , , = = - - = = O O         O O & & & & - - - - < < d d d d 3 3 ; ; & & # # O O X X X X X X O O & & - - = = d d N N b b d d = ; O X X X + # * * , , - - < < d d d d p p 6 6 p p j j l l l l d d w w p p d d w w < < - - = = & & = = - - * * & & & & & & < < p p p p , , , , , , , , , , , - : - : : : : , , , , , , , , - - : : * * * * , , : : : : , : , , 4 4 4 4 , , , , , , , , 4 4 6 6 6 6 6 6 4 4 , , , , , , , , 4 4 , , , , , , : : * * : : * * * * : : : : : : - - - - * * * * * * * * * * & & & & & & & & & & * * & & & & & & * * * * * * * * = = * * * * * * & & & & & & & & & & & & & & & & & & & & & & & & & & & & & & & & & & & & * * * * * * * * * * ",
"j j j j c c c c c c c c c c c c c c c c c c c c c c c c c c c c c c c c c c c c c c c c n n c c c c c c j j j j c c c c c c c c c c c c c c c n n c c c c c c c c c n n n n b b c c c c c c c c c c c c c c c c c c c c c c c c c c c c c c c c c c c c c c c c c c j j j j c c j c c c j j j j j j j j j j j j j j j j j j j c j j j j j j j j j j g g g g j j j j g g p p p p p p p p p p p p y y p p p p p p g p p p p p p p d d d d d d d d d d j d d d j j d d p p p p p d d d y y y y j j p p p p j j j j p p p p j j p p p p p p p p p p p p d d j j p p p p p p j j l l c c c c j j j j j j c c c c c c c c c c j c j j g g g g g g g g g g p p p p 9 9 9 9 p p p p p p p p p p r r 6 6 6 6 6 6 6 6 p p p p j j j j c c j j p p 6 6 , , , , 6 6 p p w w w w 6 6 6 6 6 6 d d l l j j j j j j l l b b M M b b l l j j b b d d < < * * & & # # # # # #     & & , , d d c c d d , , = = - - = = O O         O O & & & & - - - - < < d d d d 3 3 ; ; & & # # O O X X X X X X O O & & - - = = d d B B b b d d = = O O X X + + * - , , - - < < d d d d p p w w p p j j l l l l p d w w p p d d w w < < - - = = & & = = - - * * & & & & & & < < p p p p , , , , , , , , , , , , : - - : : : , , , , , , , , - - : : * * * * , , : : : : , , , , 4 4 4 4 , , , , , , , , 4 4 6 6 6 6 6 6 4 4 , , , , , , , , 4 4 , , , , , , : : * * : : * * * * * * : : : : - - - - * * * * * * * * * * & & & & & & & & & & & & & & & & & & * * * * * * * * = = * * * * * * & & & & & & & & & & & & & & & & & & * & & & & & & & & & & * & & & & & & * * * * * * * * * * ",
"c c c c c c n n n n n n c c n n n n n n n n c c c c c c j j c c c c c c c c c c c c c c c c c c c c c c c c c c c c c c c c n n n n c c n n n n n M n n c c c c c c c c n c c b n n c c c c c c c n n n c c c c c c c c c c c c c c c c c c c c c c c c c c c c c c c c j j j c j j c c j j j j j c c c c c j j j j j j c c c c j j j j j j j j j j j j g g j j g g p p p p p p p p p p p p p p p p p p p p p p p p g g j j j j j j j j j j j j j j j j d d y y p p p p p p p p y y y y y y y y 6 6 6 6 p p g g p p 6 6 9 6 p p p p p p p g g g p p g g d d j j j j j j j j c c c c c c c c j j j j j j c c c c j j j j g g j j g g p p p p g g g g p p p p p p 9 9 6 6 6 6 6 6 9 9 p p p p 6 w 6 6 6 6 < < 6 6 6 6 6 w w w p p p p j j j j p p < < < < 6 6 , , , , & & + + * * d d M M M M c c l l c c B B S S M M d d 6 6 c c l l d d w w 6 6 3 3 3 3 , , - - < < d d F F / / Y E B B l l b b d d - - X X . . O O # # # # & & & & - - d d d d < < & & & & O O O O X X X X O O = = p p b b p p S S L L L L G G l l < - = = - - 6 6 6 6 < < 3 3 d d d d d d < < w w j j l l l l d d d d j j B B k k < < & & + + # # & & = = , , , , , , , , 6 6 p p w w , , * * * * * * : : , , : : , , , , : , : , , , , , , , , , : : : : : : , , : : - - , , , , , , , , , , , , , , , , 6 6 6 6 6 6 4 4 6 6 4 4 4 4 6 6 6 6 6 6 6 6 4 4 , , , , : : * * : : : * : : * * * * * * * * * * * * * * * * * * * * & & & & & & & & & & & & & & * * * * * * * * & & & & & & & & & & & & & & & & & & & & & & & * * & * & & & & & & & & & & * * * & & & & & & & & & & & & * * ",
"c c c c c c n n n n n n c c n n n n n n n n c c c c c c c c c c c c c c c c c c c c c c c c c c c c c c c c c c c c c c c c n n n n c c c c n n n M n n c c c c c c c c n n c c n n c c c c c c n n n n c c c c c c c c c c c c c c c c c c c c c c c c c c c c c c c c j j j c j j c c c c j j j j c c c c j j j j j j c c c c j j j j j j j j j j j j g g j j g g p p p p p p p p p p p p p p p p p p p p g p p p g g j j j j j j j j j j j j j j j j d d y y y p p p p p p p y y y y y y y y 6 6 6 6 p p g g p p 6 6 9 9 p p p p p p p p g g p p g g d d j j j j j j j j c c c c c c c c j j j j j j c c c c j j j j g g j j g g p p p p g g g g p p p p p p 9 9 6 6 6 6 6 6 9 9 p p p p w w 6 6 6 6 < < 6 6 6 6 w w w w p p p p j j j j p p < < < < 6 6 , , , , & & + + = * d d M M M M c c l l c c B M S S M M d d 6 6 c c l l d d w w 6 6 3 3 3 3 , , - - < < d d F F / / Y E B B l l b b d d - - X X X X O O # # # # & & & & - - d d d d < < & & & & O O O O X X X X O O = = p p b b p p S S L L L L G G l l < - = = - - 0 6 6 6 < < 3 3 d d d d p d < < w w j j l l l l d d d d j j B B k k < < & & + + # # & & = = , , , , , , , , 6 6 p p w w , , * * * * * * : : , , , : , , , , : : : , , , , , , , , , : : : : : : , : : : - - , , , , , , , 4 , , , , , , , , 6 6 6 6 6 6 4 4 6 6 4 4 4 4 6 6 6 6 6 6 6 6 4 4 , , , , : : * * : : : : : : * * * * * * * * * * * * * * * * * * * * & & & & & & & & & & & & & & * * * * * * * * & & & & & & & & & & & & & & & & & & * * * & & * & & & * & & & & & & & & & * * & & & & & & & & & & & & & * * ",
"m m c c m m M M M M M M n n M M n n c c c n n c c c c c j j g g g g g g g g g g g g g g g g j j j j j j j j c c j j c c c c c c c c c c c c c c c c c c c c c c c c c c c c c c c c c c c c c c c c c c c c c c c c c c c c j j j j c c c c c c c c c c c c c c j j j j j j j j j j j j c c c j j j c c c c j j c c c j j j j j j j g g g g j j j j g g p p p p g g g p p p p p p g g g p p g p g p p p p g p p p p p p p p j d d j d d d d j j d d p d d d y y y y y y y y y y y y y y y y d d p p 9 9 p p j j g g p p p p 9 9 p p p p p p p p g g j j j j c c c c c c c c c c n n c c c c c c c c c c c c c c c c j j j j j j j j p p p p p p p p 9 9 6 6 9 9 9 9 6 6 6 6 9 6 p p g g j j d d p p p p w w 6 6 6 6 6 3 < < 6 6 p p l l l l j j p p p p p p , , , , & & + + & & p p c c M M c c j j j j c c c c j j p p 6 6 d d l l l l w w 3 3 p p d d p p p p p p l l D D L L B B d p p p d d w w = = @ # O O O O O O O O & & 0 3 l l b b b b l l d d - < O O O O O O O O # # ; ; 3 3 d d - - 3 3 p p l l S S B B d d w w w w < < * * # # & & 3 3 j j l l < , , , < < 3 3 3 3 < < < < 6 6 d d w w - - & & # # & & & & & & 6 6 p p p p 6 6 6 6 r r 6 6 , , * * * * : : : : , , 4 4 , , , , , , , , 4 4 , , , , , , , , , , , , , , : : - - , , , , 4 4 , , 4 4 , , , , 4 , 4 4 4 4 4 4 4 4 4 4 4 4 4 4 4 4 6 6 6 6 6 6 4 4 4 4 4 4 , - , , , , , , : : : : * * * * * * * * * * * * * * * * * * * * * * * * & & & & & & & & * * * * * * * * & & & & & & & & * * & & & & * & & & & & & & & & & & & & & & & & & & & & & & & & & & & & & & & & & & & & & & ",
"m m c c m m n n M M M M n n M M n n c c n n n n c c c c j j g g g g g g g g g g g g g g g g j j j j j j j j c c j j c c c c c c c c c c c c c c c c c c c c c c c c c c c c c c c c c c c c c c c c c c c c c c c c c c c c j j j j c c c c c c c c c c c c c c j j j j j j j j j j j j c c c c j j c c c c j j c c c c j c j j j j g g g g j j j j g g p p p p g g p p p p p p p g g g p p g p p p g g p g p p p p p p p p j j j j d d d d j j p d p p d d y y y y y y y y y y y y y y y y d d p p 9 9 p p j j g g p p p p 9 9 p p p p p p p p g g j j j j c c c c c c c c c c n c c c c c c c c c c c c c c c c c j j j j j j j j p p p p p p p p 9 9 6 6 9 9 9 9 6 6 6 6 6 6 p p g g j j d d p p p p w r 6 6 6 6 6 3 < < 6 6 p p l l l l j j p p p p p p , , , , & & + + & & p p c c M M c c j j j j c c c c j j p p 6 6 d d l l l l w w 3 3 p p d d p p p p p p l l D D L L B B p p p p d d w w = = # # O O O O O O O O & & 0 0 l l b b b b l l d d < - O O O O O O O O # # ; ; 3 3 d d - - 3 3 p p l l S S B B d d w w w w < < * * # # & & 3 3 j j l l , , , , < < 3 3 3 3 < < < < 6 6 d d w w - - & & # # & & & & & & 6 6 p p p p 6 6 6 6 r r 6 6 , , * * : : : : : : , , 4 4 , , , , , , , , 4 , , , , , , , , , , , , , , , : : - - , , , , 4 4 , , 4 4 , , , , , , 4 4 4 4 4 4 4 4 4 4 4 4 4 4 4 4 6 6 6 6 6 6 4 4 4 4 4 4 , : , , - , , , : : : : * * * * * * * * * * * * * * * * * * * * * * * * & & & & & & & & * * * * * * * * & & * * & & & & & & & & & * & & & & & & & & & & & & & & & & & & & & & & & & & & & & & & & & & & & & & & & & ",
"n n n n n n M M M M M M M M n n c c c c c c c c c c j j g g j j g g g g g g g g g g g g g g 9 9 p p p p p g g g d d j j j j j j j j j j j j j j c j j j j j c c c c c c c c c c c c c c c c j j j j j j j j j j c j c c c c j j j j c c c c c c c c c c c c j j j j j j j j j j j j j j j c j j j j j j j j j j j j j j j j j j g g p p p p g g p p g g p p p p p p p p p p p p p p g p p p g g p g g g p p p p p p p p y y d d d p p p d d d d y y y y p p j d p y y y y y y y y y y y 6 6 p p p p p p p p p p g g g g p p p p p p p p g g g g j j j j j j c c c c c c c c M M n M c c c c c c c c j j j j c c c c c c j j g g p p p p p p p p p p 9 9 6 6 9 9 9 9 p p 9 9 y y 9 9 9 9 p p r r w w r r p p p p p p 6 6 6 6 , , p p j j w w 6 6 j j c c l l p p p p 6 6 , , < < 6 6 p p j j p p 6 6 , , 3 6 6 6 6 6 < < < < d d b b l c - - O O O O # # # # & & - - j j S S b b & &     O O O O O X O O & & = = = = = = & & - - b b G G F F F F G G S S d d - - = = = = & & & & & & O O X X X X X X X X ; ; b b b b 3 3 # # & & & & O O O O & & < < d d l l p p < < - - - - - - * * = = - - , , 3 3 p p d d d d d d r r 6 6 6 6 p p p p 6 6 , , 6 6 < < : : , , 4 4 4 4 4 4 , , , , , , - - , , , , , , : : : : , , - : , , , , : : : : : : : : , : : , : : 6 6 4 4 , , , , 4 , , , , 4 , , , , , , , , , , 4 4 4 4 , , , , , , , , : : : : : : : : : : * * - - - - - - * * * * = = * * * * & & & & & & & & * & & & & & & & * * = = * * * * & & & * & & & & & & & & * * & & & & & & & & & & & & & & & & & & & & & & & & & & & & & & & & & & & & & & & & ",
"n n n n n n M M M M M M M M n n c c c c c c c c c c j j g g j j g g g g g g g g g g g g g g 9 9 p p p p p p g g d d j j j j j j j j j j j j j j j j j j j j c c c c c c c c c c c c c c c c j j j j j j j j j j c c c c c c j c j j c c c c c c c c c c c c j j j j j j j j j j j j j j j j j j j j j j j j j j j j j j j j j j g g p p p p g g p p g g p p p p p p p p p p p p p p p p g g g g p p g g p p p p p p p p y y d d d p p p d d d d y y y y p p j d y y y y y y y y y y y y 6 6 p p p p p p p p p p g g g g p p p p p p p p g g g g j j j j j j c c c c c c c c M M M M c c c c c c c c j j j j c c c c c c j j g g p p p p p p p p p p 9 9 6 6 9 9 9 9 p p 9 9 9 9 9 9 9 9 p p r r w w w r p p p p p p 6 6 6 6 , , p p j j w w 6 6 j j c c l l p p p p 6 6 , , < < 6 6 p p j j p p 6 6 , , 6 6 6 6 6 6 < < < < d d b b l l - - O O O O # # # # & & - - j j S S b b & &     O O O O X X O O & & = = = = = = & & - - b b G G F F F F G G S S d d - - = = = = & & & & & & O O X X X X X X X X ; ; b b b b 3 3 # # & & & & O O O O & & < < d d l l p p < < - - - - - - * * * * - - , , 6 6 p p d d d d d d r r 6 6 6 6 p p p p 6 6 , , 6 6 < < - : , , 4 4 4 4 4 4 , , , , , , - - , , , , , , : : : : , , : : , , , , : : : : : : : : , : , , : : 6 6 4 4 , , , , 4 , , , 4 4 , , , , , , , , , , 4 4 4 4 , , , , , , , , : : : : : : : : : : * * - - - - - - * * * * * * * * * * & & & & & & & & & & & & & & & & * * * = * * * * & & & & & & & & & & & & * & & & & & & & & & & & & & & & & & & & & & & & & & & & & & & & & & & & & & & & & & ",
"n n n n n n n n M M M M n n n n n n c c c c c c j j j j g g g g g g g g g g c c c c c c j j g g g g g j c c j j j j g g p p g g g g g g g g g g g g j j j j g g g g j j j j c c c j c c c c c c c c c c c c j j c c c c c c c c c c c c c c c c c c c c c c c c j j j j j j j j j j j j c c c c c c j j j j j c j j j c j j p p p g g g g g g g g g p p p p p p p p p p p p p g g g g g g g p p p p g g g g p p p p p p y y y y y y y y y y d d j j d d p p d p y y y y 6 6 y y y y y y 6 6 6 6 6 6 9 9 p p p p p p p p p p p p y y y y p p p p p p j j j j c c c c c j j j c c c j c c c c c c c j j j c c c c c c j j g g g g g g g g p p p p p p y y 9 9 9 9 9 9 9 9 9 9 9 9 9 9 9 9 9 9 9 9 6 6 6 6 6 6 r r p p r r r r r r 6 6 6 6 r r p p d d d d d d , , 6 6 j j b b M M M M c c j j 6 6 6 6 , , , , , , < < p p j j l l l l d d , , = ; - - - - * * = = - - p p l l j j - - O O     X X O O & & - - w w p d p p 6 6 p p d d d d p p 6 6 w w d d d d < < w w d d d d w w - - & & O O         X X - - l l l l < < & & - - - - - - < < < < < < w w d d d d p p < < - - * * - - - - , , - - 3 3 p p d d l l d d w w 6 6 * * - , , , < < , , , , , , , , : : : : : : : : : : : : : : : : : : : : : : : : : : : : : , , , : : : : : : : : : : : : : : : : , , , , : , , , 4 4 4 4 4 4 , , , , , , , , , , , , , , , , , , : : - , : : : : : : * * * * * & : : * * * * * * * * * * * * * * & & * * & & * * * * * * * * & & * * * * * * & & & & & & & & & & & & & & & * * * & & & * * * * * & & & & & & & & & & & & & & & & & & & & & & & & & & & & & & ",
"n n n n n n n n n M M M n n n n n n c c c c c c j c j j g g g g g g g g g g c c c c c c j j g g g g g j c j j j j j g g p p g g g g g g g g g g g g j j j j g g g g j j j j c c c j c c c c c c c c c c c c j j c c c c c c c c c c c c c c c c c c c c c c c c j j j j j j j j j j j j c j c c c c j j j j c c j j j j j j g g p p g g g g g g g g p p p p p p p p p p p p p p g g g g g g p p p p g g g g p p p p p p y y y y y y y y y p d d j d d d p p d p y y y y 6 6 y y y y 6 y 6 6 6 6 6 6 9 9 p p p p p p p p p p p p y y y y p p p p p p j j j j c c c c j j j j c c j j c c c c c c j j d d c c c c c c j j g g g g g g g g p p p p p p y y 9 9 9 9 9 9 9 9 9 9 9 9 9 9 9 9 9 9 9 9 6 6 6 6 6 6 r r p p r r r r r r 6 6 6 6 r r p p d d d d d d , , 6 6 j j b b M M M M c c j j 6 6 6 6 , , , , , , < < p p j j l l c l d d , , = ; - - - - * * = = - - d p l l j j - - O O     X X O O & & - - w w p d p p 6 6 p p d d d d p p 6 6 w w d d d d < < w w d d d d w w - - & & O O         X X - - l l l l < < & & - - - - - - < < < < < < w w d d d d p p < < - - * * - - - - , , - - 3 3 p p d d l l d d w w 6 6 * * - , , , < < , , , , , , , , : : : : : : : : : : : : : : : : : : : : : : : : : : : : : , , , : : : : : : : : : : : : : : : : , , , , : , , , 4 4 4 4 4 4 , , , , , , , , , , , , , , , , , , : : , , : : : : : : * * * * & & : : * * * * * * * * * * * * * * & & * * & & * * * * * * * * & & * * * * & & & & & & * & * * & & & & & & & * & & & & & * * * * * & & & & & & & & & & & & & & & & & & & & & & & & & & & & & & ",
"j j c c c c c c n n c c c c c c c c c c c c c c j j j j j j j j g g g g g g j j j j j j j j c c c c c c c c c c j j g g g g j j g g g g g g g g g g g g g g g g g g g g j j j j j j j j c c c c c c c c c c c c c c c c c c d d d d j j j j j j j d g d g g j j j j j j j j j j j j j j j j j j j g g g g g j j j j j j g g 9 9 p y p p p p p p 9 9 9 9 9 9 p p p p p p y y p p p p p p p p 9 9 y y p p p p 9 9 9 9 6 6 6 6 y y y y y y y y d d j j d d d d y y y y y y 6 6 y y y y y y y y 6 6 9 9 9 9 y y p p p p p p p p p p p p y p p p p p p p g g j j j j j j j j j j j j j j j j j j j j g g g g g g c c c c j j g g 9 y 9 9 p p 9 9 9 9 9 9 9 9 9 9 9 9 9 9 9 9 9 9 9 9 9 9 9 9 9 9 6 6 6 6 6 6 6 6 6 6 6 6 6 6 6 6 6 6 6 6 6 6 6 6 6 6 9 9 9 9 r r , , 6 6 p p j j l l j j d d p p , , , , , , , , - - - - , , 6 6 d d j j d d w w d d j j d d 3 3 < < < < 6 6 p p d d w w < < < < = = & & + O # # & & 6 6 d d l l d d l l d d < < - - < < w w d d d d d d w w , , & & # # O O O O & & = = 3 3 d d d d 6 6 < < < < < < < < 6 6 p p p p 6 6 - - - - < < - - & & & & & & * * - - , , - - - - < < 6 w 6 6 6 6 < < , , * * - - , , , , , , - - - - , : : * * * * * : : : : : : : : : : : : : : : : : : * * * * * * * * : : : : : : : : : : : : : : : : , , : : : : , , , , , , , , , , , , , , , , , , , , , , , , , , , , : : , : : : : : : : * * * * : : * * * * * * * * * * * * * * * * * * & & * * * * * * * * & & * * * * * * * * * * * * * * & & * * & & & & & & & & & & * * & & & & & & & & & & & & & & & & & & & & & & & & & & & & & & & & ",
"j j c c c c c c n n c c c c c c c c c c c c c c c c j j j j j j g g g g g g j j j j j j j j c c c c c c c c c c j j g g g g j j g g g g g g g g g g g g g g g g g g g g j j j j j j j j c c c c c c c c c c c c c c c c c c d d d d d d j j j j d d d d g g j j j j j j j j j j j j j j j j j j j j g g g g j j j j j j g g 9 9 p y y p p p p p 9 9 9 9 9 9 p p p p p p y y p p p p p p p p 9 9 p y p p p p 9 9 9 9 6 6 6 6 y y y y y y y y d d j j d d d d y y y y y y 6 6 y y y y y y y y 6 6 9 9 9 9 p p p p p p p p p p y y p p p p p p p p p p g g j j j j j j j j j j j j j d g j j j j j g g g g g g c c c c j j g g y y 9 9 9 r 9 9 9 9 9 9 9 9 9 9 9 9 9 9 9 9 9 9 9 9 9 9 9 9 9 9 6 6 6 6 6 6 6 6 6 6 6 6 6 6 6 6 6 6 6 6 6 6 6 6 6 6 9 9 9 9 r r , , 6 6 p p j j l l j j d d p p , , , , , , , , - - - - < < 6 6 d d j j d d w w d d j j d d 3 3 < < < < 6 6 p p d d w w < < < < = = & & + # # # & & w 6 d d l l d d l l d d < < - - < < w w d d d d d d w w , , & & # # O O O O & & = = 3 3 d d d d 6 6 < < < < < < < < 6 6 p p p p 6 6 - - - - < < - - & & & & & & * * - - , , - - - - < < w 6 6 6 6 6 < < , , * * - - , , , , , , - - - - , : * * * * * * : : : : : : : : : : : : : : : : : : * * : * * * * * : : : : : : : : : : : : : : : : , , : : : : : , , , , , , , , , , , , , , , , , , , , , , , , , , , : : : : : : : : : : * * * * : : * * * * * * * * * * * * * * * * * * & & * * * * * * * * & & * * * * * * * & * * * * * * & & * * & & & & & & & & & & & & & & & & & & & & & & & & & & & & & & & & & & & & & & & & & & & & ",
"y p g p g g j j j j j j c c c c c c j j c c c c c c j j j j j j j j g g g g j j g g g g g g j j j j c c j j j j j j g g g g g g g g j j j j j j g g j j j j g g g g g g j j j j j j c j c c j j j j c c c c j j c j c c j j g g g g g g g g g g g g g g g g g g g g g g g g g g g g j j j j j j g g g g g g g g g g g g g g p p 9 9 9 9 9 9 9 9 9 9 9 9 9 9 9 9 9 9 9 9 p p p p p p p p p p 9 9 9 9 p p p p 9 9 9 9 6 6 6 6 y y y y y y y y d d j d d d p p p p y y y y y y y y y y y y y y 6 6 9 9 p p y y p p p p p p p p y y p p y y y y p p p p g g g g p p p p p p g g g g g g g g g g g g g g g g g g g g j j g g g g 9 9 9 9 9 9 9 9 9 9 9 9 9 9 9 9 9 9 6 6 6 6 6 6 6 6 6 6 6 6 6 6 6 6 6 6 6 6 6 6 6 6 6 6 6 6 6 6 6 6 5 5 , , 4 4 6 6 6 6 6 6 6 6 , , < < r r r r p p w w 6 6 6 6 , , < < 6 6 < < , , - - - - - - - - - - - - , < d d l l p p - - - - ; - * * - - 3 3 p p d d l l w w , < & & # # & & - - - - - - = = - - < < 3 3 w w p p w w 6 6 - - = = = * * * = = = = * * - - w w d d j j d d < < & & & & - - - - * * - - w w d d p p - - & & - - * * = = = = - - < < 3 3 w w , , , , - - - - , , , , , , , , * * - - , , , , , , , , : : , , , , : , , , , , , , , , , , , , : : - - - - , , : : : : : : * * * * : : : : : : : : - - - - : : : : : : : : : : : : , , , , , , , , , , , , , , , , , , , , , , , , , , , : : : : : : : : : : : : : * * * * * * * * * * * * * * * * & * * * & * * * * * * * * * * * * * * * * * * * * * * * * * * * * * & & & & & & & & & & & & & & & & & & & & & & & & & & & & & & + + # # # # & & # # # # ",
"y y p p g g j j j j j j c c c c c c j j c c c c c c g g j j j j j j g g g g j j g g g g g g j j j j j c c c j j j j g g g g g g g g j j j j j j g j j j j j g g g g g g j j j j j c c c c c j j j j c c c c j j c c c c j j g g g g g g g g g g g g g g g g g g g g g g g g g g g g j j g j j j g g g g g g g g g g g g g g p y 9 9 9 9 9 9 9 9 9 9 9 9 9 9 9 9 9 9 9 9 p p p p p p p p p p 9 9 9 9 p p p p 9 9 9 9 6 6 6 9 y y y y y y y y d d j d d d p p p p y y y y y y y y y y y y y y 6 6 9 9 p p y y p p p p p p p p y y p p y y p p p p g p g g g g p p p p p p g g g g g g g g g g g g g g g g g g g g j j g g g g 9 9 9 9 9 9 9 9 9 9 9 9 9 9 9 9 9 9 6 6 6 6 6 6 6 6 6 6 6 6 6 6 6 6 6 6 6 6 6 6 6 6 6 6 6 6 6 6 6 6 5 5 , , 4 4 6 6 6 6 6 6 6 6 , , < < r r r r p p w w 6 6 3 6 , , < < 6 6 < < , , - - - - - - - - - - - - , , d d l l p p - - - - ; - * * - - 3 3 p p d d l l w w , , & & # # & & - - - - - - = = - - < < 3 3 w w p p w w 6 6 - - = = = * * * = = = = * * - - w w d d j j d d < < & & & & - - - - - * - - w w d d p p - - & & - - * * = = = = - - < < 3 3 w w , , , , - - - - , , , , , , , , * * - - , , , , , , , , : : , , , , : : , , , , , , , , , , , , : : - - - - , , : : : : : : * * * * : : : : : : : : - - - - : : : : : : : : : : : : , , , , , , , , , , , , , , , , , , , , , , , , , , , , : : : : : : : : : : : : * * * * * * * * * * * * * * * * & * * * & * * * * * * * * * * * * * * * * * * * * * * * * * * * * * & & & & & & & & & & & & & & & & & & & & & & & & & & & & & & + + # # # # & & & # # # ",
"p p p p d d d d p p p p p g g g g g j g j j j g g g j c j j g g g g g g g g j j j j g g g g p p p p g g g g g g j j g g g g g g g g g g j j c c j j c c c c j j j j c c c c j j j c c c g g g g g g g g g g g g p g y y 9 9 g g p g g g p p p p g g p p p p g g g g p p p p y p g g g g g g g g g g g g g g g g g g g g g g p p p p 9 9 9 9 9 9 9 9 9 9 9 9 9 9 9 9 y y p p p p p p p p p p p 9 9 9 9 9 9 9 9 9 9 9 9 9 y y p p y y p p d d j j j j j j j j d d p p p p y y y y y y y y 9 9 y y 9 9 p p p p p p p p p p p p p p p p p p p p p p g g p p p p g g g g g g g g g g d j j j j j g g g g g g g g g g g g g g y y 9 9 9 9 9 9 9 9 9 9 9 9 9 9 9 9 9 9 9 9 9 9 9 9 9 9 9 9 9 9 9 9 9 9 9 9 6 6 9 9 p p p p p p 9 9 6 6 6 6 6 6 6 6 6 6 6 6 6 6 6 6 6 6 6 6 6 6 6 6 6 6 6 6 6 6 6 3 3 3 6 6 p p p p 6 6 6 6 , , < < p p 6 6 < < 6 6 d d d d 3 3 & & & & & & & & = = < < 3 3 w w w w d d p p w w w w d d d d w w - - # # # # & & < < j j l l 3 6 & & X X + + - - w w d d d d p p w w w w 3 3 , , - - - - = = & & & & & & # # # + = = 3 3 6 6 < < , , w w 6 6 < < < < 3 3 w w w w w w < < < < , , , , - - , , , , < < , , , , , , 5 5 , , 4 4 , , , , 4 4 4 4 4 4 4 4 4 4 4 4 4 4 4 4 , , 4 4 4 4 4 4 4 4 4 4 4 4 4 4 , , - - - - : : , , , , , , , , : : : : : : : : , , , 4 , , , , , , , , , , , , , , , , , , , , , , , , , , : : : : - - : : : : : : * * * * * * * * * * * * * * * * & & * * * * * * * * * * & & : : * * : : : : : * * * * * * * * * * * * * & * & & & & & & & & & & & & & & * * * * & & & & & & & & & # + + # # & & & & & & ",
"g p p p d d d d g p p p p p g g g g g g j j j g g g j j j j j g g g g g g g j j j j g g g g p p p p g g g g g g j j g g g g g g g g g g j j c c j j c c c c c j j j c c c c j j j c c c g g g g g g g g g g g g p p p 9 9 9 g g p g g g p p p p g g p p p g g g g g p p p p y y g g g g g g g g g g g g g g g g g g g g g g p p p p 9 9 9 9 9 9 9 9 9 9 9 9 9 9 9 9 y y y p p p p p p p p p y 9 9 9 9 9 9 9 9 9 9 9 9 9 y y p p y y p p d d j j j j j j j j d j p p p p y y y y y y y y 9 9 y y 9 9 p p p p p p p p p p p p p p p p p p p p p p g g p p p p g g g g g g g g g g d j j j j j g g g g g g g g g g g g g g y y 9 9 9 9 9 9 9 9 9 9 9 9 9 9 9 9 9 9 9 9 9 9 9 9 9 9 9 9 9 9 9 9 9 9 9 9 6 6 9 9 p p p p p p 9 9 6 6 6 6 6 6 6 6 6 6 6 6 6 6 6 6 6 6 6 6 6 6 6 6 6 6 6 6 6 6 6 6 3 3 6 6 p p p p 6 6 6 6 , , < < p w 6 6 < < 6 6 d d d d 3 3 & & & & & & & & = = < < 3 3 w w w w d d p p w w w w d d d d w w - - # # # # & & < < j j l l 3 0 & & X X + + - - w w d d d d p p w w w w 3 3 , , - - - - = = & & & & & & # # # # = = 3 3 6 6 < < , , w w 6 6 < < < < 3 3 w w w w w w < < < < , , , , - - , , , , < < , , , , , , 5 5 , , 4 4 , , , , , 4 4 4 4 4 4 4 4 4 4 4 4 4 4 4 , , 4 4 4 4 4 4 4 4 4 4 4 4 4 4 : , - - - - : : , , , , , , , , : : : : : : : : , , , 4 , , , , , , , , , , , , , , , , , , , , , , , , , , : : : : - - : : : : : : * * * * * * * * * * * * * * * * & & * * * * * * * * * & & & : : * * : : : : * * * * * * * * * * * * * * * * & & & & & & & & & & & & & & * * * * & & & & & & & & & # + + # # & & & & & & ",
"p p p p p p p p p p p p p p p p p p g g g g g g j j j j c c g g g g g g g g j j j j j j g g j j g g c c c j c c c c c c c c g g g g j j j j j j j j c c c j c c c c c j j j g g g g g g g g p p p p p p p p p p p 9 9 y 9 9 p p y y y y p p p p g g p p p g g g g g y p p p y y y y y y g g g g g g g g g g j j j j g g g g p p p p 9 9 9 9 9 9 9 9 9 9 p p p p p p p p p p p p p p p p p p 6 6 6 6 6 6 6 6 6 6 9 9 9 9 6 6 g g g g g g j j j j c c c c j j j j j j g g p p p p p p y y 9 9 9 9 p p p p g g g g g p p p p p g g p p g g g g g g g g g g g g g g g g g g j j j j j j j d g g c c c c c c j j g g g g y y y y y y p p g g p p p p p p g g g p g g g g g g g g g g g g p p g g p p p p p p y p p p p g g g p p p y 9 9 6 6 9 9 p p p p p p y p 6 6 6 6 6 6 6 6 6 6 6 6 6 6 6 6 6 6 6 6 p p p p p p r r 6 6 r 6 b b c c d j p p p p 6 6 - - & & & & & & * * - - , , , , * * & & & & & & = = - - w w j j l l d d 3 3 - - & & * * , , , < = = # # - - < < p p d d d d p p < < * * = = # # O O # # - - < < - - & & * * & & # # & & * * , , , , , , p p w w 6 6 < < , , < < < < , , , , - - , , - - - * * * , , , , , , , , , , 5 5 4 4 4 4 4 4 4 4 , , , , , , 4 4 4 4 4 4 4 4 4 4 4 4 4 4 4 4 4 4 4 4 4 4 6 6 6 6 , , , , , , , , , , , , , : : : , , : : : : - : 4 4 4 4 , , , , 4 4 , , , , , , , , , , , , , , , , , , : : , , , - - - , , , : : : * * * * * * * * * * * * * * * * * * * * * * * * * * * * * * : : : : : : : : : : * * * * * * : : * * & * * * & & * * & & & & & & & & & & * * * * * * & & & & & & & & & & & & & & & & & & ",
"p p p p p p p p p p p p r p p p g p g g g g g g j j j j c c g g g g g g g g j j j j j j g g j j g g c c c j c c c c c c c c g g g g j j j j j j c j c c c j c c c c c c j j g g g g g g g g p p p p g p g g p p y y p y 9 9 p p y y y y p p p p p g p p g g g g g g y p p p y p y 9 y y g g g g g g g g g g j j j j g g g g p p p p 9 9 9 9 9 9 9 9 9 9 p p p p p p p p p p p p p g p p p p 6 6 6 6 6 6 6 6 6 6 9 9 9 9 6 6 g g g g g g j j j j c c c c j j j j j j g g p p p p p p y y 9 9 9 9 y p p p g g g g g g p p p p g g p p g g g g g g g g g g g g g g g g g g j j j j j j j g g j c c c c j c j j g g g g y y y y y y p p g g p p p p p p p p p p g g g g g g g g g g g g p p g g p p p p p p y y p p g g g g p p p y 9 9 6 6 9 9 p p p p p p p p 6 6 r r 6 6 6 6 6 6 6 6 6 6 6 6 6 6 6 6 p p p p p p r r 6 6 6 6 b b c c d d p p p p 6 6 - - & & & & & & * * - - , , , , * * & & & & & & = = - - w w j j l l d d 3 3 - - & & * * , , < , = = # # - - < < p p d d d d p p < < * * = = # # O O # # - - < < - - & & * * & & # # & & * * , , , , , , p p w w 6 6 < < , , < < < < , , , , - - , , - - - - * * , , , , , , , , , , 5 5 4 4 4 4 4 4 4 4 , , , , , , 4 4 4 4 4 4 4 4 4 4 4 4 4 4 4 4 4 4 4 4 4 4 6 6 6 6 , , , , , , , , , , , , : : : : , , : : : : - - 4 4 4 4 , , , , 4 4 , , , , , , , , , , , , : : , , , , : : : , , - - - , , , : * : * * * * * * * * * * * * * * * * * * * * * * * * * * * * * * : : : : : : : : : : * * * * * * : : * * & & * * & * * * * & & & & & & & & & * * * * * * & & & & & & & & & & & & & & & & & & ",
"p r p p p p p p p p p p p p p p g p g g g g g g j j j j j j g g g g g g g g j j c c c c j c c c c c c c c c c c j j j c j j j j j j c c j j g g g g g g g g j j g j g g g g p p p p 9 9 9 9 9 9 9 9 p p g g g g g g j j g j d d j j j j j j j j j j j j c c j j g g g g g g p g g g p p g p g g g g g g g g j j j j g g g g 9 9 9 9 9 9 9 9 9 9 9 9 9 9 y p p p p p g g g g j j j j g g g g p p p p p p p p p p p p p p p p j j j j j j c c c c c c c c c c c c j j j j g g g g g g p p p y y p y y p p p p g p g g g g p p g g g g g g g g g g g g g g g g g g g g g g g g g g g g j d g g c c c c c c c c c c j j g g g g g g g g g g g g g g g g g g g g g g g g g g g g p p g g p p p p p p p p p p y y p p p p p p p p p p p p 9 9 9 9 p p p p p p p p 6 6 6 6 6 6 6 6 6 6 6 6 6 6 6 6 4 4 6 6 6 6 6 6 6 6 6 6 6 6 6 6 6 r 6 w 6 6 < < , , * * * * * * , , , , - - * * * * * * & & + + X X X X O O + + & & * * - - - - w w w w 6 6 , < & & # # & & - - d d p p 3 3 - - = = & & & & # # O O + + + + # # & & * * * * & & - - * * * * , , , , , , , , < < 6 6 6 6 , , - , - - , , , , - - , , , , , , , , , , , , , , , , , , , , , , , , , , 4 4 , , 4 4 4 4 4 4 4 4 4 4 4 4 4 4 4 4 4 4 4 4 4 4 4 4 4 4 4 4 4 4 , , , , 4 4 4 4 4 4 , , , , , , , , , , , , , , , , , , 4 4 4 4 4 4 , , , , , , , , , , , , , , : : : : : : , , : : : : , , - , , , : : * * : : * * * * * * * * * * * * * * * * * * * * * * * * * * * * : : : : , , - - : : : : * * * * : : : : * * & * * * * * * * & & & & & & & & * * * * & & & & & & & & & & & & & & & & & & & & ",
"p p p p p p p p p p p p p p p p g g g g g g g g j j j j j j g g g g g g g g j j c c c c j j c c c c c c c c c c j j j c j j j j j j c c j j g g g g g g g g j j g g g g g g p p p p 9 9 9 9 9 9 9 9 p p g g g g g g j j g g g d j j j j j j j j j j j j c c j j g g g g g g p p g g p p p p g g g g g g g g j j j j g g g g 9 9 9 9 9 9 9 9 9 9 9 9 9 9 y p p p p p g g g g j j j j g g g g p p p p p p p p p p p p p p p p j j j j j j c c c c c c c c c c c c j j j j g g g g g g p p y y p p y y p p p p p p g g g g p p g g g g g g g g g g g g g g g g g g g g g g g g g g g g j j j d c c c c c c c c c c j j g g g g g g g g g g g g g g g g g g g g g g g g g g g g p p g g p p p p p p y p p p y 9 p p p g p p p p p p p p 9 9 9 9 p p p p p p p p 6 6 6 6 6 6 6 6 6 6 6 6 6 6 6 6 4 4 6 6 6 6 6 6 6 6 6 6 6 6 6 6 6 w 6 w 6 6 < < , , * * * * * * , , , , - - * * * * * * & & + + X X X X O O + + & & * * - - - - w w w w 6 w < < & & # # & & - - d d p p 3 3 - - = = & & & & # # O O + + + + # # & & * * * * & & - - * * * * , , , , , , , , < < 6 6 6 6 , , - , - - , , , , - - , , , , , , , , , , , , , , , , , , , , , , , , , , 4 4 , , 4 4 4 4 4 4 4 4 4 4 4 4 4 4 4 4 4 4 4 4 4 4 4 4 4 4 4 4 , , , , , , 4 4 4 4 4 4 , , , , , , , , , , , , , , , , , , 4 4 4 4 4 4 , , , , , , , , , , , , , , : : : : : : , , : : : : , , - - , , : : * * : : * * * * * * * * * * * * * * * * * * * * * * * * * * * * : : : : , , , , : : : : * * * * : : : : * * * * * * * * * * & & & & & & & & * * * * & & & & & & & & & & & & & & & & & & & & ",
"6 6 p p p p p p p p p p p p p p p p g g g g g g g g j j j j j c j j g g j j c c c c c j j j c c c c c c j j d d g g g g g g j j g j j j g g g g g g g g g g d d j j g g g g g g p p y y 9 9 p p y y g g g g g g c c c c c c c c c c c c c c c c c c n n c c j j j j j j g g g g g g g g p p p p p p g g g g j j j j g g p p 9 9 9 9 p p p p p g g g g g p p p p p p g g j j j j j j g g g g g g g g g g g g g g j d j j j j c c j j j j c c c c c c c c c c c c c c j j j j j j j g g g g g p p y y p p p p g g p p p p p p g g g g j j j j j j g g g g g g p p p g g g g g g g g g g g j j c c c c m m c c c c j j j j j j g g g g g g g g g g g g g g g g p p g g g g g g g g g g y y y y p p y y p p p p p p p p p p p p p p p p p p y y y p p p p p p p 6 6 6 6 6 6 6 6 6 6 6 6 6 6 6 6 4 4 4 6 6 6 6 6 6 6 6 6 4 4 5 5 , , < < 6 6 6 6 6 6 < < 6 6 p p , , , , * * & & & & * * * * # # # # = = - - - * & & # # + + O O = = < < p p d d p p 3 3 w w d d p p 3 3 = = # # O O + + # # & & & & = = * * & & # # & & & & & & * * * * * * < < 6 6 6 6 6 6 6 6 w w 6 6 , , , , , , , , , , , , , , , , , , , , , , , , , , , , 5 5 , , , , , , 4 4 4 4 4 4 4 4 6 6 6 6 6 6 6 6 6 6 6 6 6 6 6 6 4 4 4 4 4 4 4 4 4 4 , , , , , , 4 4 , , , , , , , 4 , , , , , , , , , 4 , , , , , , 4 4 , , , , , , , , , , , , , , : : : : : : : : : : : : : : , , , , , , , , : : * * * * * * * * * * * * * * * * * * * * * * * * * * : : * * , , : - , , - - : : : : : : : : : : : : : : * * * * * * * * * * & & & & & & & & & & & & & & & & & & & & & & & & & & & & & & ",
"6 6 p p p p p p p p p p p p p p p p g g g g g g g g j j j j j c j j g g j j c c c c c c j j c c c c c c j j d d g g g g g g j j g g j j g g g g g g g g g g j j j j g g g g g g p p y y 9 9 p p y y g g g g g g c c c c c c c c c c c c c c c c c c n n c c j j j j j j g g g g g g g g p p p p p p g g g g j j j j g g p p 9 9 9 9 p p p p p g g g g g p p p p p p g g j j j j j j g g g g g g g g g g g g g g j j j j j j c c j j j j c c c c c c c c c c c c c c j j j j j j j j j g g g p p y y p p p p g g p p p p g p g g g g j j j j j j g g g g g g p p p p g g g g g g g g g g j j c c c c m m c c c c j j j j j j g g g g g g g g g g g g g g g g p p p p g g g g g g g g y y y y p p y y p p p p p p p p p p p p p g p p p p y y y y p p p p p p 6 6 6 6 6 6 6 6 6 6 6 6 6 6 6 6 4 4 4 6 6 6 6 6 6 6 6 6 4 4 5 5 , , < < 6 6 6 6 6 6 < < 6 6 p p , , , , * * & & & & * * * * # # # # = = - - * * & & # # + + O O = = < < p p d d p p 3 3 w w d d p p 3 3 = = # # O O + + # # & & & & = = * * & & # # & & & & & & * * * * * * < < 6 6 6 6 6 6 6 6 w w 6 6 , , , , , , , , , , , , , , , , , , , , , , , , , , , , 5 5 , , , , , , 4 4 4 4 4 4 4 4 6 6 6 6 6 6 6 6 6 6 6 6 6 6 6 6 4 4 4 4 4 4 4 4 4 4 , , , , , , 4 4 , , , , , , 4 4 , , , , , , , , , 4 , , , , , , 4 4 , , , , , , 4 , , , , , , , : , : : , : : : : : : : : : : : , , , , , , : : * * * * * * * * * * * * * * * * * * * * * * * * * * : : * * , , - - , , - - : : : : * : : : : : : : : : * * * * * * * * * * & & & & & & & & & & & & & & & & & & & & & & & & & & & & & & ",
"p p p p p p p p p p p p p p g g g g g g g g g g g g g g g g c c c c j j j j c c c c c j d d c c c c c c j j d d g g g g g g p p g g g g g g g g j j c c j j c c c c g g d g c c g g g g g g g g g g g g g g g g g g j j c c j j j j c c c c c c c c c c c c j j j j g g g g p p 9 9 p p 9 9 g g g g g g g g g j c c g g g g g p g g g g g g g j c c g g g g p p p p g g j j j j j j g g g g g g g g g g g g g g j j j j c c c c c c j j c c c c c c c c j j c c j j j j j j j j c c c c c j p p p p p p g g g g p p p g g g j j j j c c j j j j j j g g g g g g g g g g g g g g c c c c j j g g g j c c j j g g g g g g j j g g g g g g g g g g g g g g g g j j g d g g c g c c g g g g g g g g p p p p g g g g g g g g g g j j g g p p p g p p p p p p p p 9 9 9 9 p p 9 9 9 9 6 6 6 6 6 6 6 6 6 6 6 6 6 6 6 6 6 6 4 4 , , 6 6 p p d d j j p p 6 6 < < 6 6 * * * * & & & & * * , , - - & & * * < < < < = = # # + + & & = = - - - - 3 3 l l M M B B B B B B p p 6 6 - - & & & & & & # # # # - - , , - - = = & & * * - - = = & & & & & & - , 6 6 6 6 6 6 6 6 p p 6 6 < < , , , , < < 6 6 6 6 , , , , , , , , , , , , 4 5 5 5 6 6 4 4 4 4 4 4 6 6 6 6 6 6 6 6 6 6 6 6 6 6 4 4 4 4 4 4 4 4 , , 4 4 4 4 4 4 4 4 4 4 6 6 6 6 6 6 4 4 , , , , 4 4 4 4 4 4 4 4 4 4 4 4 , , , , , , , , , , , , , , 4 4 4 4 , , , , , , , , , - , , : : : : : : : : : : : , - - - , : : * * * * * * * * : : * * & * & & * * * * * * * * * : : : : : - - , , , , - - : : : : : : : : , , : : : : * * * * * * * * * * * * * * & & & & & & & & & & * * & & & & & & & & & & & & & & ",
"p p p p p p p p p p p p p p g g g g g g g g g g g g g g g g c c c c j j j j c c c c c j d d c c c c c c j j d d g g g g g g p g g g g g g g g g g g c c j j c c c c g g g g c c g g g g g g g g g g g g g g g g g g j c c c j j j j c c c c c c c c c c c c j j j j g g g g p p 9 9 9 r 9 9 g g g g g g g g j j c c g g g g g p g g g g g g g j j c g g g g p p p p g g j j j j j j g g g g g g g g g g g g g g d d j j c c c c c c j j c c c c c c c c j j c c j j j j j j j j c c c c j j p p g g p p g g g g p p p g g g j j j j j j j j j j j j g g g g g g g g g g g g g g j c c c g g g g g j c c j j g g g g g g j j g g g g g g g g g g g g g g g g j j g g g g g g c j j g g g g g g g p p p p g g g g g g g g g g j j g g p p p p p p p p p p p p 9 9 9 9 p p 9 9 9 9 6 6 6 6 6 6 6 6 6 6 6 6 6 6 6 6 6 6 4 4 , , 6 6 p p d d j j p p 6 6 < < 6 6 * * * * & & & & * * , , - - & & * * < < < < = = # # + + & & = = - - - - 3 3 l l M M B B B B B B p p 6 w - - & & & & & & # # # # - - , , - - = = & & * * - - = = & & & & & & - - 3 6 6 6 6 6 6 6 p p 6 6 < < , , , , < , 6 6 6 6 , , , , , , , , , , , , 4 5 5 5 6 6 4 4 4 4 4 4 6 6 6 6 6 6 6 6 6 6 6 6 6 6 4 4 4 4 4 4 4 4 , , 4 4 4 4 4 4 4 4 4 4 6 6 6 6 6 6 4 4 4 , , , , 4 4 4 4 4 4 4 4 4 4 4 , , , , , , , , , 4 , , , , 4 4 4 4 , , , , , , , , , - , , : : : : : : : : : , , , : : : , : : : : * * * * * * : : * * & & & & * * * * * * * * * * : : : : - - , , , , - - : : : : : : : * , , : : : : * * * * * * * * * * * * * * & & & & & & & & & & & & & & & & & & & & & & & & & & ",
"p p p p d d j j j j j j j j p p g g g g g g j j j j c c c c c c c c c j j j j j j j j j g g g g g g j d j j c c g g g g g g p g g g p p g g c c c c c c c c c c c c j j c c c c c c c c c c g g g g g g g g g g g g g g g g c c c c c c c c c c d d g g g g g g g g g g g g g g p p p p g g g g y y g g g g y y g g y y 9 9 9 9 g g g g j j j j j j g g g g g g g g g g g g g g g g g g j j j j j j j j j j j j c c j j c c c c c c c c c c c c c c c c c c c c c c j j j j j j c c j j g g g g p p p p g g p p g g g g g g g g j j j j j j g g g g g g g g g g g g g g g g g g g g j j j j c c j j j j j j g g g g g g g g j j j j j j j j j j j j g g g g j j j j j j j j j j j j j j j j c c c c j j g g g g g g g g g g j j c c c c j j g g g g g g c c g g g g g g g g g g p p p p p p 9 9 9 9 9 9 9 9 9 9 9 9 9 9 9 9 p p w w 3 3 < < 6 6 p p w w < < & & & & - - 6 6 p p w w 3 3 < < 6 6 < < , , * * * * - - 6 6 p p d d j j b b S S S S M M M B D D F F M M l l d d w w w w < < & & , , < < - - = = - - 6 6 w w 3 3 < < - - & & & & & & - - - - , , , , < < 6 6 6 6 6 6 6 6 r r r r 6 6 6 6 4 4 6 6 6 6 6 6 6 6 6 6 6 6 6 6 6 6 6 6 9 9 9 9 9 9 9 9 6 6 6 6 6 6 6 6 6 6 6 6 6 6 6 6 4 4 4 4 4 4 4 4 6 6 9 9 9 9 6 6 6 6 6 6 6 6 6 6 6 6 6 6 6 6 4 4 , , , , , , , , , , , , , , 4 , , , , , , , , , , , , , , , , , , , 4 4 , , , , , , , , , , , , : : : : : : : : : : * * * : : : : : : : : : : : : : , , , , : : , , , , , , - - : : : : : : * * * * * * * * * * * * * * * * * * & & & * & & & & & & & & & & & & & & & & & & & & & & & & & & ",
"p p p p d d j j j j j j j j p p g g g g g g j j j j c c c c c c c c j j j j j j j j j j g g g g g g d d j j c c g g g g g g p p p g p p g g c c c c c c c c c c j c j j c c c c c c c c c c g g g g g g g g g g g g g g g g c c c c c c c c c c d d g g g g g g g g g g g g g g p p p p g g g g y y g g g y y y g g y y y 9 9 9 y g g g j j j j j j g g g g g g g g g g g g g g g g g g j j j j j j j j j j j j c c j j c c c c c c c c c c c c c c c c c c c c c c j j j j j j j c j j g g p p p p p p g g p p g g g g g g g g j j j j j j g g g g g g g g y y g g g g g g g g g g j j j j c c j j j j j j g g g g g g g g j j j j j j j j j j j j g g g g j j j j j j j j j j j j j j j j c c c c j j g g g g g g g g g g j j j j c c j j g g g g g g j j g g g g g g g g g g p p p p p p 9 9 9 9 9 9 9 9 9 9 9 9 9 9 9 9 p p w w 3 3 < < 6 6 p p w w < < & & & & - - 6 6 p p w w 3 3 < < 6 6 < < , , * * * * - - 6 6 p p d d j j b b S S S S M M M B D D F F M M l l d d w w w w < < & & , , < < - - = = - - 6 6 w w 3 3 < < - - & & & & & & - - - - , , , , < < 6 6 6 6 6 6 6 6 w w r r 6 6 6 6 4 4 6 6 6 6 6 6 6 6 6 6 6 6 6 6 6 6 6 6 9 9 9 9 9 9 9 9 6 6 6 6 6 6 6 6 6 6 6 6 6 6 6 6 4 4 4 4 4 4 4 4 6 6 9 9 9 9 6 6 6 6 6 6 6 6 6 6 6 6 6 6 6 6 4 4 , , , , , , , 4 , , , , , , 4 , , , , , , , , , , , , , , , , , , , 4 4 4 4 , , , , , , , , , , : : : : : : : : : : * * * : : : : : : : : : : : : : , , , : : : , , , , , , - - : : : : : : * * * * * * * * * * * * * * * * * * & & & * & & & & & & & & & & & & & & & & & & & & & & & & & & ",
"p p p p d d j j j j j j d d p p g g p p g g g g j j j j j j c c c c c c c c c c c c c c j j c c c c c c c c c c j j g g g g p p p p p p g g c c c c c c c c c c c c c c c c j j j j j j j j g g g g g g g g g g g g g g g g c c j j c c c c c c j j d d g g c c j j g g g g g g g g p p g g j j j j g g g g g g g g g g g g y y g g j g j j j c j j g g g g y y y y y y y y g g g g g g j j c c c c c c j j j j j j g g g g g g g g d d c c c c c c c c c c c c c c c c c c c c c c c c j j j j j d g g g g g g g g g g g g c j c c c c c c c c j j j j j j g g j j j j j j j j j j c c c c j j j j g g g g g g g g g g g g j j j j j j j j j j j j j j j j c c c c c c c c c c c c c c c c c c j j g g g g j j c c j j j j j j j j c c j j g g g g g g j j g g g g g g g g g g g g g g g g g g p p p p p p y y p p p p p p p p p p w w 3 3 6 6 0 0 < < = = * * - - < < 6 6 w w 0 0 < < - - * * , , p p p p p p d d l l b b c c c c M M B B M M b b c c b b S S b b b b b b l l l l l l d d 6 6 p p w w - - = = - - < < < < < < , , - - = = & & & & - - < < , , < < 6 6 6 6 6 r 6 6 6 6 6 6 6 6 6 6 4 4 6 6 6 6 6 6 6 6 6 6 6 6 6 6 6 6 9 9 9 9 9 9 9 9 9 9 6 6 6 6 6 6 6 6 6 6 6 6 6 6 6 6 4 4 4 4 4 4 6 6 6 6 9 9 9 9 6 6 4 4 4 4 4 4 4 4 4 4 , , 4 , 4 4 6 6 6 6 6 6 4 4 4 4 , , , 4 , , , , , , , , , , , , , , , , , , , , , , , , , , : : , , , , : : * * : : : : : : : : * * * * : : : : : : : : : : : - : : , , - , - - : : : : : : : : : : : : : : * * * * * * * * * * * * * * * * * * & & & & & & & & & & & & & & & & & & & & & & & & & & & & ",
"p p p p d d j j j j j j d d p p p p p p g g g g j j j j j j c c c c c c c c c c c c c c j j c c c c c c c c c c j d g g g g p p p p p p g g c c c c c c c c c c c c c c c c j j j j j j j j g g g g g g g g g g g g g g g g c c j c c c c c c c j j d d g g j j j j g g g g g g g g p p g g j g j j g g g g g g g g g g g g y y g g j g j j c c j j g g g g y y y y y y y y g g g g g g j j c c c c c c j j j j j j g g g g g g g g j d c c c c c c c c c c c c c c c c c c c c c c c c j j j j j j g g g g g g g g g g g g j j c c c c c c c c j j j j j j g g j j j j j j j j j j c c c c j j j j g g g g g g g g g g g g j j j j j j j j j j j j j j j j c c c c c c c c c c c c c c c c c c j j g g g g j j j c j j j j j j j j c c j j g g g g g g j j g g g g g g g g g g g g g g g g g g p p p p p p y y p p p p p p p p p p w w 3 3 6 6 3 0 < < = = * * - - < < 6 6 w w 0 0 < < - - * * , , p p p p p p d d l l b b c c c c M M B B M M b b c c b b S S b b b b b b l l l l l l d d 6 6 p p w 6 - - = = - - < < < < , , , , - - = = & & & & - - < < , , < < 6 6 6 6 w w 6 6 3 3 6 6 6 6 6 6 4 4 6 6 6 6 6 6 6 6 6 6 6 6 6 6 6 6 9 9 9 9 9 9 9 9 9 9 6 6 6 6 6 6 6 6 6 6 6 6 6 6 6 6 4 4 4 4 4 4 6 6 6 6 9 9 9 9 6 6 4 4 4 4 4 4 4 4 4 4 , , , , 4 4 6 6 6 6 6 6 4 4 4 4 , , 4 4 , , , , , , , , , , , , , , , , , , , , , , , , , , : : , , , , : : * * : : : : : : : : * * * * : : : : : : : : : : : - , : : : : , , , : : : : : : : : : : : : * : * * * * * * * * * * * * * * * * * * & & & & & & & & & & & & & & & & & & & & & & & & & & & & ",
"p p p p p p p p d d p p p p g g p p p p g g g g g g j j j j j j j j j j j j c c c c c c j j c c c c c c c c j j j j g g g g g g g g g g j g c c c c c c c c c c c c j j j j g g g g g g g g g g g g g g g g g g g g g g g g c c j j c c c c c c c c j j j j c c c c j j j j j j j j j j c c j j j j j j j j j j c c c j c j c c c c c c c c c c c c j j j j 9 9 y y y y y y g g g g g g j g c m c c c c c c c c j j g g g g g g g g g g j j c c c c n n c c c c c c c c n n n n n n n n c c c c c c c c j j j j g g g g g g c c c c c c c c d d g d j c c c c c c c c c c c c c c c c c c c c c c c j j j j j j g g g g g g j j j j c c c c c c c c c c c c c c c c c c c c c c c c c c c c c c j j g g g g j j c c c c c c g g j j c c j j g g g g g g j j g g g g g g g g g g g g g g g g p p p p g g p p 9 y 9 9 9 9 9 9 p p p p p p w w 6 6 < < = = # # - - < < 6 6 < < < < < < , , * * * * 6 6 l c M M c c j j p p p p 6 6 p p p p 6 6 5 5 w w p p 6 6 3 3 < < w w d d w w 3 3 p p d d d d l l j j < < & & & & - - , , - - < < < < - - & & & & = & , , , , , , 6 6 w w 6 6 3 3 , , , , 4 4 4 4 4 4 4 4 6 6 6 6 6 6 4 4 6 6 6 6 6 6 6 6 9 9 9 9 9 9 9 9 6 6 6 6 6 6 6 6 6 6 6 6 6 6 6 6 4 4 4 4 4 4 6 6 6 6 9 9 9 9 6 6 4 4 4 4 4 4 4 4 4 4 4 4 4 4 4 4 6 6 6 6 6 6 4 4 , , , , , , : : , , 4 4 4 4 , , , , , , 4 4 4 4 , : - - : : : : : : : : : : : : * * * * * * * * * * * * * * * * : : : : : : : : : - , , : : - - : : : : : : : : : : * * * * * * * * * * * * * * * * * * * * * * * * * * & & & & & & & & & & & & & & & & & & & & & & & & & & ",
"p p p p p p p p d d p p p p p g p p p p g g g g g g j j j j j j j j j j j j c c c c c c j j c c c c c c c c j j j j g g g g g g g g g g g g c c c c c c c c c c c c j j j j j j g g g g g g g g g g g g g g g g g g g g g g c c j j c c c c c c c c c j j j c c c c j j j j j j j j j j c c j j j j c c j j j j c c j j c c c c c c c c c c c c c c j j j j 9 9 y y y y y y g g g g g g j g c m c c c c c c c c j j g j g g g g g g g g j c c c c c n n c c c c n c c c c c n n n n n n c c c c c c c c c j j j g g g g g g c c c c c c c c g d g g c c c c c c c c c c c c c c c c c c c c c c c c j j j j j j g g g g g g j j j j c c c c c c c c c c c c c c c c c c c c c c c c c c c c c c j j g g g g j j c c c c c c g g j j j c j j g g g g g g j j g g g g g g g g g g g g g g g g p p p p g g p p 9 9 9 9 9 9 9 9 p p p p p p w w 6 6 < < = = # # - * < < 6 6 < < < < < < , , * * * * 6 6 l c M M c c j j p p p p 6 6 p p p p 6 6 < < w w p p 6 6 3 3 , < w w d d w w 3 3 p p d d d d l l j j < < & & & & - - , , - - < < < < - - & & & & = & , , , , , , 6 6 w w 6 6 6 3 , , , , 4 4 4 4 4 4 4 4 6 6 6 6 6 6 4 4 6 6 6 6 6 6 6 6 9 9 9 9 9 9 9 9 6 6 6 6 6 6 6 6 6 6 6 6 6 6 6 6 4 4 4 4 4 4 6 6 6 6 9 9 9 9 6 6 4 4 4 4 4 4 4 4 4 4 4 4 4 4 4 4 6 6 6 6 6 6 4 4 , , , , , , : : , , 4 4 4 4 , , , , , , 4 4 4 4 , , - - : : : : : : : : : : : : * * * * * * * * * * * * * * * * : : : : : : : : : : , , : : , , : : : : : : : : : : : * * * * * * * * * * * * * * * * * * * * * * * * * & & & & & & & & & & & & & & & & & & & & & & & & & & ",
"9 9 9 9 p p p p d d p p p p j j j j j j g g g g j j j j j j j j j j j j j j j c c c c c c c c c c c c c c c j j g g g g g g g g g g g g j j c c c c c c c c j j j j j j g g g g g g g g y g y y y y y y g g g y y y y y g g c c c c c c c c c c c c g g j j j j c c c c c c c c c c c c n n c c c c m c c c c c c c c c c c c c j j j j j j j j j j j j c c g g y y y y g g g g j j c c c c j j j j j j c c m c c m c c c c c c j j c c c c c c n n n n n n n n n n c c n n n M M M n n n n n n c c c c c c j j j j g g g g j j j j j j g g g g g g g g c j j c j j c c c c c c c c c c c c c c c c c c j j j j j j j j j j j j j j c c c c c c c c c c m m c c c c c c c c c c c c c c c c c c j j j j g g g g j g j j g g g g g g g g g g g g g g g g j j g g g g g g g g g g p p p p p p 9 9 9 9 9 9 9 9 9 9 9 9 6 6 6 6 p p d d p p w w 6 3 < < = = # + & & < < 3 3 - - - - , < , , = = - - w w c c M M c c p p , , * * , , p p p p * * & & , , 6 6 - - & & & & < < d d 6 6 - - < < p p c c b b l l 3 3 = = & & - - - - - - , , < < - - & & & & = & - - , , , , 6 6 6 6 6 6 < < , , , , 4 4 , , , , , , 4 4 4 4 4 4 4 4 4 4 4 4 6 6 6 6 6 6 6 6 6 6 6 6 6 6 6 6 6 6 4 4 4 4 4 4 4 4 4 4 4 4 4 4 4 4 4 4 6 6 6 6 6 6 4 4 , , , , , , 4 4 4 4 4 4 4 4 4 4 , , , , , , , , : : * * * * * * : : , , : : : : , , : : : : , , : * : : : : : : : : * * * * * * * * * * * * & & * * * * * * * * : : : : : : : : , , , , : : : : : : : : : : : : : : : : : : : : * * * * * * * * * * * * * * * * * * * * & & & & & & & & & & & & & & & & & & & & & & & & & & ",
"9 9 9 9 p p p p d d p p p p j j j j j j g g g g j j j j j j j j j j j j j j j c c c c c c c c c c c c c c c j j g g g g g g g g g g g g j j c c c c c c c c j j j j j j g g g g g g y g g g y y y y y y g g g y y y y y g y c c c c c c c c c c c c g g j j j c c c c c c c c c c c c c n n c c c c c c c c c c c c c c c c c c j j j j j j j j j j j j j j g g g g g g g g j g j j c c c c j j j j j j c c m m m m c c c c c c j c c c c c c c n n n n n n n n n n c c n n n n M M n n n n n n c c c c c c j g j j g g g g j j j j j d g g g g g g g g g g c c j j c c c c c c c c c c c c c c c c c c j j j j j j j j j j j j j j c c c c c c c c c m m m c c c c c c c c c c c c c c c c c c j j j j g g g g j g g j g g g g g g g g g g g g g g g g j j g g g g g g g g g g p g p p p p 9 9 9 9 9 9 9 9 9 9 9 9 6 6 6 6 p p d d p p w w 6 6 < < = = # + & & < < 3 3 - - - - < < , , = = - - w w c c M M c c p p , , * * , , p p p p * * & & , , 6 6 - - & & & & < < d d 6 6 - - < < p p c c b b l l 3 3 = = & & - - - - - - , , < < - - & & & & = = - - , , , < 6 3 6 6 6 6 < < , , , , 4 4 , , , , , , 4 4 4 4 4 4 4 4 4 4 4 4 6 6 6 6 6 6 6 6 6 6 6 6 6 6 6 6 6 6 4 4 4 4 4 4 4 4 4 4 4 4 4 4 4 4 4 4 6 6 6 6 6 6 4 4 , , , , , , 4 4 4 4 4 4 4 4 4 4 , , , , , , , , : : * * * * * * : : , , , : : : , , : : : : , , * * : : : : : : : : * * * * * * * * * * * * * & * * * * * * * * : : : : : : : : , : : , , : : : : : : : : : : : : : : : : : : : * * * * * * * * * * * * * * * * * * * * & & & & & & & & & & & & & & & & & & & & & & & & & & ",
"p p p p g p j j j j j j j j c c c c c c j j j c j j j j c c c c c c c c c c c c c c c c c c d d j j j j g g g g g g g g g g 9 9 9 9 9 9 p p p g g g g g g g g g g g g g g g g g g y y y p p g g g g g g g g g g g g g g g g g g d g j j c c c j c c j j j j c c c c c c c c c c c c c c n n n n n n c c c c c c c c c c c c g g g g g g g g g g g g g g g g g g g j j j g g j j c c c c c c j j c c c c c c n n n n n n c c c c j j j j c c c c c c n n n n n n c c c c c c c c c c c c c c c c c c c c c c g g j j g g g g g g g g g g g g p y 9 9 p p g g g g g g g g g g g g g g g g g g g g g g g g g p p y 9 9 9 9 9 9 g g g g g g j j c c c c c c c c c c c c c c c c c c c c c c c c c c g g g g g g g g g g g g g g g g g g g g g g g g g g g g g g p p p p p p p p 9 9 9 9 6 6 6 6 6 6 6 6 6 6 6 6 6 6 6 6 6 6 6 6 p p p p p p 6 6 < < < < , , * * * * < < 6 6 , , - - < < , , * * * * , , w w j j l l d d w w < < w w b b c c < < & & - - - - * * & & - - d d b b d d , , 3 3 d d l l j j w w - - & & & & * * - - , , , , < < , , - - - - - - , , , , , , , , , , < < < < 3 6 6 6 4 4 4 4 4 4 4 4 4 4 6 6 4 4 4 4 4 4 4 4 4 4 4 4 4 4 4 4 4 4 4 4 4 4 , , 4 4 4 4 4 4 4 4 4 4 4 4 4 4 - - - - , , 4 4 4 4 4 4 , , : : - - - - - - , , , , , , , , , - : : : : : : : : * * * * * * * * * * * * * * * * * * * * * * * * * * * * * * * * * * * * * * * * * * * * * * * * * * * * * * * * * * * * * * * * : : : : * * : : * * * * : : : * : : : : : * * * * * * * * * * * * * * * & & & & & & & & & & & & & & & & & & & & & & & & & & & & & & & & ",
"p p p p g p j j j j j j j j c c c c c c j j j j j j j j c c c c c c c c c c c c c c c c c c j j j j j j g g g g g g g g g g 9 9 9 9 9 9 p p p p g g g g g g g g g g g g g g g g g g 9 y p p g g g g g g g g g g g g g g g g g g j g j j c c c j j j j j j j c c c c c c c c c c n c c c c n n n n n c m c c c c c c c c c c g g g g g g g g g g g g g g g g g g j j j j g g j j c c c c c c j j c c c c c c n n n n n n c c c c c c j c c c c c c c n n n n n n c c c c c c c c c c c c c c c c c c c c j j g g j j g g g g g g g g g g g g p y 9 9 p p g g g g g g g g g g g g g g g g g g g g g g g g p p 9 y 9 9 9 9 9 9 g g g g g g c j c c c c c c c c c c c c c c c c c c c c c c c c c c g g g g g g g g g g g g g g g g g g g g g g g g g g g g g g p p p p p p p p 9 9 9 9 6 6 6 6 6 6 6 6 6 6 6 6 6 6 6 6 6 6 6 6 p p p p p p 6 6 < < < < , , * * * * < < 6 6 , , - - < < , , * * * * , - w w j j l l d d w w < < w w b b c c < < & & - - - - * * & & - - d d b b d d , , 3 3 d d l l j j w w - - & & & & * * - - , , , , < < , , - - - - - - , , , , , , , , , , < < < < 3 6 6 6 4 4 4 4 4 4 4 4 4 4 6 6 4 4 4 4 4 4 4 4 4 4 4 4 4 4 4 4 4 4 4 4 4 4 , , 4 4 4 4 4 4 4 4 4 4 4 4 4 4 , : : - , , 4 4 4 4 4 4 , , : : - - - - - - , , , , , , , , , - : : : : : : : : * * * * * * * * * * * * * * * * * * * * * * * * * * * * * * * * * * * * * * * * * * * * * * * * * * * * * * * * * * * * * * * * : : : : * * : : * * * : : : : * : : : : : : * * * * * * * * * * * * * * & & & & & & & & & & & & & & & & & & & & & & & & & & & & & & & & ",
"g g g g j j l l c c c c c c c c c c c c j j j j j j j j c c c c c c j j j j c c c c j j j j g g g g g g g g g g g g g g g g 9 9 9 9 9 9 9 9 p r p p p p p p p p y y 9 9 p p p p p p p p p p p p g g g g p p p p p p p p p p p p g g g g g g j j c c c c c c c c c c c c c c c c c j j j j c j c c j j j j j g g g g g g p p g g g g g g g g g g g g j j g g g g g g g g g g g g g g j j j j j j j j c c c c c c c c c c j j j j g g g g g g j c c c c c c c c c c c c c c c c c c c j j g g j j j j g g g g g g g g g g g g p p p p p p g g p p 9 9 y p p p p y p p 9 9 p p p p p p p p p p 9 9 9 9 9 9 9 9 6 6 6 6 6 6 9 9 9 9 p p 9 9 p p g g g g g g p p p p p p g g p p p p p p p p g g g g y y 9 9 9 9 p p g g g g g g g g g g y y p p p p g g g g p p 9 9 9 9 9 9 6 6 6 6 6 6 6 6 6 6 6 6 6 6 6 6 9 9 p y p p p p p p p p p p w w 6 6 < < 6 6 6 6 < , < < 6 6 6 6 < < , , < < , , & & & & & & = = < < p p j j d d d d p p b b b b d d < < < < 3 3 < < < < w w l c B B d d 6 3 p p d d w w < < * * & & & & & & & & & & < < , , , , < < < < 6 6 3 3 < < , , - - , , , , , , 6 6 6 6 6 6 6 6 6 6 6 6 6 6 6 6 6 6 6 6 6 6 , , , , , , , , , , , , , , , , : : , , , , : : : : , , , , , , : : : : : : : : : : , , , , , , * * : : : : : : : : : : : : : : : : : : : : : : : : * * : : * * * * * * * * * * * * * * * * * * * * * * * * * * * * * * * * * * * * * * * * * * * * * * & & * * * * * * * & * * * * * * * * * * & * * * * * * * * * * * * * * * & & & & & & & & & & & & * * & & & & & & & & & & & & & & & & & & & & & & & & & & & & & & & & ",
"g g g g j j l l c c c c c c c c c c c c j j j j c c j j c c c c j c j j j j c c c c j j j j g g g g g g g g g g g g g g g g 9 9 9 9 9 9 9 9 p r p p p p p p p p y y y y p p p p g p p p p p p p g g g g p p p p p p p p p p p p g g g g g g j j c c c c c c c c c c c c c c c c c c j j j c j j c j j j j j g g g g g g p p g g g g g g g g g g g g j j j j g g g g g g g g g g g g g g j j j j j j c c c c c c c c c c j j j j g g g g g g j c c c c c c c c c c c c c c c c c c c j j g g j j j j g g g g g g g g g g g g p p p p p p g g p p 9 9 p p p p p y p p y y p p p p p p p p p p 9 9 9 9 9 9 9 9 6 6 6 6 6 6 9 9 9 9 p p 9 9 p p g g g g g g p p p p p p g g p p p p p g p p p p p p y y 9 9 9 9 p p g g g g g g g g g g y y p p p p g g g g p p 9 9 9 9 9 9 6 6 6 6 6 6 6 6 6 6 6 6 6 6 6 6 9 9 p p p p p p p p p p p p w w 6 6 < < 6 6 6 6 , , < < w 6 6 6 < < , , < < , , & & & & & & = = < < p p l j d d d d p p b b b b d d < < < < 3 3 < < < < w w l l B M d d 6 3 p p d d w w < < * * & & & & & & & & & & < < , , , , < < < < 6 6 3 3 < < , , - - - , , , , , 6 6 6 6 6 6 6 6 6 6 6 6 6 6 6 6 6 6 6 6 6 6 , , , , , , , , , , , , , , , , : : , , , , : : : : , , , , , , : : : : : : : : : : , , , , : , * * : : : : : : : : : : : : : : : : : : : : : : : : * * : : * * * * * * * * * * * * * * * * * * * * * * * * * * * * * * * * * * * * * * * * * * * * * * & & * * * * * * * & * * * * * * * * * * & * * * * * * * * * * * * * * * * & & & & & & & & & & & * * * * & & & & & & & & & & & & & & & & & & & & & & & & & & & & & & ",
"g g j j j j j j c c j j j j j j j j j j j j g g j j j j j j j j g g g g g g g g g g g g g g j j g g g g p g g g p p p p g g g g p p y y g g g g g g g g g g g g g g g g g g g g g g g g g g g g g g g g g g g g g g g g g g g g g g g g g g j j j j c c c c d d j j j j g g g g g g g g p p g p p p y y p p p p p p p p p p j j c c j j g d j j j j j j j g p p p y p y p p g g g g g g g g j j j j j j c c c c c c j j g g p p p p p p p p p p g j j j g g j j j j j j j j c c j j g g g g g g g g p p p p 9 9 9 9 9 9 9 9 9 9 p p y y y y 9 9 9 9 9 9 p p 9 9 9 9 9 9 9 9 9 9 9 9 9 9 9 9 9 9 9 9 9 9 9 9 9 9 9 9 9 9 9 9 p y p p g g g p p p y 9 9 9 9 9 9 9 9 9 9 9 9 9 9 9 9 9 9 9 9 9 y p 9 9 9 9 9 9 9 9 p g g g g g p p p p 9 9 9 9 p p p p 9 9 9 9 6 6 6 6 6 6 6 6 6 6 6 6 6 6 6 6 p p p p p p p p p p p p p p p p p p p p w w 6 6 < < 6 6 6 6 < < 6 6 6 6 < < < < 6 6 , , * * & & & & & & # # & & - - < < w w 6 6 w w d d l l b b b b l l l l c c l l c c B B b b p d 6 6 p p d d - - = = & & # # # # & & & & & & , , - - - - - - < < 3 3 < < < < , , , , , , , , < < 6 6 6 6 6 6 6 6 6 6 6 6 6 6 6 6 6 6 6 6 6 6 : : , , : : : : , , : : , , , , : : : : , , , , : : , , , , , , : : : : : : : : : : , , : - : : : : : : : : : : : : * * * * * * : : - - - - : : : : * * * * * * * * * * * * * * * * * * * * * * * * * * * * * * * * * * * * * * * * * * * * * * & & & & & & & & & & & & & & & & & & * * * * & & & & & & * * & & & & * * & & & & & & & & & & & & & & & & & & & & & & & & & & & & & & & & & # & & # # # # # # # # # # # # # # ",
"g g j j j j j j c c j j j j j j j j j j j j g g j j j j j j j j g g g g g g g g g g g g g g j j g g g g p g g g p p p p g g g g p p y p g g g g g g g g g g g g g g g g g g g g g g g g g g g g g g g g g g g g g g g g g g g g g g g g g g j j j j c c c c d d j j j j g g g g g g p g y y p p p p p y p p p p p p p p p p j j c c j j j j j j j j j j g g p y p p p p p p g g g g g g g g j j j j j j c c c c c c j j g g p p y y p p p p p p g j g j g g j j j j j j j j c c j j g g g g g g g g p p p p 9 9 9 9 9 9 9 9 9 9 p p y y p p 9 9 9 9 9 9 p p 9 9 9 9 9 9 9 9 9 9 9 9 9 9 9 9 9 9 9 9 9 9 9 9 9 9 9 9 9 9 9 9 p y p p g g g g p p y 9 9 9 9 9 9 9 9 9 9 9 9 9 9 9 9 9 9 9 9 9 y y 9 9 9 9 9 9 y y p p g g g g p p p p 9 9 9 9 p p y p 9 9 9 9 6 6 6 6 6 6 6 6 6 6 6 6 6 6 6 6 p p p p p p p p p p p p p p p p p p p p w w 6 6 < < 6 6 6 6 < < 6 6 6 6 < < < < 6 6 , , * * & & & & & & # # & & - - < < w w 6 6 w w d d l l b b b b l l l l c c l l c c B B b b p p 6 6 p p p p - - = = & & # # # # & & & & & & - , - - - - - - < < 3 3 < < < < , , , , , , , , < < 6 6 6 6 6 6 6 6 6 6 6 6 6 6 6 6 6 6 6 6 6 6 , : : , : : : : , , : : , , , , : : : : , : , , : : , , , , , , : : : : : : : : : : , , : - : : : : : : : : : : : : * * * * * * : : - - - - : : : : * * * * * * * * * * * * * * * * * * * * * * * * * * * * * * * * * * * * * * * * * * * * * * & & & & & & & & & & & & & & & & & & * * * * & & & & & & & & & & & & * & & & & & & & & & & & & & & & & & & & & & & & & & & & & & & & & & & & & & # # # # # # # # # # # # # + ",
"p p p p d d j j j j d d p p g g g g g g g g g g g g g g g g j j j d g g j j c c c c j j c c c c j j g g g g p y p p p p p p p p p p p p y y g g g g g g p p g g g g g g g g g g g g g g g g g g g g g g g g g g g g g g g g j j j j g g g g g g g g g g g g p p p p p p p p 9 9 9 9 9 9 9 9 g g p p g g g g g g g g g g g g g g g g g g g g g g g g y p 9 p 9 9 9 9 9 9 9 9 9 9 9 p g g g g g g g g g g j j c c j j g g g g y y 9 9 9 9 9 9 p p g g g g g g g g g g g g g g j j j j g g g g p p p p 9 9 9 9 6 6 6 6 6 6 6 6 6 6 9 9 9 9 9 9 9 9 9 9 9 9 9 9 9 9 9 9 9 9 9 9 9 9 9 9 9 9 9 9 9 9 9 9 9 9 9 9 9 9 9 9 9 9 p p g g g g g g g g g g g g p p g g g g p p p p g g p p p p p p p p g g p p 9 9 9 9 9 9 y y y p p p p p p p 9 9 9 9 9 9 9 9 9 9 6 6 4 4 4 4 6 6 6 6 6 6 6 6 6 6 p 9 p p p p p p p p p p p p p p p p p p p p w w 6 6 6 6 6 6 < < , , 6 6 , , - - , , < < , , & & # # & & & & # # # # & & & & - - - - = = & & < < l l b b l l d d j j l l l l l l w w & & & & ; ; = & * * & & # # # # # # # # & & & & * * * * * * - - - - - - , , , , , , , , , , < < 6 6 r 6 6 6 < < 5 5 , , , , , , 4 4 6 6 6 6 4 4 , , , , , , , , : , : : : , , , : : : : : : , , , , , , , , , , : : , - : : , : , , , , - - - - , , - - - - : : : : : : : : : : , , , , : : : : : : * * * * * * * * * * * * * * * * * * * * * * * * * * * * * * * * * * * * * * * * * * & * & & & & & & $ + $ $ & $ & & + + $ + & & * & & & & & & & & & & & & # & # & & & & + + & & & & # # # # & & & & # # & & & & & & & & & & & & & & & & # # # # # + + + # # # # # + + + ",
"p p p p d d j j j j d d p p g g g g g g g g g g g g g g g g j j j d g g j j c c c c j j c c c c j j g g g g p p p p p p p p p p p p p p y y g g g g g g p p g g g g g g g g g g g g g g g g g g g g g g g g g g g g g g g g j j j j g g g g g g g g g g g g p p p p p p p p 9 9 9 9 9 9 9 9 g g p p g g g g g g g g g g g g g g g g g g g g g g g g y p y p 9 9 9 9 9 9 9 9 9 9 r p g g g g g g g g j g j c c c j j g g g g p y 9 9 9 9 9 9 p p g g g g g g g g g g g g g g j j j j g g g g p p p p 9 9 9 9 6 6 6 6 6 6 6 6 6 6 9 9 9 9 9 9 9 9 9 9 9 9 9 9 9 9 9 9 9 9 9 9 9 9 9 9 9 9 9 9 9 9 9 9 9 9 9 9 9 9 9 9 9 9 p p g g g g g g g g g g g g p p p g g g p p p p g g p p p p p p p p g g p p 9 9 9 9 9 9 y y y p p p p p p p 9 9 9 9 9 9 9 9 9 9 6 6 4 4 4 4 6 6 6 6 6 6 6 6 6 6 p p p p p p p p p p p p p p p p p p p p p p w w 6 6 6 3 6 6 < < , , 6 6 , , - - , , < < , , & & # # & & & & # # # # & & & & - - - - = = & & < < l l b b l l d d j j l l l l l l w w & & & & ; ; = & * * & & # # # # # # # # & & & & * - * * * * - - - - - - , , , , , , , , , , < < 6 6 r 6 6 6 < < 5 5 , , , , , , 4 4 6 6 6 6 4 4 , , , , , , , , , , : : : : , , : : : : : : , , , , , , , , , , : : , - : : , , , , , , - - - : : , - - - - : : : : : : : : : : , , , , : : : : : * * * * * * * * * * * * * * * * * * * * * * * * * * * * * * * * * * * * * * * * * * * & & & & & & & & $ + $ $ & $ & & + + $ + & & * * * & & & & & & & & & & & & # & & & & + + # & & & & & & # & # & & & # & & & & & & & & & & & & & & & & # # # # # # + + # # # # + + + + ",
"p p d d j j j j d d g g g g g g j j j j j j j j c c j j j j c c j j j j j j c c c c c c c c j j j g g g g g g g g g y p 9 9 p p g g g g p p p p g g g g g g g g g g g g g g g g g g g g g g g g g g g g g g j j j j j g j j c c c c c c j j g g g g g g g g j j g g g g p p p g g p g g g g g g g g g g g g j j j j c c c c g g g g g g j j g g g g g g g g p p y y p p g g g g g g j j j j g g g g g g g g g g j j g g g g 9 9 9 9 9 9 9 9 9 9 9 9 6 6 6 6 9 9 9 9 9 9 9 9 9 9 6 6 6 6 6 6 6 6 6 6 6 6 6 6 9 9 9 9 p p p p 9 9 9 9 9 9 9 9 9 9 9 9 9 9 9 9 9 9 9 9 9 9 9 9 9 9 9 9 9 9 9 9 9 9 9 9 6 6 6 6 6 6 9 9 9 9 9 9 g g g g g g g g g g g g g g g g p p g g g g g g p p p p p p p p g g g g 9 9 9 9 9 9 9 9 9 9 6 6 4 4 4 4 4 4 6 6 6 6 9 9 9 9 p p 6 6 6 6 6 6 6 6 6 6 6 6 6 6 6 6 6 6 6 6 4 4 4 4 6 6 6 6 6 6 4 4 , , < < 6 6 6 6 6 6 < < , , , , - - * * * * * * , , , , , , , , - - - - * * # # + + & & * * * * & & & & & & * * , , < < 6 6 w w w w < < = = # # # # & & = = = * * * # # O O # # * * - - - - - - - - * - - - - - * = & & = = - - - - - - - - - - , , , , - - - - * * * * * * * * * * , , , , , , : : : : : * : : , , , , , , * * * * * * * * * * * * * * * * * * * * * * * * * * * * * * * * * * * * : : , , , , , , , , : : * : : : * * : : : : : : * * * * * * * * * * * * * * * * * * * * * * * * * * * * & & & & & & & * & & + + + + + + + + + + + + + + + + + + + + + + + + + + + + + $ & & # # # # # # # # # # + + + + + + + + + + + + + + # # # # # # # # & & & & & & & & & & & & & & & & # # # # # # # # # # # # # # ",
"p p d d j j j j d d g g g g g g j j j j j j j j c c j j j j c c j j j j j j c c c c c c c c j j g g g g g g g g g g p p 9 9 p g g g g g p p p p g g g g g g g g g g g g g g g g g g g g g g g g g g g g g g j j j j g g j j c c c c c c j j g g g g g g g g j j g g g g p p p p g g g g g g g g g g g g g g j j c c c c c c g g g g g g j j g g g g g g g g p p y y p p g g g g g g j j j j g g g g g g g g g g j j g g g g 9 9 9 9 9 9 9 9 9 9 9 9 6 6 6 6 9 9 9 9 9 9 9 9 9 9 6 6 6 6 6 6 6 6 6 6 6 6 6 6 9 9 9 9 p p p p 9 9 9 9 9 9 9 9 9 9 9 9 9 9 9 9 9 9 9 9 9 9 9 9 9 9 9 9 9 9 9 9 9 9 9 9 6 6 6 6 6 6 9 9 9 9 9 9 g g g g g g g g g g g g g g g g p p g g g g g g p p p p p p p p g g g g 9 9 9 9 9 9 9 9 9 9 6 6 4 4 4 4 4 4 6 6 6 6 9 9 9 9 p p 6 6 6 6 6 6 6 6 6 6 6 6 6 6 6 6 6 6 6 6 4 4 4 4 6 6 6 6 6 6 5 4 , , < < 6 6 6 6 6 6 < < , , , , - - * * * * * * , , , , , , , , - - - - * * # # + + & & * * * * & & & & & & * * , , < < 6 6 w w w w < < = = # # # # & & = = = * * * # # O O # # * * - - - - - - - - * * - - - - * = & & = = - - * - - - - - - - , , , , - - - - * * * * * * * * * * : : , , , , , , : : : * : : , , , , , , * * * * * * * * * * * * * * * * * * * * * * * * * * * * * * * * * * * * : : , , , , , , , , : : : : : : * * : : : : : : * * * * * * * * * * * * * * * * * * * * * * * * * * * * & & & & & & & * & & + + + + + + + + + + + + + + + + + + + + + + + + + + + + + + # # # # # # # # # # # # + + + + + + + + + + + + + + # # # # # # # # & & & & & & & & & & & & & & & & # # # # # # # # # # # # # # ",
"w r r r p p j j j j j j j j j j j j j j j j j j j g g g j j g g g g g g c c c c c c c c j j g g p p p p p p y y y p 9 9 9 9 9 9 y y p p p p g g g g g g g g g g g g g g g g g g g g g g g g j j j j j j c j j j c c c c c c j j j j j j c c g g g g g g g g g g g g g g g g p p p p g g p p g g g g g g g g g g g g g g g g g g g g g g g g g g g g g g g g j j j j j j j j j j j j j j j j j j g g g g g g j j j j g g g g p p 9 9 9 9 9 9 9 9 9 9 9 9 6 6 4 4 6 6 6 6 6 6 6 6 6 6 4 4 4 4 4 4 4 4 6 6 6 6 6 6 6 6 6 6 6 6 6 6 6 6 6 6 6 6 6 6 6 6 6 6 6 6 9 9 9 9 9 9 9 9 9 9 y y p p p p 9 9 9 9 9 9 6 6 9 9 9 9 9 9 p p p p p p p p g g g g g g g g g g p p g g g g g g p p 9 9 9 9 p p p p 9 9 9 6 6 6 6 6 6 6 6 6 6 6 , , , , 4 4 4 4 4 4 6 6 6 6 6 6 6 6 6 6 6 6 6 6 6 6 6 6 6 6 6 6 6 6 4 4 : : * * * * * * , , , , , , - - * * * * , , , < < , , , * * * * & & & & & & * * , , < < , , w w d d 6 6 - - & & & & & & & & # # O O # # - - w w l l b b d d w w - - # # O O O O # # & & & & # # & & < < p p p p w w < < - - = = & & & & & & & & = = - - * * * * * * & & & & & & * * , , * * & & + + + + $ $ * * * * * * , : : : * * * * , , , , : : * * * * * * * * * * * * * * * * * * * * * * * * * * * * * * * * * * * * : : : : : : : : , : : : : : : : * * : : : : * * * * * * * * * * & & & & & & & & & & & & & & & & & & * * & & & & & & & & & & + + $ $ + + + + + + $ $ + + + + + + + + + + + + + + + + + + # # + + + + + + + + + + + + + + + + + + + + + + + + + + # # # # # # + + + + + + + + # # # # # # # # + + + + + + + + + + + + + + ",
"w r r r p p j j j j j j j j j j j j j j j j j j j j g g j j g g g g g g c c c c c c c c c c g g p g p p p p p y y y 9 9 9 9 9 9 y y p p p p g g g g g g g g g g g g g g g g g g g g g g g g j j j j j j c j j j c c c c c c j j j j j j c c g g g g g g g g g g g g g g g g p p p p p g p p g g g g g g g g g g g g g g g g g g g g g g g g g g g g g g g g j j j j j j j j j j j j j j j j j j g g g g g g j j j j g g g g p p 9 9 9 9 9 9 9 9 9 9 9 9 6 6 4 4 6 6 6 6 6 6 6 6 6 6 4 4 4 4 4 4 4 4 6 6 6 6 6 6 6 6 6 6 6 6 6 6 6 6 6 6 6 6 6 6 6 6 6 6 6 6 9 9 9 9 9 9 9 9 9 9 y y p p p p 9 9 9 9 9 9 6 6 9 9 9 9 9 9 p p p p p p p p g g g g g g g g g g p p g g g g g g p p 9 9 9 9 p p p p 9 9 9 6 6 6 6 6 6 6 6 6 6 6 , , , , 4 4 4 4 4 4 6 6 6 6 6 6 6 4 6 6 6 6 6 6 6 6 6 6 6 6 6 6 6 6 4 4 : : * * * * * * , , , , , , - - * * * * , , , , < , , , * * * * & & & & & & * * , , < < , , w w d d 6 6 - - & & & & & & & & # # O O # # - - w w l l b b d d w w - - # # O O + + # # & & & & # # & & < < d d p p w w < < - - = = & & & & & & & & = = - * * * * * * * & & & & & & * * , , * * & & + + + + $ $ * * * * * * : : : : * * * * , , , , : : * * * * * * * * * * * * * * * * * * * * * * * * * * * * * * * * * * * * : : : : : : : : , , : : : : : : : : : : : : * * * * & & * * * * & & & & & & & & & & & & & & & & & & * * & & & & & & & & & & + + $ $ + + + + + + $ $ + + + + + + + + + + + + + + + + + + # # + + + + + + + + + + + + + + + + + + + + + + + + + + # # # # # # + + + + + + + + + + # # # # # # + + + + + + + + + + + + + + ",
"p p 6 6 6 6 p p p p p p p p g g g g g g g g g g g g g g g g p p g g g g j j j j j j j j g g g g g g g p p p p g p p p p 9 9 6 6 6 6 9 9 9 9 p p p p p p g g g g p p p p g g g g p p p p p p p p p p g g g g g g j j j j j j g g g g j j g g g g g g g g g g g g g g g g g g p p p p p p p p g g p p p g p y y y p p p p p p p p g p g g g g g g g g p p p p p p g g g g p p p p p g g p p p p p p p p p g g g g p p p p 9 9 p p 9 9 9 9 9 9 9 9 9 9 9 9 9 9 , , 4 4 4 4 4 4 6 6 6 6 6 6 6 6 , , , , , , , , , , , , , 4 , , , , , , , , , , , , 4 4 4 4 4 4 4 4 4 4 6 6 6 6 6 6 9 9 9 9 6 9 4 4 4 4 4 4 4 4 4 4 4 4 6 6 6 6 9 9 9 9 9 9 p p p p p p p p p g 9 9 p p p p p p 9 9 9 9 9 9 9 9 9 9 6 6 4 4 4 4 4 4 4 4 4 4 4 4 , , , , , , , , 4 4 4 4 4 4 4 4 4 4 , , , , 4 4 4 4 4 4 6 6 6 6 , , : : & & + + + + + + * * 5 5 6 6 * * # # # # * * , , , , , , * * * * & & # # + + + + & & - - < < d d l l d d - - & & + + + + & & + O O O # # - - 6 0 d d l l d d w w - - & & & & # # # # # # + + # # & & 6 6 d d d d 6 6 < < - - & & + + # # & & = = = = * * & & & & & & + + O O + + * * 6 6 - - & $ O + O O + + * * * * * * : : : : * * * * * * : : * * * * * * * * * * * * * * * * * * & & * * * & * * * * * * * * * * * * * * * * * * * * * * * * * * : : * * * * * * * * * * * * & & & & & & & & & & & & & & & & & & & & & & & & & & & & & & $ $ $ $ & & & & & & & & & & & & & & & & $ $ + + + + + + + + + + + + + + # # + + + + + + + + + + + + + + + + + + + + + + + + + + + + + + + + + + + + + + + + + + + + + + + + + + + + + + + + + + + + + + ",
"p p 6 6 6 6 p p p p p p p p g g g g g g g g g g g g g g g g p p g g g g j j c j j j j j g g g g g g g p p p g g p p p p 9 9 6 6 6 6 9 9 9 9 p p p p p p g g g g p p g g p p g g p p p p p p p p p g g g g g g g j j j j j j g g g g j j g g g g g g g g g g g g g g g g g g p p p p p p p p g g p p p g p p p y y y p p p p p p p p g g g g g g g g p p p p p p g g g g p p p p p g p p p p p p p p p p g g p p p p p p 9 9 p p 9 9 9 9 9 9 9 9 9 9 9 9 9 9 , , 4 4 4 4 4 4 6 6 6 6 6 6 6 6 , , , , , , , , , , , 4 , , , , , , , , , , , , , , 4 4 4 4 4 4 4 4 4 4 6 6 6 6 6 6 9 9 9 9 6 6 4 4 4 4 4 4 4 4 4 4 4 4 6 6 6 6 9 9 9 9 9 9 p p p p p p p p p p 9 9 y y p p p p 9 9 9 9 9 9 9 9 9 9 6 6 4 4 4 4 4 4 4 4 4 4 4 4 , , , , , , 4 4 4 4 4 4 4 4 4 4 4 4 , , 4 , 4 4 4 4 4 4 6 6 6 6 , , : : & & + + + + + + * * 5 5 6 6 * * # # # # * * , , , , , , * * * * & & # # + + + + & & - - < < d d l l d d - - & & + + + + & & + + O O # # - - 6 w d d l l d d w w - - & & & & # # # # # # + + # # & & 6 6 d d d d 6 6 < < - - & & + + # # & & = = = * * * & & & & & & + + O O + + * * 6 6 - - & + O + O O + + * * * * * * : : : : * * * : * * : : * * * * * * * * * * * * * * * * * * & & * * * * * * * * * * * * * * * * * * * * * * * * * * * * * * : : * * * * * * * * * * * * & & & & & & & & & & & & & & & & & & & & & & & & & & & & & & $ $ $ $ & & & & & & & & & & & & & & & & $ $ + + + + + + + + + + + + + + # # + + + + + + + + + + + + + + + + + + + + + + + + + + + + + + + + + + + + + + + + + + + + + + + + + + + + + + + + + + + + + + ",
"M M b b j j p p 9 9 9 9 6 6 p p g p p g p p g g g g g g g g g g g g g g j j j j d d g g p p g g g g g g y y p p p p 9 9 9 9 4 4 4 4 4 4 4 4 6 6 9 6 6 6 9 9 9 9 9 9 9 9 9 9 9 9 9 9 9 9 9 9 9 9 9 9 9 9 9 9 p p p p g g p p p p p g g g p p p g p p p p g g p p p p g g g g p p y y 9 9 9 9 9 9 9 9 9 9 9 9 9 9 9 9 9 9 9 9 9 9 9 9 9 9 9 9 9 9 9 9 9 9 9 9 4 4 4 4 4 4 6 6 6 6 6 6 9 9 9 9 9 9 9 9 9 9 9 9 9 9 9 9 9 9 6 6 9 9 9 9 6 6 6 6 9 9 9 9 9 9 6 6 4 4 4 4 6 6 6 6 6 6 6 6 6 6 6 6 , , : , : : , , , , : : : , , , 4 4 , , 4 4 , , 6 6 6 6 6 6 6 6 , , , , , , 4 4 4 4 4 4 4 4 4 4 : , : : , , , , , , , , , , 4 4 4 4 6 6 6 6 6 6 6 6 6 6 6 6 6 6 9 9 9 9 9 9 9 9 6 6 9 9 6 6 4 6 4 4 4 4 , , , , , , 4 4 4 4 , , 4 4 4 4 4 4 4 4 , , , , , , 4 4 , , , , , , , , , , , , , , , , * * * * & & + + + + & & , , r r 6 6 * * + + O O & & * * * * * * * * * * * * * * & & & & & & * * - - 3 3 6 6 - - & & O O + + # # & & & & = = - - , , - - - - - - < < - - - - - - - - - - * * * * & & # # # # & & - - - - - - & & & & & & # # & & - - * * = = = = & & & & # # + + O O + + * * < < , , * * # # + + * * * * * * * * * * & & * * * * * * * * & & * * * * * * & & & & * * * * & & & & & & & * * * * * * * * * * * * * & & & & & & & & & & & & * * * * * * & & & & * & * * & & & & $ $ & & & & & & & & & & & & & & & & & & $ $ + + & & & & & & $ $ & & + + + + + + + + + + + + + + + + + + + + + + + + + + + + + + + + + + + + + + + + + + + + + + + + + + + + + + + + + + + + + + + + + + + + + + + + + + + + + + + + + + + + + + + + + + + + + + ",
"M M b b j j p p 9 9 9 9 9 6 p p p p g g g p g g g g g g g g p p g g g g j j j j d d g g p p g g g g g g y y y y p p 9 9 9 9 4 4 4 4 4 4 4 4 6 6 9 6 6 6 9 9 9 9 9 9 9 9 9 9 9 9 9 9 9 9 9 9 9 9 9 9 9 9 9 9 p p p p p g g p p p p p g g p p p p p p p p g g p p p p g g g g p p y y 9 9 9 9 9 9 9 9 9 9 9 9 9 9 9 9 9 9 9 9 9 9 9 9 9 9 9 9 9 9 9 9 9 9 9 9 4 4 4 4 4 4 6 6 6 6 6 6 9 9 9 9 9 9 9 9 9 9 9 9 9 9 9 9 9 9 6 6 9 9 9 9 6 6 6 6 9 9 9 9 9 9 6 6 4 4 4 4 6 6 6 6 6 6 6 6 6 6 6 6 , , , , : : : , , , : : : , , , , , , , 4 4 4 4 6 6 6 6 6 6 6 6 , , , , , , 4 4 4 4 4 4 4 4 4 4 : , : : , , , , , , , , , , 4 4 4 4 6 6 6 6 6 6 6 6 6 6 6 9 6 6 6 6 9 9 9 9 9 9 6 6 9 9 6 6 4 6 4 4 4 4 , , , , , , 4 4 4 4 , , 4 4 4 4 4 4 4 4 , , , , , , 4 4 , , , , , , , , , , , , , , , , * * * * & & + + + + & & , , w r 6 6 * * + + O O & & * * * * * * * * * * * * * * & & & & & & * * - - 3 3 6 6 - - & & O O + + # # & & & & = = - - , - - - - - - - < < - - - - - - - - - - * * * * & & # # # # & & - - - - - - & & & & & & # # & & - - * * = = = = & & & & # # + + O O + + * * < < , , * * # + + + & * * * * * * * * * & * * * * * * * * * * & * * * * * * & & & & * * * * & & & & & & * * * * * * * * * * * * * * & & & & & & & & & & & & * * * * * * & & & & & & * * & & & & $ $ & & & & & & & & & & & & & & & & & & $ $ $ + & & & & & $ $ $ & & + + + + + + + + + + + + + + + + + + + + + + + + + + + + + + + + + + + + + + + + + + + + + + + + + + + + + + + + + + + + + + + + + + + + + + + + + + + + + + + + + + + + + + + + + + + + + + ",
"L L L L S S c c j j g g g g 6 6 6 6 6 6 9 9 p p p p p p p p p p p p g g g g j j p p p p 9 9 9 9 6 6 6 6 6 6 6 6 6 6 6 6 4 4 4 4 4 4 4 4 4 4 4 4 4 4 4 4 4 4 6 6 6 6 6 6 6 6 6 6 6 6 6 6 6 6 6 6 6 6 6 6 6 6 9 9 9 9 p p p p 9 9 9 9 9 9 9 9 9 9 p p y y y p 9 9 9 9 9 9 9 9 9 9 9 9 6 6 6 6 6 6 6 6 6 6 6 6 6 6 6 6 6 6 6 6 6 6 6 6 6 6 6 6 6 6 4 4 4 4 4 4 4 4 4 4 4 4 4 4 4 4 6 6 6 6 6 6 6 6 6 6 9 9 9 9 y p p p p p 9 9 6 6 4 4 4 4 4 4 6 6 6 6 6 6 4 4 6 6 6 6 6 6 6 6 6 6 6 6 4 4 4 4 4 4 , , , , , , : : : : : : , , 4 4 4 4 4 4 6 6 6 6 6 6 6 6 6 6 , , 4 4 4 4 4 4 4 4 4 4 6 6 6 6 , , , , , 4 4 4 4 4 4 4 4 4 4 4 4 4 4 4 4 4 4 4 4 4 4 4 4 4 , , 4 4 4 4 4 4 6 6 6 6 4 4 4 4 4 4 4 4 4 4 , , , , 4 4 4 4 4 4 , , 4 4 , , 4 4 4 4 , , , , , , : : * * * * * * * * * * * * - - - - * * * * - - * * * * * * < < w w * * & & + + O O # # & & = = - - - - * * = = = = - - , , - - - - & & & & # # O O O O O O & & = = < < < < 3 3 3 3 - - & & & & & & - - = = = = - - - - - - , , < < - - & & O O O O + + # # # # # # # # # # & & & & = = & & & & = = * * * * & & + + + + + + & & & & * * * * & & & & & & & & & & & & & & & & & & & & & & & & & & & & & & & & & & & & & & & & & & & & & & & & & & & & & & & * * * & & & & & & & & & & & & + $ & & & & + + + + $ & & & $ $ & & & & + + & & $ $ $ $ & & & & & & $ $ & & + + + + + + $ $ $ $ + $ $ $ $ $ + + + + + + + + + + + + + + + + + + + + + + + + + + + + + + + + + + + + + + + + + + + + + + + + + + + + + + + + + + + + + + + + + + + + + + + + + + + + + + + + O O O O O O + + + + O O O + ",
"L L L L S S c c j j g g g g 6 6 6 6 6 6 9 9 p p p p p p p p p p p p g g g g j j p p p p 9 9 9 9 6 6 6 6 6 6 6 6 6 6 6 6 4 4 4 4 4 4 4 4 4 4 4 4 4 4 4 4 4 4 6 6 6 6 6 6 6 6 6 6 6 6 6 6 6 6 6 6 6 6 6 6 6 6 9 9 9 9 p p p p 9 9 9 9 9 9 9 9 9 9 p p y y y y 9 9 9 9 9 9 9 9 9 9 9 9 6 6 6 6 6 6 6 6 6 6 6 6 6 6 6 6 6 6 6 6 6 6 6 6 6 6 6 6 6 6 4 4 4 4 4 4 4 4 4 4 4 4 4 4 4 4 6 6 6 6 6 6 6 6 6 6 6 9 9 9 p p p p p p 9 9 6 6 4 4 4 4 4 4 6 6 6 6 6 6 4 4 6 6 4 4 6 6 6 6 6 6 6 6 4 4 4 4 4 4 , , , , , , : : : : : : : : 4 4 4 4 4 4 6 6 6 6 6 6 6 6 6 6 , , 4 4 4 4 4 4 4 4 4 4 6 6 6 6 , , , , 4 4 4 4 4 4 4 4 4 4 4 4 4 4 4 4 4 4 4 4 4 4 4 4 4 4 , , 4 4 4 4 4 4 6 6 6 6 4 4 4 4 4 4 4 4 4 4 , , , , 4 4 4 4 4 4 , , 4 4 , , , , 4 4 : , , , , , : : * * * * * * * * * * * * - - - - * * * * - - * * * * * * < < w w * * & & + + O O # # & & = = - - - - * * = = = = - - , , - - - - & & & & # # O O O O O O & & = = < < < < 3 0 3 3 - - & & & & & & - - = = = = - - - - - - , , < < - - & & O O O O + + # # # # # # # # # # & & & & = = & & & & = = * * * * & & + + + + + + & & & & * * * * & & & & & & & & & & & & & & & & & & & & & & & & & & & & & & & & & & & & & & & & & & & & & & & & & & & & & & & & & * & & & & & & & & & & & & & $ & & & & + + + + & & & & $ $ & & & $ + + & & $ $ $ $ $ $ & & & & $ $ & & + + + + + + $ $ $ $ + + $ $ $ $ + + + + + + + + + + + + + + + + + + + + + + + + + + + + + + + + + + + + + + + + + + + + + + + + + + + + + + + + + + + + + + + + + + + + + + + + + + + + + + + + O O O O O O + + O O O O + + ",
"B B D D S S c c c c j j j j 6 6 6 6 6 6 6 6 9 9 9 9 p p p p p p p p p p p p p p p p 6 6 6 6 4 4 4 4 4 4 4 4 6 6 9 9 6 6 6 6 6 6 6 6 6 6 4 4 4 4 4 4 4 4 , , 4 4 , , , , , , , , 4 4 4 4 4 4 , , 4 4 4 4 4 4 4 4 6 6 6 6 6 6 6 6 6 6 6 6 6 6 6 6 9 9 9 9 9 9 9 9 6 6 6 6 6 6 6 6 6 6 4 4 4 4 4 4 4 4 4 4 6 6 6 6 6 6 6 6 6 6 4 4 , , , , , , , , , , , , , , 4 4 4 4 4 4 , , , , , , , , , , 4 4 4 4 4 4 6 6 6 6 6 6 6 6 4 4 4 4 4 4 , , , , 4 4 4 4 4 4 4 4 4 4 4 4 4 4 4 4 4 4 4 4 , - : : : : : : : : , , , , , , , , : : 4 4 , , , , , , 4 4 4 4 4 4 4 4 , , , , , , , , , , , , 4 4 , , , , , , , , , , , , , , , , , , : : : : , , , , , , , , , , : : 4 4 , , , , 4 4 4 4 4 4 , , , , 4 4 , , , , , , , 4 4 4 , , , , , , : : , : : : * * : : * * * * & & * * * * * * * * * * * * * * & & * * - - - - * * * * * * * * & & & & & & & & & & - - < < w w 3 3 - - & & & & & & - - - - & & & & # # O O @ @ & & & & ; ; - - p p 3 3 - - = = & & O O & & - - - - & & # # & & & & & & - - 3 3 - - = = & & & & & & & & & & & & & & & & & & & & & & # & & & - - 6 6 < < , , * * & & & & & & + + & & & & & & & & & & + + + + + + & & & & & & & & & & # # & & & & & & # & & # & & & & & & & & & & & & & & & & & & * * & & & & & & * * * * * * * * & & & * & & & & + + + + + + + + & $ + + + + + + + + + + + + + + + + + + + + + + + + + + + + + + $ + + + + + $ + + + + + + + + + + + + + + + + + + + + + + + + + + + + + + + + + O O O O + + O + + + + + + + + + + + O + O O + + + + + + + + + + + + O O O O O O O O O O O O O O O O O O O O O O O O O O O O ",
"B B D D S S c c c c j j j j 6 6 6 6 6 6 6 6 9 9 9 9 p p p p p p p p p p p p p p p p 6 6 6 6 4 4 4 4 4 4 4 4 6 6 9 9 6 6 6 6 6 6 6 6 6 6 4 4 4 4 4 4 , 4 , , 4 4 , , , , , , , , 4 4 4 4 4 4 , , 4 4 4 4 4 4 4 4 6 6 6 6 6 6 6 6 6 6 6 6 6 6 6 6 9 9 9 9 9 9 9 9 6 6 6 6 6 6 6 6 6 6 4 4 4 4 4 4 4 4 4 4 6 6 6 6 6 6 6 6 6 6 4 4 , , , , , , , , , , , , , , 4 4 4 4 4 4 , , , , , , , , , , 4 4 4 4 4 4 6 6 6 6 6 6 6 6 6 6 4 4 , 4 , , , , 4 4 4 4 4 4 4 4 4 4 4 4 4 4 4 4 4 4 4 4 , , : : : : : : : : , , , , , , , , : : 4 4 , , , , , , 4 4 4 4 4 4 4 4 , , , , , , , , , , 4 4 4 4 , , , , : , , , , , , , , , , , , , : : : : , , , , , , , , , , : : 4 4 , , , , 4 4 4 4 4 4 , , , , 4 4 , , , , , , , 4 4 4 , , , , , , : : , : : : * : : : * * * * & & * * * * * * * * * * * * * * & & * * - - - - * * * * * * * * & & & & & & & & & & - - < < w 6 3 3 - - & & & & & & - - - - & & & & # # O O @ @ & & & & ; ; - - p p 3 3 - - = = & & O O & & - - - - & & # # & & & & & & - - 3 3 - - = = & & & & & & & & & & & & & & & & & & & & & & # # & & - - 6 6 < < , , * * & & & & & & + + & & & & & & & & & & + + + + + + & & & & & & & & & & # # & & & & & & # & & & & & & & & & & & & & & & & & & & & & & & & & & & & & * * * * * * * * & & & & & & & & + + + + + + + + & $ + + + + + + + + + + + + + + + + + + + + + + + + + + + + + + + + + + + + + + + + + + + + + + + + + + + + + + + + + + + + + + + + + + + + + + O O O O + + + + + + + + + + + + + + O O O + + + + + + + + + + + + + O O O O O O O O O O O O O O O O O O O O O O O O O O O O ",
"w w c c b b M M M M c c g g 6 6 6 6 6 6 6 6 9 9 9 9 9 9 9 9 9 9 6 6 6 6 6 6 9 9 6 6 6 6 6 6 6 6 6 6 6 6 6 6 6 6 9 9 6 6 6 6 6 6 6 6 6 6 6 6 4 4 4 4 , 4 , , 4 4 , , , , , , , , , , 4 4 4 4 , , , , , , , , , , , , , , , , 4 4 4 4 , , 4 4 6 6 6 6 6 6 4 4 6 6 6 6 4 4 4 4 4 4 4 4 4 4 4 4 , , , , , , , , 4 4 , , 4 4 4 4 , , , , , , , , , : , , , , , , , , 4 4 , , , , , , , , , , , , , , , , : : , , , , , , , : : : 4 4 , , , , , , , 4 4 4 4 4 , , , , , , , , - - - - : : : : * * : : : : : : * * : : : : : : : : , , , , , , , , , , , , , , , , , , , , , , , , , , , , , , , , * * : : , , , , , , : : , , , , : : : , , , , , , , , , , , : , 6 6 4 4 , , 4 4 6 6 6 6 4 4 , , 4 4 , , , , , , 4 4 , , , , , : , , , , : : : : : : * : * * * * * * * * * * * * * * * * * * * * & & & & & & & & & & & & & & & & = = = = * * - - , , 3 3 p p d d 6 6 < < - - - - - - - - - - - - < < - - & & = = - - = = = = - - 3 3 - - & & # # O O @ @ # # & & & & + + O O # # & & & & = = , , , , - - = = * * - - = * - - - - < < - - - - - - - - - - - - < < w w 6 6 6 6 , , * * & & & & & & & & & & & & & & & & & & & & & & & & & & & & & & & & + + # # & & & & # # # # & & & & & & & & & & & & & & & & & & & & & & & & & & * * * * * * * * * * * * * * * * & & & & & & $ & & & + + + + + + + + + + + + + + + + + + + + + + + + + + + + + + + + + + + + & & + + + + + + + + + + + + + + + + + + + + + + + + + + + + + + + + O O O O O O O O + + + + + + + + + + + + + + + + + + O O O O O O O O O O O O O O O O O O O O O O + + O + + + + + + + + + + O ",
"w w c c b b M M M M c c g g 6 6 6 6 6 6 6 6 9 9 r 9 9 9 9 9 9 9 6 6 6 6 6 6 9 9 6 6 6 6 6 6 6 6 6 6 6 6 6 6 6 6 9 9 6 6 6 6 6 6 6 6 6 6 6 6 4 4 4 4 4 4 , , 4 4 , , , , , , 4 , , , 4 4 4 4 , , , , , , , , , , , , , , , , 4 4 4 4 , , 4 4 6 6 6 6 6 6 4 4 4 5 6 6 4 4 4 4 4 4 4 4 4 4 4 4 , , , , , , , , 4 4 , , 4 4 4 4 , , - , , , , , : : , , , , , , , , 4 4 4 , , , , , : : , , , , , , , , , , , , , , , , , , : : 4 , , , , , , : , , 4 4 4 4 , , , , 4 4 , , , - - - : : : : * * : : : : : : * * : : : : : : : : , , , , , , , , , , , , , , , , , , , , , , , , , , , , , , : , * * : : : : : : , , : : , , , , : : : : , , , , , , , , , , : , 6 6 4 4 , , 4 4 6 6 6 6 4 4 , , 4 4 , , 4 4 , , , , , , , , : : , , , , : : : : : : * * * * * * * * & * * * * * * * * * * * * * & & & & & & & & & & & & & & & & = = = = * * - - , , 3 3 p p d d 6 6 < < - - - - - - - - - - - - < < - - & & = = - - = = = = - - 3 3 - - & & # # O O @ O # # & & & & + + O O # # & & & & = = , , , , - - = & * * - - * * - - - - < < - - - - - - - - - - - - < < w w 6 6 6 6 , , * * & & & & & & & & & & & & & & & & & & & & & & & & & & & & & & # & + + # # & & & & # # # # & & & & & & & & & & & & & & & & & & & & & & & & & & * * * * * * * * * * * * * * * * $ $ & $ & & $ & & & + + + + + + + + + + + + + + + + + + + + + + + + + + + + + + + + + + + + & & + + + + + + + + + + + + + + + + + + + + + + + + + + + + + + + + O O O O O O O O + + + + + + + + + + + + + + + + + + O O O O O O O O O O O + O O O O O O O O O O + + O + + + + + + + + + O O ",
"6 6 l l M M S S D D B B j j p p p p p p r r r r r r 6 6 6 6 6 6 6 6 4 4 6 6 6 6 6 6 6 6 4 4 9 9 9 9 6 6 6 6 4 4 4 4 , , , , 6 6 6 6 4 4 4 4 4 4 , 4 : : , , 4 4 , , , , 4 4 4 4 4 4 4 4 4 4 4 4 4 4 4 4 4 4 , , , , , , , , 4 4 , , , , , , 4 4 4 4 4 4 , , 4 4 4 4 4 4 , , , , , , , , 4 4 , , , , , , : : : : , , , , , , : : : : : : : : : : , , 4 4 6 6 , , , , , , , , 4 , 4 4 4 4 4 4 , , , , , , , , , , , , : : * : 4 4 : : , : : : , , 4 4 4 4 , , , , : : 4 4 4 4 - - : : : : : : * * * * * * * * * * : : * : : : , - , , , , : : , , : : : : , , 6 6 6 6 4 4 4 4 4 4 , , , , , , , , , , 4 4 4 4 4 4 , , , , , , : : , , , , , , , , , , , , , 4 6 6 6 6 4 4 6 6 6 6 6 6 6 6 4 4 4 4 4 , , , , 4 4 , , , , , : : , , , , - - - - : : : : * * * * * * & & * * = = * * * * * * * * * * * * * * * * * * * * - - - - * * = = = = * * - - 3 3 w w p p , , < < 6 6 p p d d d d d d d d d d w w < - - - - - & & & & ; = < < = = & & & & = = & & O O X X O O X X O O # # = = & & & & - - < < - - & & & & = = * = - - , , p p w w 6 6 p p d d p p 6 6 < < - - , , < < - - & & # # & & & & & & & & # # & & & & * * & & & & & & & & & & & & # # + + & & & & # # # # # # # # & & & & & & & & & & & & & & & & & & & * * * * * & & * * * * * * * * & & * * & & * * * * & & & & & & & & + + + + & & & & & & # & & & & & & & # & + + + + # # # & & & + + & & & & + + $ $ + + + + + + + + + + + + + + + + + + + + + + + + O O O O O O O O O O O O + + + + + + + + + + + + + + + + + + O O O O O O O O + + + + + + + + + + + + + + + + O O + + + + + + + + + + ",
"6 6 l l M M S S D D B B j j p p p p p p r r r r r r 6 6 6 6 6 6 6 6 4 4 6 6 6 6 6 6 6 6 4 4 9 9 9 9 6 6 6 6 4 4 4 4 , , , , 6 6 6 6 4 4 4 4 4 4 , , : , , , 4 4 4 , , , 4 4 4 4 4 4 4 4 4 4 4 4 4 4 4 4 4 4 , , , , , , , , 4 4 , , , , , , 4 4 4 4 4 4 , , 5 4 4 4 4 4 , , , , , , , , 4 4 , , , , , , : : : : , , , , , , : : : : : : : : : : , , 4 4 6 6 , , , , , , , , , , 4 4 4 4 4 4 , , , , , , , , , , , , : : * * 4 4 : : : : : : , , 4 4 4 4 , , , , , , , 4 4 4 - - : : : : : : * * * * * * * * * * : : * * : : , - : : , , : : , , : : : : , , 6 6 6 6 4 4 4 4 4 4 , , , , , , , , , , 4 4 4 4 4 4 , , , , , , : : , , , , , , , , , 4 , , , 4 6 6 6 6 4 4 6 6 6 6 6 6 6 6 4 4 4 4 4 4 , , , , 4 , , , , , : : , , , , - - - - : : : : * * * * = * & & * = = = * * * * * * * * * * * * * * * * * * * * - - - - * * = = = = * * - - 3 3 w w p p , , < < 6 6 p p d d d d d d d d d d w w < < - - - - & & & & = = < < = = & & & & = = & & O O X X O O X X O O & # & = & & & & - - < < - - & & & & = = * * - - , , p p w w 6 6 p p d d d p 6 6 < < - - , , < < - - & & # # & & & & & & & & # # & & & & * * & & & & & & & & & & & & & & + + & & & & # # # # + + # # & & & & & & & & & & & & & & & & & & & & * * * * & & * * & * & & * * & & * * & & * * * * & & & & & & & & + + + + & & & & & & & & & & & & & & & & + + + + # # # & & & + + & & & & + $ $ $ + + + + + + + + + + + + + + + + + + + + + + + + O O O O O O O O O O O O + + + + + + + + + + + + + O + + + + O O O O O O O O + + + + + + + + + + + + + + + + O O + + + + + + + + + + ",
"* * p p n n D D D D D D S S S S b b p p , , 6 6 p p p p 6 6 6 6 6 6 6 6 6 6 p p p p y p 6 6 6 6 6 6 6 6 4 4 4 4 4 4 4 4 4 4 4 4 , , , , 4 4 4 4 4 4 4 4 , , 6 6 6 6 6 6 6 6 6 6 6 6 6 6 4 4 6 6 6 6 6 6 6 6 6 6 4 4 4 4 4 4 6 6 6 6 6 6 6 6 4 4 4 4 4 4 , , 4 4 , , , , , , , , , , , , , , , , * * * * , , 4 4 6 6 6 6 4 4 : : : : * * * * : : , , , , , , 6 6 6 6 6 6 6 6 , , 4 4 , , , , 6 6 4 4 4 4 , , , , : : * * * * , , : : : : , , , , , , : : : : : : : : : : : : : : : : * * * * * * * * * * * * : : : : : : , , , , , , , , , , , , , , , , , , 6 6 6 6 6 6 6 6 , , , 4 4 4 4 4 , , , , , , , , , , , , , , : , , , , : : : , , , , , , 4 4 4 4 , , , , 4 4 6 6 6 6 6 6 6 6 4 4 4 4 4 4 4 4 4 4 4 4 4 4 4 4 4 4 : : , , , , , , * * * * * * * : * * * * * - * * & & * * - - , , , , , , * * & & & & & & & & & & & & & & = = * * - - - - - - - - 3 3 0 w d d l l l l d d p p w w w w 3 3 - - & & # # - - < < - - 3 3 - - & & # # # & & & & & @ @ & & & & & & & & & & # # # # = = w p < < - - & & # # + + & & < < < < < < - - , , 6 6 p p p p , , - - - - * * # # + + & & * * & & # # # # + + + + + + + + + + + + & & & & * * * * * * & & # # + + & & & & # # # # & & & & & & # # & & & & & & & & & & & & & & & & & & & & * * * * * * & & & & & & & & # # + + + + # # # # + + + + # # # & & & & & & & & & & & & & # # # # # # + + + + # # & & & # # # $ $ $ & & & + + + + + + + + + + + + + + + + + + + + + + + + O O O O + + O O O O + + O O + + + + + + + + + + + + + + + + + + + + + + + + + + + + + + + O + + + + + + + + + + + + + + + + ",
"* * p p n n D D D D D D S S S S b b p p , , 6 6 p p p p 6 6 6 6 6 6 6 6 6 6 p p p p p p 6 6 6 6 6 6 6 6 4 4 4 4 4 4 4 4 4 4 4 4 , , , , 4 4 4 4 4 4 4 4 , , 6 6 6 6 6 6 6 6 6 6 6 6 6 6 4 4 6 6 6 6 6 6 6 6 6 6 4 4 4 4 4 4 6 6 6 6 4 6 6 6 4 4 4 4 4 4 , , 4 4 , , , , , , , , , , , , , , , , * * * * , , 4 4 6 6 6 6 4 4 : : : : : : * * : : , , , , , , 6 6 6 6 6 6 6 6 , , 4 4 , , , , 6 6 4 4 4 4 , , , , : : : * * * , , : : , , , , , , , , : : : : : : : : : : : : : : : : * * * * * * * * * * * * : : : : : : , , , , , , , , , , , , , , , 4 , , 6 6 6 6 6 6 6 6 , , 4 4 4 4 , , , , , , , , , , , , , , , , : , , , : : : : , , , , , , 4 4 4 4 , , , , 4 4 6 6 6 6 6 6 6 6 4 4 4 4 4 4 4 4 4 4 4 4 4 4 4 4 4 4 : : , , , , , , * * * * * * * * * * * * * - * * & & * * - - , , , , , , * * & & & & & & & & & & & & & & & = * * - - - - - - - - 3 3 0 0 d d l l b b d d p p w 0 w w 3 3 - - & & # # - - < < - < 3 3 - - & & # # # # & & & & @ @ & & & & & & & & & & # # # # = = p p < < - - & & # + + + & & < < < < < < - - , , 6 6 p p p p , , - - - - * * # # + + & & * * & & # # # # + + + + + + + + + + + + & & & & * * * * * * & & # # + + & & & & # # # # & & & & & & # # & & & & & & & & & & & & & & & & & & & & * * * * * * & & & & & & & & # & + + + + # # # # + + + + # # # & & & & & & & & & & & & & # # # # # # + + + + & & & & # # # # $ $ & & & & + + + + + + + + + + + + + + + + + + + + + + + + O O O O + + O O O O + O O O + + + + + + + + + + + + + + + + + + + + + + + + + + + + + + + O + + + + + + + + + + + + + + + + ",
"3 < d d c c B B S S S S S S S S c c p p p p j j l l d d r r 6 6 p p j j j j p p p y 9 9 9 9 6 6 6 6 6 6 6 6 6 6 6 6 6 6 6 6 6 6 6 6 6 6 6 6 9 9 9 9 6 6 6 6 9 9 p p p p p p p p p p p p p p p p p p p p p p p p p p p p p p 9 9 p p 9 y p p 9 9 6 6 6 6 6 6 4 4 6 6 6 6 6 6 6 6 6 6 6 6 6 6 6 6 , , , , , , 6 6 6 6 6 6 4 4 , , - - : : , , , , 4 4 6 6 6 6 6 6 6 6 6 6 6 6 , , 4 4 4 4 4 4 6 6 6 6 4 4 4 4 , , , , , , : : 4 4 4 4 4 4 4 4 4 4 6 6 4 4 4 4 , , , , , , , , - - : : : : * * * * * * * * * * : : : : , , , , , , 4 4 4 4 4 4 , , 4 4 4 4 4 4 6 6 6 6 6 6 6 6 , , 4 4 4 4 , , 4 4 4 4 4 4 4 4 4 4 , , , , , , , , : : , , , , , , , , , 4 , , 4 4 4 4 4 4 6 6 6 6 6 6 6 6 , , , , , , , , , , , , : : , , , , : : : : * : * * * * & & & & & & & & & & & & & & & & - - , , * * # # # # + + + + + + # # & & & & - - * * & & # # # # & & - - , , = = = = - - < < < < - - & & & & - - 0 w 0 0 & & . . X X # # = = & = & & & & & & & & & & & & O O # # # # & & = = = = & & & & & & = = & & + + O O X . X X & & w w = = & & & & # # & & - - * * & & & & & & & & & & & & & & # # + + & & # # + + + + + + + + + + O O O O O O + + + + + # # # + + + + + + + + + + + + + + + + + + + + + + + # # # & & & & # # & & & & & & & & & & & & & & & & & & & & & & & & & & # # & & & & # # # # # # # # & & & & & & & & & & & & & & & & & & & & & & & & & & & & # & $ $ $ $ & & + + + + + + $ + + + + + + + + + + + + + + + + + O O O O + O O O O O O O + + + + + + + + + + + + + + + + + + + + + + + + O O + + + + + + + + + + O O O O O O O O + + O O O O ",
"< < d d c c B B S S S S S S S S c c p p p p j j l l d d r r 6 6 p p j j j j p p p y 9 9 9 9 6 6 6 6 6 6 6 6 6 6 6 6 6 6 6 6 6 6 6 6 6 6 6 6 9 9 9 9 6 6 6 6 9 9 p p p p p p p p p p p p p p p p p p p p p p p p p p p p p p 9 9 p y y y p y 9 9 6 6 6 6 6 6 4 4 6 6 6 6 6 6 6 6 6 6 6 6 6 6 6 6 , , , , , , 6 6 6 6 6 6 4 4 , , - - : : , , , , 4 4 6 6 6 6 6 6 6 6 6 6 6 6 , , 4 4 4 4 4 4 6 6 6 6 4 4 , , , , : : , , : : 4 4 4 4 4 4 4 4 4 4 6 6 4 4 4 4 , , , , , , , , - - : : : : : : * * * * * * * * : : : : , , , , , , 4 4 4 4 4 4 , , 4 4 4 4 4 4 6 6 6 6 6 6 6 6 , , 4 4 4 4 4 4 4 4 4 4 4 4 4 4 4 4 , , , , , , , , , : , , , , , , , , , , , , 4 4 4 4 4 4 6 6 6 6 6 6 6 6 , , , , , , , , , , , , : : , , , , : : : : : : * * * * & & & & & & & & & & & & & & & & - - , , * * # # # # + + + + + + + + & & & & - - * * & & # # # # & & - - , , = = = = - - < < < < - - & & & & - - w w 0 0 & & . . X X # # = = & & & & & & & & & & & & & & O O # # # # & & = = = = & & & & & & = = & & + + O O X X X X & & w w = = & & & & # # & & - - * * & & & & & & & & & & & & & & # # + + # & # # + + + + + + + + + + O O O O O O + + + + + # # # + + + + + + + + + + + + + + + + + + + + + + # # # + & & & & & & & & & & & & & & & & & & & & & & & & & & & & & & & & # # & & & & # # # # # # # # & & & & & & & & & & & & & & & & & & & & & & & & & & & & & & + + + $ & & + + $ + + + $ $ + + + + + + + + + + + + + + + + O O O O O O O O O O O + + + + + + + + + + + + + + + + + + + + + + + + + O O O + + + + + + + + + O O O O O O O + + + O O O O ",
"d d c c b b b b M M B B S S M M j j d d c c B B M M j j p p p p j j c c j j g g p p p p j j 6 6 6 6 9 9 9 9 p p p p p p p p p p y p p p y y p p p p p p p p p p p p g p g g g g g g g g g g g g g g g g g g g g g g g g g g p p p g g g g g p p p p 9 9 6 6 6 6 6 6 6 6 p p p p y y p p p p 9 9 6 6 6 6 6 6 6 6 6 6 6 6 , , , , , , : : 4 4 6 6 6 6 6 6 6 6 6 6 6 6 6 6 6 6 6 6 6 6 6 6 6 6 6 6 4 4 4 4 4 4 , , , , , , , , 4 4 4 4 , , , , 4 4 6 6 6 6 4 4 4 4 4 4 4 , , , : : : : - - , , * * * * * * * * : : , , 4 4 , , 4 4 4 4 6 6 6 6 6 6 6 6 6 6 6 6 6 6 6 6 6 6 6 6 , 4 4 4 4 4 4 4 6 6 6 6 6 6 6 6 6 6 6 6 4 4 4 4 , , , , , , , , , , , , , , , , 4 4 4 4 4 4 6 6 6 6 6 6 4 4 , , , , , , , , : : : : * * * * * * * * * * * * & & & & * * * & & & & & & & & & & & * * , , * * & & O O O O O O O O + + + # & & & & & & & & & & & & & & = = = = = = & & & & # # & & & & & & # # @ @ = = 3 3 3 3 # #             O O & & = & & & & & ; ; - - = = & & # # # & & & - - - - - - = = & & & & # # O O X X         O O - - = = & & # # O O + + & & & & + + # # + + # # & & & & & & & & & & & & # # + + + + + + + + O O O O O O O O + + # # & & & & & & # # + + + + # # & & + + + + # # & & + + + + + + + + + # & & & & & & + # & & & & & & & & & & & & & & & & & & & & # # & & & & & & + # # # # # & & & & & & & & & & & & & & & & & & & & & & & & & & & & & & & & & & + + $ & $ $ + + + + + + + + + + + + + + + + + + + + O O O O O O + + + + + + O O + + + + + + + O O O + + + + + O O O + + + + O O + + O + + + + + + + O O O O O O O O + + O O O O ",
"d d c c b b b b M M B B S S M M j j d d c c B B M M j j p p p p j j c c j j g g p p p p j j 6 9 6 6 9 9 9 9 p p p p p p p p p p p p p p y y p p p p p p p p p p p p g g g g g g g g g g g g g g g g g g g g g g g g g g g g p p g g g g g g p p p p 9 9 6 6 6 6 6 6 6 6 p p p p y y p p p p 9 9 6 6 6 6 6 6 6 6 6 6 6 6 , , , , , , , , 4 4 6 6 6 6 6 6 6 6 6 6 6 6 6 6 6 6 6 6 6 6 6 6 6 6 6 6 4 4 4 4 4 4 , , , , , , , , 4 4 4 4 , , , , 4 4 6 6 6 6 4 4 4 4 4 4 4 4 , , : : : : - - - , * * * * * * * * : : , , 4 4 4 4 4 4 4 4 6 6 6 6 6 6 6 6 6 6 6 6 6 6 6 6 6 6 6 6 , 4 4 4 4 4 4 4 6 6 6 6 6 6 6 6 6 6 6 6 4 4 4 4 , , , , , , , , , , , , , , , , 4 4 4 4 4 4 6 6 6 6 6 6 4 4 , , , , , , , , : : : : * * * * * * * * * * * * & & & & * * * & & & & & & & & & & & * * , , * * & & O O O O O O O O + + + + & & & & & & & & & & & & & & = = = = = = & & & & # # & & & & & & # # @ @ = = 3 3 3 3 # #             O O & & & & & & & & ; ; - - = = & & # # # # & & - - - - - - = = & & & & # # O O X X         O O - - = = & & # # O O + + & & & & + + # # + + # # & & & & & & & & & & & & # # + + + + + + + + O O O O O O O O + + # # & & & & & & # # + + + + # # & & + + + + # # & & + + + + + + + + + # & & & & & & + + & & & & & & & & & & & & & & & & & & & & # # & & & & & & # # # + # # & & & & & & & & & & & & & & & & & & & & & & & & & & & & & & & & & & + + + & $ $ + + + + + + + + + + + + + + + + + + + + O O O O O + + + + + + + + O + + + + + + + + O + + + + + + + O O + + + + O O + + O O + + O O + + O O O O + + O O + O O O O O ",
"j j c c l l j j j j c c S S b b d d d d M M S S b b d d p p p p w w 6 9 r r p p j j j j c c p p p p p p p p p p p p g g g g p p p p p p y y p p p p p p p p p p p p p p p p g p p p p p p p 9 9 9 9 9 9 p p p p p p 9 9 9 9 9 9 p p p p p p p p 9 9 6 6 6 6 6 6 6 6 6 6 p p p p p p p p y y y y 6 6 6 6 6 6 6 6 6 6 4 4 , , , , , , , , 4 , 6 6 6 6 6 6 6 6 6 6 6 6 6 6 6 6 6 6 6 6 6 6 6 6 4 , , , , , , , , , 4 4 , , , , , , , , , , , , 4 4 6 6 4 4 4 4 , , , , , , : : : : : : : : - , * * * * * * * * , , , , 4 4 4 4 4 4 4 4 6 6 6 6 6 6 6 6 6 6 6 6 6 6 6 6 6 6 6 6 4 4 4 4 4 4 4 4 6 6 6 6 6 6 6 6 6 6 6 6 4 4 4 4 , , 4 4 4 4 , , , , , , , , , , 4 4 4 4 , , 4 4 4 4 , , , , , , : : : : : : * * * * * * * * * * * * * * * & * * * * : : * * & & - - * * * * & & * * * * & & # # + + + + + + + + # # & & & & & & # # # # & & = = - - < < - - - - - - = = & & = = = = & & # @ O O # # & & # # X X         X X O O = = - ; ; - - - - - - - - - - - * * = = * * - - , , , , - - * * * * = = & & & & X X         X X & & # + O O O O + + & & & & & & * * & & & & , , , , * * & & & & & & # # + + + + + + + + + + + + + + + + + + & & & & & & # # + + + + + + + + # # # # & & & & & & # # # # & & # & & & & & & & & & # # # # & & & & & & & & & & & & & & & & + + + + # # # # # + + + # # & & & & & & & & & & & & & & & & & & & & & & & & & & & & # # # # & & $ $ + + & & & & + + + + + + + + + + + + + + + + + + + + + + + + + + + + + + + + + + + + + + + + + + O O + + + + + + + + + + + + + + + + + + + + O O + + O O O O + + O O O O O O O O ",
"j j c c l l j j j j c c S S b c d d d d M M S S b b d d p p p p w w 6 9 r r p p j j j j c c p p p p p p p p p p p p g g g g p p p p p p y y p p p p p p p p p p p p p p p p g g p p p p p p 9 9 9 9 9 9 p p p p p p 9 9 9 9 9 9 p p p p p p p p 9 9 6 6 6 6 6 6 6 6 6 6 p p p p p p p p y y y y 6 6 6 6 6 6 6 6 6 6 4 4 4 4 , , , , , , 4 4 6 6 6 6 6 6 6 6 6 6 6 6 6 6 6 6 6 6 6 6 6 6 6 6 4 4 , , , , , , , , 4 4 , , , , , , , , , , , , 4 4 6 6 4 4 4 4 , , , , , , : : : : : : : : - , * * * * * * * * , : , , 4 4 4 4 4 4 4 4 6 6 6 6 6 6 6 6 6 6 6 6 6 6 6 6 6 6 6 6 4 4 4 4 4 4 4 4 6 6 6 6 6 6 6 6 6 6 6 6 4 4 4 4 , 4 4 4 4 4 , , , , , , , , , , 4 4 4 4 , , 4 4 4 4 , , , , , , : : : : : : * * * * * * * * * * * * * * * * * * * * * : * * & & - - * * * * & & * * * * & & # # + + + + + + + + # # & & & & & & # # # # & & = = - - < < - - - - - - = = & & = = = = & & @ @ O O # # & & # # X X         X X O O = = - - - - - - ; - - - - - - - - * = = * * - - 3 3 , , - - * * * * = = & & & & X .         X X & & # + O O O O + + & & & & & & * * & & & & , , , , * * & & & & & & # # + + + + + + + + + + + + + + + + + + & & & & & & # # + + + + + + + + # # # # & & & & & & # # # # & & # # & & & & & & & & # # # # & & & & & & & & & & & & & & & & + + + + # # # # # + + + # # & & & & & & & & & & & & & & & & & & & & & & & & & & & # # # # # & & & $ $ + & & & & + + + + + + + + + + + + + + + + + + + + + + + + + + + + + + + + + + + + + + + + + + + O + + + + + + + + + + + + + + + + + + + + O O + + O O O O + + O O O O O O O O ",
"d d d d p p 6 6 < < p p j j j j d d d d c c c c d d w w p p 6 6 - - * * 6 6 c c M M n n j j g g g g g g g g g g g g g g g g g g g g p y 9 9 g g g g p p p y p p p p p p p p p y p p p p 6 6 6 6 6 6 6 6 6 6 6 6 6 6 4 4 4 4 6 6 6 6 6 6 6 6 6 6 6 6 4 4 , , , , 4 4 6 6 6 6 9 9 9 9 9 p 6 6 6 6 6 6 6 6 4 4 4 4 4 4 , , , , , , : : : : , , , , 4 4 , , , , , , , , , , , , 4 4 4 4 4 4 4 4 , , , , , , , , , , , , , , , , 4 4 4 4 , , , , 6 6 6 6 6 6 6 6 , , , , , , : : : : : : : : , , : : : : * * : : , , , , , , , , , , 4 4 4 4 6 6 6 6 6 6 6 6 4 4 4 4 4 4 4 4 4 4 6 6 6 6 6 6 6 6 4 4 6 6 6 6 6 6 6 6 4 4 4 4 , , , , 4 , , , 4 4 , , , , , , , , , , 4 4 , , , , , , , , - - : : : : * * : : : : : : * * * * * * * * & & & & : : : : : : * * & & * & * * * * & & & & * * & & & & & & & & & & & & & & & & & & & & * * & & # # & & - - < < 6 6 6 w < - - - * - - - & & @ @ X X     X X X X             X X O O % % & & = = = = = = = = > ; = = & & - - * * & & & & : : - - - - : : : : = = & & $ $ O O             X X         X X O O O O & & = = = = * = - - w w w w , , & & + + & & & & & & & & & & & & & & # # + + + + + + # # & & # # + + + + & & + + + + + + # # & & & & & & & & & & & & & & & & & & & & & & & & & & & & & & & & & & # # # & & & & & # # # # # # & & & & # # & & & & & & & & & & & & & & & & & & & & & & & & & & # # & & & & & & & & $ $ $ $ & & + $ $ $ & $ + + + + + + + + + + + + + + + + + + + + + + + + + + + + + + + + + + + + + + + + + + + + + + + + + + + + + + + + + + + + + + + + + + + + + + + + + + + + + + ",
"d d d d p p 6 6 < < p p j j j j d d d d c c c c d d w w p p 6 6 - - * * 6 6 c c M M n n j j g g g g g g g g g g g g g g g g g g p g p y 9 9 g g g g g g y y p p p p p p p p p y p p p 9 6 6 6 6 6 6 6 6 6 6 6 6 6 6 4 4 4 4 6 6 6 6 6 6 6 6 6 6 6 6 4 4 , , , , 4 4 6 6 6 6 9 9 9 9 9 p 6 6 6 6 6 6 6 6 4 4 4 4 4 4 , , , , , , , : : : , , , , 4 4 , , , , , , , , , , 4 , 4 4 4 4 4 4 4 4 , , , , , , , , , , , , , , , , 4 4 , 4 , , , , 6 6 6 6 6 6 6 6 , , , , , , : : : : : : : : , , : : : : * * : : , , , , , , , , , , 4 4 4 , 6 6 6 6 6 6 6 6 4 4 4 4 4 4 4 4 4 4 6 6 6 6 6 6 6 6 4 4 6 6 6 6 6 6 6 6 4 4 4 4 , , , , 4 , , , , 4 , , , , , , , , , , 4 4 , , , , , , , , - - : : : : * * : : : : : : * * * * * * * * & & & & : : : : : : * * & & & & * * * * & & & & * * & & & & & & & & & & & & & & & & & & & & * * & & # # & & - - < < 6 6 6 6 - - - - * * - - & & @ @ X X     X X X X             X X O O % % & & = = = = = = = = = = = = & & - - * * & & = & : : - - - - : : : : = = & & $ $ O O             X X         X X O O O O & & = = = = * * - - w w w w , , & & + + & & & & & & & & & & & & & & # # + + + + + + # # & & + + + + + + & & + + + + + + # # & & & & & & & & & & & & & & & & & & & & & & & & & & & & & & & & & & # & # # & & & & # # # # # # & & & & # # & & & & & & & & & & & & & & & & & & & & & & & & & & # # & & & & & & & & $ $ $ $ & & $ $ $ $ & $ + + + + + + + + + + + + + + + + + + + + + + + + + + + + + + + + + + + + + + + + + + + + + + + + + + + + + O + + + + + + + + + + O + + + + + + + + + + + + + ",
"d d l j d d w w 6 6 6 6 6 6 d d d d d d d d p p 6 6 6 6 w w , , - - - - p p S S D D S S c c g g g g g g g g g g g g g g g g g g g g p p g p g g g g g g p p g g p p p p p p p p y 9 6 6 6 6 6 6 6 6 6 6 6 6 6 6 6 6 4 4 4 4 4 4 4 4 4 4 4 4 6 6 4 4 4 4 4 4 , , , , 4 4 6 6 6 6 6 6 6 6 6 6 6 6 4 4 4 4 4 4 4 4 , , , , , , , , , , : : , , , , , , , , : : : : : : , , , , , , , , , , , , , , , , , , , , , , , , , , , , , , , , , , , , , , 4 4 4 4 , , , , , , , , , , , , , , , , , , , , , , : : , , , , , , , , , , , , , , , , 4 4 4 4 , , , 4 4 4 4 4 4 4 4 4 4 4 6 6 6 6 6 6 6 6 4 4 4 , , , , , 4 4 4 4 , , , , 4 4 4 4 , , , , 4 4 , , , , , , , , , , : : : : , : - - : : : : : : * : : : : : : : * * : : : * * * : : : : : : : : * * * * & & + + & & & & & & & & * * * * * * & & & & & & & & & & & & & & & & = * & & & & * * < < 6 w 3 3 - - & & & & = = = = # # O O X X O O & & & & O O O O         X X O O % % & & = = = = = = = = & & O O = = & & & & $ $ & & = = * * * * : : & & O O O O X X     X X O O & & & & & & # # O O O O O O O O & & & & & & & & * * < < < < , , & & & & & & & & * * * * * * & & & & & & & & & & * * * * & & & & & & & & & & & & & & & & & & & & & & & & & & & & # # & & + + + # & & & & & & & & & & & & & & & & & & & & & & & & & & & & & & & & & & & & & & & & & & & & & & & & & & & & & & & & & & # & & & # # & & & & & & $ $ $ & $ $ & & & & + + + + + + + + + + + + + + + + + + + + + + + + + + + + + + + + + + + + + + + + + + + + + + + + + + + + + + + + + + + + + + + + + + + + O + + + + + + + + + ",
"d d l j d d w w 6 6 6 6 6 6 d d p p d d d d p p 6 6 6 6 w w , , - - - - p p S S D D S S c c g g g g g g g g g g g g g g g g g g g g p g p g g g g g g g p p g g p p p p p p p y 9 9 6 6 6 6 6 6 6 6 6 6 6 6 6 6 6 6 4 4 4 4 4 4 4 4 4 4 4 4 6 6 4 4 4 4 4 4 , , , , 4 4 6 6 6 6 6 6 6 6 6 6 6 6 4 4 4 4 4 4 4 4 , , , , , , , , , , : : , , , , , , , , : : , : : , , , , , , , , , , , , , , , , , , , , , , , , , , , , , , , , , , , , , , , 4 4 4 4 , , , , , , , , , , , , , , , , , , , , , , : : , , , , , , , , , , , , , , , , 4 4 4 , , , , 4 4 4 4 4 4 4 4 4 4 4 6 6 6 6 6 6 6 6 , , 4 , , , 4 , 4 4 4 4 , , , , 4 4 4 4 , , , , , , , , , , , , , , , , : : : : , , - - : : : : : : * : : : : : : : * * : : : * * * : : : : : : : : * * * * & & # + & & & & & & & & * * * * * * & & & & & & & & & & & & & & & & = * & & & & * * < < 6 6 3 3 - - & & & & = = = = # # O O X X O O & & & & O O O O         X X O O % % & & = = = = = = = = & & O O = = & & & & $ $ & & = = * * * * : : & & O O O O X X     X X O O & & & & & & & # O O O O O O O O & & & & & & & & * * < < < < , , & & & & & & & & * * * * * * & & & & & & & & & & * * * * & & & & & & & & & & & & & & & & & & & & & & & & & & & & & # & & # + + + & & & & & & & & & & & & & & & & & & & & & & & & & & & & & & & & & & & & & & & & & & & & & & & & & & & & & & & & & & & & & & # # & & & & & & $ $ & & $ $ & & & & + + + + + + + + + + + + + + + + + + + + + + + + + + + + + + + + + + + + + + + + + + + + + + + + + + + + + + + + + + + + + + + + + + + + O O + + + + + + + + ",
"b b B B B B b b c c j j p p l l d d p p w w w w 6 6 6 6 6 6 , , , , < < p p M M S S M M c c g g g g g g g g g g g g g g g g g g g g g p g g g g y g g g g g p p p p p p p p p p p p 9 9 6 6 6 6 6 6 9 9 9 9 9 9 6 6 6 6 6 6 4 4 4 4 4 4 , , 4 4 6 6 6 6 6 6 6 6 6 6 6 6 6 6 6 6 6 6 6 6 6 6 6 6 6 6 6 6 6 6 4 4 4 4 4 4 4 4 , , , , , , , , , , , , : : : : , , , , , , , , , , , , , , , , , , 4 4 , , , , , , , , , , , , , , : : , , , , , , , , , , , , , , 4 4 4 4 4 4 4 4 4 4 4 4 , , 4 4 , , , , , , , , 4 4 , , , , , , , , 4 4 4 4 4 , 4 4 4 4 4 4 4 4 4 4 4 4 , , 6 6 6 6 6 6 6 6 , , , , 6 6 6 6 4 4 4 4 , , , , 4 4 4 , , , , , , , , , , , 4 4 4 4 , , : : , , , , , , , , - - : : : : : : : : : : * * * * * * : : : : : : * * * * * * * * * * * * * * * * & & * * , , , , * * * * * * * * - - - - - - * * * * = = = = - - 6 6 d d d d < < = = # # & & = = & & O O O O & & - - p p p p p y < < = = % O O O O O = = = = & & & & = = ; ; = = & & & & = = = & & & & & = = = = = = = = & & & & & & & & $ $ & & - - d d d d d d w w - - # # O O X X & & & & # # O O & & w w d d d d * * * * * * * * * * * * * * * * - - * * * * - - , , , , , , - - & & * * , , , , , , * * & & & & # # # + # # + + + # # # + + + + & & & & & & & & & & & & & & & & * * & & & & & & & & & & & & & & & & & & & & & & & & & & & & & & & & & & & & & & & & & & & & & & & & & & & & & & $ + $ & & & & & + + + + + + + + + + + + + $ # # + + + + + + + + + + + + + + + + + + + + + + + + + + + + + + + + + + + + + + + + + + + + + + + + + + + + + + + + + + + + + + ",
"b b B B B B b b c c j j p d l l d d p p w w w w 6 6 6 6 6 6 , , , , < < p p M M S S M M c c g g g g g g g g g g g g g g g g g g g g p p g g g g y g g g g g p p p p p p p p p p p p 9 9 6 6 6 6 6 6 9 9 9 9 p p 6 6 6 6 6 6 4 4 4 4 4 4 , , 4 4 6 6 6 6 6 6 6 6 6 6 6 6 6 6 6 6 6 6 6 6 6 6 6 6 6 6 6 6 6 6 4 4 4 4 4 4 4 4 , , , , , , , , , , , , : : : : , , , , , , , , , , , , , , , , , , 4 4 , , , , , , , , , , , , , , : : : : , , , , , , , , , , , , 4 4 4 4 4 4 4 4 4 4 4 4 , , 4 4 4 , , , , , , , 4 4 , , 4 , , , , , 4 4 4 4 4 4 4 4 4 4 4 4 4 4 4 4 4 4 , , 6 6 6 6 6 6 6 6 , , , , 6 6 6 6 4 4 4 4 , , , , 4 4 4 , , , , , , , , , , , 4 4 4 4 , , : : , , , , , , : : - - : : : : : : : : : : * * * * * * : : : : : : * * * * * * * * * * * * * * * * & & * * , , , , * * * * * * * * - - - - - - * * * * = = = = - - 6 6 d d d d < < = = @ # & & = = & & @ O O O & & - - p p p p p y < < = = % % O O O O = = = = & & & & = = ; ; = = & & & & = & = = & & & & = = = = = = = = & & & & & & & & $ $ & & - - d d d d d d 0 0 - - # # O O X X & & & & # # O O & & w w d d d d * * * * * * * * * * * * * * * * - - * * * * - - , , , , , , - - & & * * , , , , , , * * & & & & # # # + + # + + # # # # + + + # & & & & & & & & & & & & & & & & * * & & & & & & & & & & & & & & & & & & & & & & & & & & & & & & & & & & & & & & & & & & & & & & & & & & & & & & $ + & & & & & & + + + + + + + + + + + + + + # # + + + + + + + + + + + + + + + + + + + + + + + + + + + + + + + + + + + + + + + + + + + + + + + + + + + + + + + + + + + + + + ",
"S S S S G G G G F F M M c c l l l l p p r r r r p p p p 6 6 , , , , , - , , 6 6 p p j j j j p p g g p p p p g g g g g g g g p p 9 y 9 9 9 9 y y y y 9 9 9 9 9 9 p p y y y y p p p p 9 9 9 9 4 4 6 6 6 6 6 6 6 6 6 6 6 6 6 6 4 4 4 4 , , , , , , 6 6 6 6 6 6 9 9 9 9 9 p 6 6 6 6 6 6 6 6 9 9 6 6 6 6 6 6 6 6 6 6 4 4 4 4 6 6 , , , , 4 4 4 4 4 4 4 4 , , , , 6 6 6 6 6 6 6 6 6 6 6 6 6 6 6 6 , , 4 4 , 4 , , , , , , , , , , 4 4 4 4 , , , , 4 4 4 4 4 4 , , , , , , 4 4 4 4 4 4 , , 4 , , , 6 6 4 4 , , , , 4 4 4 4 4 4 4 4 , , , , 4 4 4 4 6 6 4 4 4 4 4 4 4 4 4 4 4 4 , , 6 6 6 6 6 6 6 6 6 6 6 6 6 6 6 6 6 6 4 4 4 4 4 4 4 4 , , , , , , 4 4 4 4 , , , , 4 4 , , , , , , , , 4 4 4 4 , , : : : : : : : : * * * * & * & & * * : : : : * * * * * * , , 6 6 j j p p , , , , 6 6 6 6 < < * * < 5 < 5 < < < 5 5 5 , , , , , , < < - - - - 3 3 d d j j p p < < = = - - < - = = O O X X & & p p v v d d d d x x l l d d t y , 3 > > ; ; & & O O & & - - - - - - = = 3 3 3 3 - - * * * * = = & & O O $ $ = = 3 3 y y 3 3 d d b b k l k k l l k k w w = & @ @ O O - - w w w w < < w w l l d d < < - - * * * * - - - - * * * * & & * * * * * * * * - - , , * * & & + + * * 6 6 w w , , & & & & & & + + + + # # # # & & & & & & & & & & & & & & & & & & & & & & & & & & & & & & & & & & & & & & & & & & & & & & & & & & & & & & & & & & & & & & & & & & & & & & & & & & & & & & & & + + $ & & & & & & $ $ $ & & & & & & + + + + # # + + + + + + + + + + + + # # # # + + + + + + + + + + + + + + + + + + + + + + + + + + + + + + + + + + + + + + + + + + + + + + ",
"S S S S G G G G F F M M c c l l l d p p r r r r p p p p 6 6 , , , , , - , , 6 6 p p j j j j p p g g p p p p g g g g g g g g p p 9 y 9 9 9 9 y y y y 9 9 9 9 9 9 p p p y y y p p p p 9 9 9 9 4 4 6 6 6 6 6 6 6 6 6 6 6 6 6 6 4 4 4 4 , , , , , , 6 6 6 6 6 6 9 9 9 9 9 p 6 6 6 6 6 6 6 6 9 6 6 6 6 6 6 6 6 6 6 6 4 4 4 4 6 6 4 4 , , , 4 4 4 4 4 4 4 4 4 , , 6 6 6 6 6 6 6 6 6 6 6 6 6 6 6 6 , , , , , , , , , , , , , , , , 4 4 4 4 4 , , , 4 4 4 4 4 4 , , , , , , 4 4 4 4 4 4 , , , , , , 6 6 4 4 , , , , 4 4 4 4 4 4 4 4 , , , , 4 4 4 4 6 6 4 4 4 4 4 4 4 4 4 4 4 , , , 6 6 6 6 6 6 6 6 6 6 6 6 6 6 6 6 6 6 4 4 4 4 4 4 4 , , , , , , , , 4 4 4 , , , , 4 4 , , , , , , , , 4 4 4 4 , , : : : : : : : : * * * * & * & & * * : : : : * * * * * * , , 6 6 j j p p , , , , 6 6 6 6 < < * * < 5 5 5 < < < 5 5 5 , , , , , , < < - - - - 3 3 d d j j p p < < = = - - < - = = O O X X & & p p v v d d d d x v l l d d t y 3 3 > > ; ; & & O O & & - - - - - - = = > - 3 3 - - * * * * = = & & O O $ $ = = 3 3 y y 3 3 d d b b k k k k k k k k w w & & @ O O O - - w w w w < < w w l l d d < < - - * * * * - - - - * * * * & & * * * * * * * * - - , , * * & & + + * * 6 6 w w , , & & & & & & + + + + # # # # & & & & & & & & & & & & & & & & & & & & & & & & & & & & & & & & & & & & & & & & & & & * & & & & & & & & & & & & & & & & & & & & & & & & & & & & & & & & & & & & + + + & & & & & & $ $ $ & & & & & & + + + + # # + + + + + + + + + + + + # # # # + + + + + + + + + + + + + + + + + + + + + + + + + + + + + + + + + + + + + + + + + + + + + + ",
"j j l l b b G G / / Y Y B B d d w w < < - - < < w w d d j j 6 6 w w p p p p w w 6 6 6 6 p p 6 6 6 6 6 6 6 6 6 6 9 9 p p p p p p 9 9 6 6 9 9 9 9 9 9 9 9 y y 6 6 6 6 6 6 6 6 6 6 6 6 6 6 6 6 4 4 4 4 4 4 4 4 6 6 6 6 6 6 4 , , , 4 4 4 4 4 4 4 4 4 4 4 4 4 4 6 6 6 6 6 6 6 6 9 9 9 9 9 9 9 9 p p p p 9 9 6 6 6 6 6 6 6 6 6 6 , , , , , , 4 4 4 4 6 6 6 6 6 6 , , , , 4 4 4 4 4 4 4 4 4 4 , , 6 6 6 6 6 6 6 6 6 6 6 6 6 6 6 6 6 6 6 6 6 6 6 6 6 6 6 6 6 6 6 6 9 9 6 6 6 6 6 6 6 6 4 4 4 , , , , , , : , , , , , , , , , , , 4 9 9 6 6 6 6 6 6 6 6 6 6 4 4 , , , , , , 4 4 6 6 6 6 6 6 6 6 6 6 6 6 6 6 4 4 4 4 6 6 6 6 4 4 , , , , , , , , , , 4 4 4 , , , , , , , , , , , , , , , , , , 4 4 4 * * * : : : : : : : : : : : * * * * * * * * * * * * : : , , 5 5 p p 6 6 , , * * * * , , 6 6 r w , , 6 6 6 6 * * * * , , , , & & - - - - - - - - < < w 6 d d l l w w d d d d 3 3 - - - - , < < < p p p p l l b b l l 3 3 3 3 p p x x , , + + O O = = y y p p y y = = - - - - : : - - y y y y , , $ $ & & - - p p p p 3 3 3 3 p p b b l l d d 0 0 - - < < < < - - w w w w p p p p p p 6 6 - - - - * * , , , , * * & & + + & & & & & & * * * * * * * * , , * - & & & & & & & & & & * * * * * * * * & & & & & & # # & & & & & & & & & & & & & & & & & & & & & & & & & & & & & & & & & & & & & & & & & & & & & & & & & & & & & & & & & & & & # # & & & & & & & & & & & & & & & & + + + + + + & & & & & & & & & & + $ & & & & & & # # + + + + + + + + + + + + + + + + + + + + + + + + + + + + + + + + + + + + + + + + + + + + + + + + + + + + + + + + + + O O O O ",
"j j l l b b G G / / Y Y B B d d w w < < - - < < w w d d j j 6 6 w w p p p p w w 6 6 6 6 p p 6 6 6 6 6 6 6 6 6 6 9 9 p p p p p p 9 9 6 6 9 9 9 9 9 9 9 9 y y 6 6 9 6 6 6 6 6 6 6 6 6 6 6 6 6 4 4 4 4 4 4 4 4 6 6 6 6 6 6 4 4 4 4 4 4 4 4 4 4 4 4 4 4 4 4 4 4 6 6 6 6 6 6 6 6 9 9 9 9 9 9 9 9 p p p p 9 9 6 6 6 6 6 6 6 6 6 6 , , , , , , 4 4 4 4 6 6 6 6 6 6 , , , , 4 4 4 4 4 4 4 4 4 4 , , 6 6 6 6 6 6 6 6 6 6 6 6 6 6 6 6 6 6 6 6 6 6 6 6 6 6 6 6 6 6 6 6 9 9 6 6 6 6 6 6 6 6 4 4 , , , , , , , , , , , , , , , , , , 4 4 9 9 6 6 6 6 6 6 6 6 6 6 4 4 , , , , , , 4 4 6 6 6 6 6 6 6 6 6 6 6 6 6 6 4 4 4 4 6 6 6 6 4 , , , , , 4 4 , , , , 4 4 , , , , , , , , , , , , , , , , , , , 4 4 4 * * * * : : : : : : : : : : * * * * * * * * * * * * : : , , 5 5 p p 6 6 , , * * * * , , 6 6 w w , , 6 6 6 6 * * * * , , , , & & - - - - - - - - < < w 6 d d l l w w d d d d 3 3 - - - - < < < < p p p p l l b b l l 3 3 3 3 p p x x , , + + O O = = y y p p y y = = - - - - : : - - y y y y 3 , $ $ & & - - p p p p 3 3 3 3 p p l b l b d d 3 3 - - < < < < - - w w w w p p p p p p 6 6 - - - - * * , , , , * * & & + + & & & & & & * * * * * * * * , , * - & & & & & & & & & & * * * * * * * * & & & & & & # # & & & & # & & & & & & & & & & & & & & & & & & & & & & & & & & & & & & & & & & & & & & & & & & & & & & & & & & & & & & & # # & & & & & & & & & & & & & & & & $ $ + + $ + & & & & & & & & & & $ $ & & & & & & # # + + + + + + + + + + + + + + + + + + + + + + + + + + + + + + + + + + + + + + + + + + + + + + + + + + + + + + + + + + + + O O ",
"l l l l M M L L ) ) L L B B d d p p 6 6 < < < < 3 3 w w d d w w p p j j j j j j d d p p p p r r 6 6 6 6 6 6 6 6 6 6 9 9 9 9 9 9 6 6 4 4 4 4 6 6 4 4 4 4 4 4 4 4 4 4 4 , , , , , , , , , , , , , , , , , 4 4 6 6 6 6 4 4 , , 4 4 4 4 4 4 4 4 , , , , , , 4 4 6 6 6 6 6 6 6 6 6 6 6 6 6 6 6 6 6 6 6 6 6 6 6 6 6 6 6 6 4 4 4 4 , , 4 , 4 4 4 4 4 4 6 6 6 6 6 6 , , , , 4 4 4 4 4 4 4 4 4 4 4 4 9 9 9 y 9 9 9 9 9 9 9 9 9 9 9 9 6 6 6 6 6 6 6 6 6 6 6 6 6 6 6 6 6 6 6 6 6 6 6 6 4 4 4 4 , , , , , , , , , , , , , , , , , , , , 4 4 4 4 4 4 6 6 6 6 6 6 6 6 6 6 6 6 6 6 6 6 6 6 6 6 6 6 9 9 p y 6 6 6 6 6 6 6 6 6 6 6 6 6 6 6 6 , , 4 4 , , , , , 4 , , , , , , , , 4 4 4 , 4 4 4 4 , , : : : , : * : : : : * * * * * * * * * & * * * * * * * * * * : : , , , , , , , , * * & & * * - - < < 6 6 - - - - - - * * & & & & & & & & & & * * - - < < 3 3 3 3 3 3 6 6 p p d p w w < < < < 3 3 3 3 3 3 d d d d l l l l y y & & & & - - O O & & 3 3 d d x x x x d d d d 3 3 3 3 - - : : 3 3 d d x x d d x x y y - - : : & & O O & & : : d d b b b b d k w w 3 0 < < = = - - - - - - - - - - - - - - - - , , < < , , * * & & & & + + + + * * * * * * * * * * * * * * & & & & & & & & & & & & & & & & & & & & & & & & # # & & # # # # # & # # + + + + & & & & & & & & & & & & & & & & & & & & & & & & & & & & & & & & & & & & & & & & & & & & & & & # & & & & & & & & & & & & $ $ + + + + + + $ + + $ + + & & & & & & $ $ $ $ + + & $ + + + + + + # # # # # # # # + + + + # # # # # # # # # # # # # # # # + + + + + + + + + + + + + + + + + + + + + + + + + + + + + + ",
"l l l l B B L L ) ) L L M B d d p p 6 6 < < < < 3 3 w w d d w w p p j j j j j j d d p d p p r r 6 6 6 6 6 6 6 6 6 6 9 9 9 9 9 9 6 6 4 4 4 4 6 6 4 4 4 4 4 4 4 4 4 4 4 4 , , , , , , , , , , , , , , , , 4 4 6 6 6 6 4 4 , , 4 4 4 4 4 4 4 4 , , , , , , 4 4 6 6 6 6 6 6 6 6 6 6 6 6 6 6 6 6 6 6 6 6 6 6 6 6 6 6 6 6 4 4 4 4 , , 4 4 4 4 4 4 4 4 6 6 6 6 6 6 , , , , 4 4 4 4 4 4 4 4 4 4 4 4 9 9 9 y 9 9 6 6 9 9 9 9 9 9 9 9 6 6 6 6 6 6 6 6 6 6 6 6 6 6 6 6 6 6 6 6 6 6 6 6 4 4 4 4 , , , , , , , , , , , , , , , , , , , , 4 4 4 4 4 4 6 6 6 6 6 6 6 6 6 6 6 6 6 6 6 6 6 6 6 6 6 6 9 9 p p 6 6 6 6 6 6 6 6 6 6 6 6 6 6 6 6 , , 4 4 , , , , 4 4 , , , , , , , , 4 4 , , 4 4 4 4 , , : : : : * * : : : : * * * * * * * * * & & & * * * * * * * * : : , , , 4 , , , , * * & & * * - - < < 6 6 - - - - - - * * & & & & & & & & & & * * - - < < 3 3 3 3 3 3 6 6 p p p p w w < < < < 3 3 3 3 3 3 d d d d l l l l y y & & & & - - O O & & 3 3 d d x x x x d d d d 3 3 3 3 - - : : 3 3 d d x x d d x x y y - - * * & & O O & & : : d d b b b b d k w w 3 0 < < = = - - - - - - - - - - - - - - - - , , < , , , * * & & & & # + + + * * * * * * * * * * * * * * & & & & & & & & & & & & & & & & & & & & & & & # # # & & # # # # # & # # + + + + & & & & & & & # & & & & & & & & & & & & & & & & & & & & & & & & & & & & & & & & & & & & & & & & & & & & & & & & & & & & $ & + + + + + + $ + + $ + + $ $ & & & & $ $ $ $ + + + + + + + + + + # # # # # # # + + + + + # # # # # # # # # # # # # # # # + + + + + + + + + + + + + + + + + + + + + + + + + + + + + + ",
"3 3 d d S S / / ) ) G G j l p p p p w w 3 3 < < < , < < 3 3 w w p p p p j j j j j j p p 6 6 6 6 < < , , , , , , 5 5 6 6 6 6 6 6 4 4 4 4 4 4 4 4 9 9 4 4 4 4 4 4 4 4 4 4 4 4 4 4 4 4 , , , , 4 4 , , , , 4 4 6 6 6 6 4 4 , , 4 4 4 4 4 4 , , , , , , , , : : 4 4 , , , , , , , , 4 4 4 4 4 4 4 4 4 4 4 4 4 4 4 4 , , 4 4 , , , , , , , , 4 4 4 4 4 4 4 4 6 6 4 4 4 4 4 4 4 4 4 4 4 4 4 4 6 6 6 6 9 9 9 9 9 9 9 9 9 9 9 9 9 9 6 6 6 6 6 6 6 6 6 6 6 6 6 6 6 6 6 6 6 6 6 6 4 4 4 4 , , , , , , , , , , , , , , , , , , 4 4 4 4 , , , , , , 4 4 6 6 6 6 6 6 6 6 4 4 6 6 6 6 6 6 6 6 6 6 6 6 6 6 6 6 6 6 6 6 6 6 6 6 6 6 6 6 6 6 , , , , , , , , , , , 4 , , , , 4 , 4 4 , , , , , , * * * * * * * * * * * * * * * * * * * * * * * * * * * * * * * * : * : : , , * * * * & & & & & & * * , , , , * * & & & & * * * * & & & & * * & & = = , , 3 3 3 3 < < - - - - - - - - & & & & & & = = = = & & - - y y l l b b d d & & $ $ & & O O $ $ = = 3 3 p p d d d d d d 3 3 3 3 : : : : 3 3 d d d d d d d d - - & & $ $ $ $ $ $ & & - - l l l l k l 3 3 - - = = = = & = & & & & & & & & = = * * - - - - , , , , * * * & * * * * * * & & & & & & & & & & & & & & & & + + # # & & # # & & & & & & & & & & + + + + + + # # # # + + # # # # + + + + # # + + + + + + + + # # & & & & & & & & & & & & & & & & & & & & & & & & & & & & & & & & & & & & & & & & & & & & & & & & + + + + + + + + + + + + + + + + + + $ + + + + + $ $ + + $ + & & # + + + & & & & & & & & + + # # # # # # # # # # # # # # # # # # + + + + + + + + + + + + + + + + + + + + + + + + + + + + + + ",
"3 3 d d S S / / ) ) D G j j p p p p w w 3 3 < < , , < < 3 3 w w p p p p j j j j j j p p 6 6 6 6 < < , , , , , , 5 5 6 6 6 6 6 6 4 4 4 4 4 4 4 4 9 9 4 4 4 4 4 4 4 4 4 4 4 4 4 4 4 4 , , , , 4 4 , , , , 4 4 6 6 6 6 4 4 , , 4 4 4 4 4 4 , , , , , , , , : : 4 4 , , , , , , , , 4 4 4 4 4 4 4 4 4 4 4 4 4 4 4 4 , , 4 4 , , , , , , , , 4 4 4 4 4 4 4 4 6 6 4 4 4 4 4 4 4 4 4 4 4 4 4 4 6 6 6 6 9 9 9 9 9 9 9 9 9 9 9 9 9 9 6 6 6 6 6 6 6 6 6 6 6 6 6 6 6 6 6 6 6 6 6 6 4 4 4 4 , 4 , , , , , , 4 , , , , , , 4 , , 4 4 4 4 , , , , , , 4 4 6 6 6 6 6 6 6 6 4 4 6 6 6 6 6 6 6 6 6 6 6 6 6 6 6 6 6 6 6 6 6 6 6 6 6 6 6 6 6 6 , , , , , , 4 , , , 4 4 , , , , 4 4 4 4 , , , , , , * * * * * * * * * * * * * * * * * * * * * * * * * * * * * * * * * * : : , , * * * * & & & & & & * * , , , , * * & & & & * * * * & & & & * * & & = = , , 3 3 3 3 < < - - - - - - - - & & & & & & = = = = & & - - y y l l b b d d & & $ $ & & O O $ $ = = 3 3 p p d d d d d d 3 3 3 3 : : : : 3 3 d d d d d d d d - - & & $ $ $ $ $ $ & & - - l l l l k k 3 3 ; - = = = = = = & & & & & & & & = = * * - - - - , , , , * * * & & * * * * * & & & & & & & & & & & & & & & & + + # # & & # # & & & & & & & & & & + + + # + + # # # # + + # # + # + + + + # # + + + + # # + + # # & & & & & & & & & & & & & & & & & & & & & & & & & & & & & & & & & & & & & & & & & & & & & & & & + + + + + + + + + + + + + + + + + + $ $ + + + + + $ + + $ $ & & # # + + & & & & & & & & + + # # # # # # # # # # # # # # # # # # + + + + + + + + + + + + + + + + + + + + + + + + + + + + + + ",
"& & - - l c G G F F l l 3 3 - - < < < < < < < < < < < < , , w w w w w w p p d d d d 6 6 < < < < < < , , , , < < 6 6 6 6 6 6 6 6 6 6 6 6 6 6 9 9 g g y y 9 9 6 6 6 6 6 6 6 6 6 6 6 6 6 6 6 6 6 6 6 6 6 6 6 6 6 6 6 6 6 6 4 4 , , 4 4 4 4 , , , , , , , , : : : : : : , , , , , , , , , , , , , , , , , , , , , , , , 4 4 , , , , , , , , 4 4 4 4 4 , , 4 4 4 4 4 4 4 , , , , , , , , 4 4 4 4 6 6 6 6 6 6 6 6 6 6 6 6 6 6 6 6 4 4 , , , , , , 4 4 6 6 6 6 , 4 4 4 4 4 , , , , 4 4 4 4 , , , , 4 4 4 4 4 4 4 4 4 4 4 4 4 4 4 4 6 6 4 4 4 4 4 4 4 4 4 4 , , , , , , , , , , , , , , 4 4 4 4 4 4 4 4 , , , , , , , , 4 4 , , , , , , , , 4 4 4 4 , , 4 , , , , 4 , , , , : : : : * * * * * * * * & & * * * & * * * * : : * * * * * * * * * * * * * * * * : : - - * * * * & & & & & & & & & & * * * * * * * * * * * * * * * * , , = = - - , , < < < < , , - - - - - - ; ; & & & & & & & & & & = = + + = = y y j x d d : : & & = = 3 3 : : $ $ O O O O & & - - 3 3 - - - - - - - - 3 3 y y - - & & O O O O $ $ : * - - - - : : - - 6 6 w w < < & & # # & & & & & & # # & & & & = = - - - - - - * * * * , , - - * * * * * * - - * * # # & & & & & & & & & & & & # # & & & & & & & & & & & & & & & & # & & & & & & & & & & & & & # & & & # & & & & & # & & & & & & & & & & & & & & & & & & & & & & & & & & & & & & & & & & & & & & & & & & & & & + + & & & & & & & & + + + + + + $ $ + + $ $ + + + + + + + + + + + + $ $ + + + $ & & & & & & & & & & & & & & & & & & # # # # # # # # # # # # # # # # + + + + + + + + + + + + + + + + + + + + + + + + + + + + + + ",
"& & - - l l G G F F l l 3 3 - - < < < < < < < < < < < < , , w w w w w w p p d d d d 6 6 < < < < < < , , , , < < 6 6 6 6 6 6 6 6 6 6 6 6 6 6 9 9 g g y y 9 9 6 6 6 6 6 6 6 6 6 6 6 6 6 6 6 6 6 6 6 6 6 6 6 6 6 6 6 6 6 6 4 4 , , 4 4 4 4 , , , , , , , , : : : : : : , , , , , , , , , , , , 4 4 , , , , , , , , , , 4 4 , , , , , , , , 4 4 4 4 4 4 , , 4 4 4 4 4 4 , , , , , , , , 4 4 4 4 6 6 6 6 6 6 6 6 6 6 6 6 6 6 6 6 4 4 , , , , , , 4 4 6 6 6 6 , , 4 4 4 4 , , , , 4 4 4 4 4 , , , 4 4 4 4 4 4 4 4 4 4 4 4 4 4 4 4 6 6 4 4 4 4 4 4 4 4 4 4 , , , , , , , , , , , , , , 4 4 4 4 4 4 4 4 , , , , , , , , 4 4 , , , , , , , , 4 4 4 4 , , 4 4 , , , 4 , , , , : : : : * * * * * * * * & & * * & & * * * * * * * * * : * * * * * * * * * * * * : : - - * * * * & & & & & & & & & & * * * * * * * * * * * * * * * * , , = = - - , , < < < < , , - - - - - - ; ; & & & & & & & & & & = = + + = = y y j x d d - : & & = = 3 3 : : $ $ O O O O & & - - 3 3 - - - - - - - - 3 3 y y - - & & O O O O $ $ : : - - - - : : - - 3 3 w w < < & & # @ & & & & & & # # & & & & = = - - - - - - * * * * , , - - * * * * * * - - * * # # & & & & & & & & & & & & # # & & & & & & & & & & & & & & & & & & & & & & & & & & & & & & & & & & & & & & & & & & & & & & & & & & & & & & & & & & & & & & & & & & & & & & & & & & & & & & & & & & & & & # + + & & & & & & & & + + + + + + $ $ + + $ $ + + + + + + + + + + + + $ $ + + + $ & & & & & & & & & & & & & & & & & & # # # # # # # # # # # # # # # # + + + + + + + + + + + + + + + + + + + + + + + + + + + + + + ",
"& & ; ; w w d d p p < < - - = = = = - - - - 3 3 p p w w < < d d p p w w p p p p p p 6 6 < < < < 3 3 w w p p p p r r 6 6 6 6 6 6 p p p p p p g g j j g g p p 6 6 6 6 6 6 6 6 6 6 4 4 4 4 4 4 6 6 6 6 6 6 6 6 6 6 6 6 6 6 4 4 , , , , , , , , , , , , , , , , : : : , , , , , , , , , , , , , 4 4 4 4 4 4 , , , , , , , , , , , , 4 4 4 4 4 , , , 4 4 4 4 4 4 , , , , , , , , , , , , , , , , , , , , , , , , 4 4 , , , , 4 4 4 4 , , , , , , 4 4 6 6 4 4 4 4 , , , , , , , , , , 4 4 4 4 , 4 4 4 4 4 4 4 4 4 4 4 4 4 4 4 4 4 6 6 6 6 4 4 4 4 4 4 4 4 : : : : , , , , , , : : : : , , , , , , , , , , , : : : , , , , , , : , , , , , , , , , , , , , , , , , : : , , , , : : : : : : * * * * * * * * * * * * : : * * * * * * * * * * * * * * * * * * * * * * * * * * * * * * & & & & & & & & * * , , * * & & & & * * , , - - = = - - < < < < < < - - - - * * & & & & & & & & # # # # & & - - = = & & & & & & & & & & & & = = = = < < 3 3 * * O O X X O O & & - - - - - - - - , < - - & & X X X X # # - - 3 3 3 3 = = # # O O O O # # & & & & & & - - - - & & O O + + + + # # & & & & & & & & , , 6 6 6 6 , , * * & & * * * * & & & & * * , , , , , , * * * * & & & & & & & & * * & & & & & & & & & & & & & & & & & & & & & & & & & & & & & & & & & & & & & & & & & & & & & & & & & & & & & & & & & & & & & & & & & & & & & & & & & & # # # # & & & & & & & & & & + $ & & $ $ + + & & $ $ $ $ + + + + + + + + $ $ + + + + & & & & & & & & & & & & & & & & & & # # # # # # # # # # # # # # # # # # # # + + + + + + + + + + + + + + + + + + + + + + + + + + ",
"& & ; ; p w d d p p < < - - = = = = - - - - 3 3 p p w w < < d d p p w w p p p p p p 6 6 < < < < 3 3 w w p p p p r r 6 6 6 6 w w p p p p p p g g j j g g p p 6 6 6 6 6 6 6 6 6 6 4 4 4 4 4 4 6 6 6 6 6 6 6 6 6 6 6 6 6 6 4 4 , , , , , , , , , , , , , , , , , : : , , , , , , , , , , , , , 4 4 4 4 4 4 , , , , , , 4 4 , , , , 4 4 4 4 , , , , 4 4 4 4 4 4 , , , , , , , , , , , , , , 4 4 , , , , , , , , 4 4 , , , , 4 4 , , , , , , , , 4 4 6 6 4 4 4 4 , , , , , , , , , , 4 4 4 4 , , 4 4 4 4 4 4 4 4 4 4 4 4 4 4 4 4 6 6 6 6 4 4 4 4 4 4 4 4 , : : : , , , , , , : : : : , , , , , , , , : , , : , : , , , , , , : , , , , , , , , , , , , , , , , , : : , , : , : : : : : : * * * * * * * * * * * * : : * * * * * * * * * * * * * * * * * * * * * * * * * * * * * * & & & & & & & & * * , , * * & & & & * * , , - - = = - - < < < < < < - - - - * * & & & & & & & & # # # # & & - - = = & & & & & & & & & & & & = = = = < < 3 3 * * O O X X O O & & - - - - - - - - , , - - & & X X X X # # - - 3 3 3 3 = = # & O O O O # # & & & & & & - - - - & & O O + + + + # # & & & & & & & & , , 6 6 6 6 , , * * & & * * * * & & & & * * , , , , , , * * * * & & & & & & & & * * & & & & & & & & & & & & & & & & & & & & & & & & & & & & & & & & & & & & & & & & & * * & & & & & & & & & & & & & * * & & & & & & & & & & & & & & & & & # # # & & & & & & & & & & + & & & $ + + + & & $ & $ $ + + + + + + + + $ + + + + + & & & & & & & & & & & & & & & & & & # # # # # # # # # # # # # # # # # # # # + + + + + + + + + + + + + + + + + + + + + + + + + + ",
"3 3 d d b b l l 6 6 = = & & * * - - - - - - w w l l j j w w d d d d p p w w 6 6 6 6 6 6 3 3 w w d d d d d d p p r w 6 6 r r p p j j c c j j p p p p 9 9 6 6 4 4 4 4 4 4 4 4 4 4 , , , , , , 4 4 , , , , , , 4 4 4 4 , , , , , , : : : : , , , , , , , , , , : : , , , , , , , , , , , , , , , , , , , 4 , , 4 4 , , 4 4 4 4 , , , , , , , , , , 4 4 4 4 4 4 , , , , , , , , , , , , , , , , , , , , , , , , 4 4 , , , , 4 4 4 4 4 4 4 4 4 4 6 6 6 6 6 6 6 6 , , , , , , , , 4 4 4 4 4 4 , , 6 6 6 6 6 6 4 4 4 4 4 4 4 4 4 4 , , , , , , , , 4 4 4 4 , , , , , , , , , , , , , , , , , , , , , , , , : : , , , , , , , , , , , , , , , , , , , , , , , , , , , , , , , , , , , , , , , , , , , , , , - - : : : : * * * * * * * * * * * * * * * * * * * * * * * * * * * * * * * * * * * * * * , , w w 6 6 & & & & - - , , * * & & * * < < 6 6 < < - - = = & & O O O O O O O O O O O O & & - - = = # # O O O O O O + + + + + + # # * * < < 3 3 - - & & + + + + - - * * = = & & & & & & # # O O & & - - < < - - = = # # O O O O O O O O O O O O & & - - - - & & + + + + O O O O O O + + & & * * - - < < 6 6 , , = = & & * * - - * * * * - - , , < < , , * * * * & & & & & & & & & & & & & & & & & & & & & & & & & & & & & & & & * * * * * * * * * * * * * * * * & & & & & & & & & & & & & & * & & & & * & & & & & * & & & & & & & & & & & & & & & & & & & & & & & # & & & & * * & & & & & & & & + + + + + + + + + + + + + + & & & & & & & & & & & & & & & & & & # # # # # # # # + + # # # # # # # # # # + + + + + + + + + + + + + + + + + + + + + + + + + + ",
"3 3 d d b b l l 6 6 = = & & - - - - - ; - - w w l l j j w w d d d d p p w w 6 6 6 6 6 6 3 3 0 w d d d d d d p p w w 6 6 w r p p j j c c j j p p p p 9 9 6 6 4 4 4 4 4 4 4 4 4 4 , , , , , , 4 4 , , , , , , 4 4 4 4 , , , , , , : : : : , , , , , , , , , , : : : , , , , , , , , , , , , , , , , , , , , , , , , , 4 4 4 , , , , , , , , , , , 4 4 4 4 4 4 , , , , , , , , , , , , , , , , , , , , , , , , , , , , , , 4 4 4 4 4 4 4 4 4 4 6 6 6 6 6 6 6 6 , , , , , , , , 4 4 4 4 4 4 , 4 6 6 6 6 6 6 4 4 4 4 4 4 4 4 4 4 , , , , , , , , 4 4 4 4 , , , , , , , , , , , , , , , , , , , , , , , , : : , , , , , , , , , , , , , , , , , , , , , , , , , , , , , , , , , , , , , , , , , , , , , , - - : : : : * * * * * * * * * * * * * * * * * * * * * * * * * * * * * * * * * * * * * * , , w w 6 6 & & & & - - , , * * & & * * < < 6 6 < < - - = = & & O O O O @ @ O O O O O O & & - - = = # # O O O O O O + + + + + + # # * * < < 3 3 - - & & + + + + - - * * = = & & & & & & # # O O & & - - , , , , = = # # O O O O O O O O O O O O & & - - - - & & + + + + O O O O O O + + & & * * - - < < 6 6 , , = = & & * * - - * * * * - - , , < < , , * * * * & & & & & & & & & & & & & & & & & & & & & & & & & & & & & & & & * * * * * * * * * * * * * * * * & & & & & & & & & & & & & & & * * & & & & & & & & * * & & & & & & & & & & & & & & & & & # # & & & # & & & & * * & & & & & & & & + + + + + + + + + + + + + + & & & & & & & & & & & & & & & & & & # # # # # # # # + + # # # # # # # # # # + + + + + + + + + + + + + + + + + + + + + + + + + + ",
"d p b b S S b b d d - - & & 3 3 3 3 < < < < 0 0 d d j j p p w w p p d d p p < < , , , , < < d d k k l l d d < < - - - - , , p p l l b n j j r r 6 6 6 6 , , 4 4 , , 4 4 4 4 4 4 , , , , , , , , , , , , , , , , , , , , , : , , , , , , , , , , , , , , , , - : : : , , , , , , , , , , , , , , , , , , , , , , , , , , , , , , , , , , , , , , 4 4 4 4 , , , , 4 4 4 4 4 4 4 4 , , , , , , , , : : , , , , , , , , , , 4 4 4 4 4 4 4 4 , , 6 6 6 6 6 6 6 6 , , 4 4 4 4 4 4 4 4 4 4 4 4 4 4 6 6 6 6 4 4 4 4 4 4 4 4 4 4 4 4 , , , , , , , , 6 6 6 6 6 6 4 4 , , , , 4 4 4 4 , , , , , , , , 4 4 , , , , , , , , 4 4 4 4 4 , , , , , , , , , , , , , , , , , , , , , , 4 4 4 , , 4 4 , , , , 4 4 , , , , : : : : : : * * * * * * * * * * * * * * * * * * * * & & & & * * * * * * * * * * * * , , 6 6 6 6 , , - - , , , , , , = = - - < < < < < < - - - - = = = = & & & & & & & & & & = = < < & & # # # # # # & & & & # # + + & & & & & & & & - - , , - - & & - - = = & & & & & & & & & & = = & & = = = = & & & & # # & & & & & & & & + + O O O O & & * * * * & & & & # # + + + + & & * * , , * * , , , , - - * * - - , , , , * * & & * * - - - - * * & & & & & & & & & & & & & & & & & & & & & & & & & & & & & & & & & & & & & & & & & & * * * * * * * * * * & & & & & & & & & & & & & & & & & & & & & & & & & & * & & & & & & & & & & & & & & & & & & & & & # # $ $ & & * & & & & & & & & & & & & $ + $ $ $ $ + & & & & # # & & & & & & & & & & & & & & & & # # # # # # + + + + + # # # # # # # # # # # + + + + + + + + + + + + + + + + + + + + + + + + ",
"p p b b S S b b d d - - & & 3 3 3 3 < < < < 0 0 d d j j p p w w p p d d p p < < - - , , < < d d k k l l d d < < - - - - , , p p l l b n j j r r 6 6 6 6 , , 4 4 4 , 4 4 4 4 4 4 , , , , , , , 4 , , , , , , , , , , , , , , , , , , , , , , , , , , , , , , : : : : , , , , , , , , , , , , , , , , , , , , , , , , , , , , , , , , , , , , , , 4 4 4 4 , 4 , , 4 4 4 4 4 4 4 4 , , , , , , , , : : , , , , , , , 4 , , 4 4 4 4 4 4 4 4 , , 6 6 6 6 6 6 6 6 , , 4 4 4 4 4 4 4 4 4 4 4 4 4 4 6 6 6 6 4 4 4 4 4 4 4 4 4 4 4 4 , , , , , , , , 6 6 6 6 6 6 4 4 , , , , , , 4 4 , , , , , , , , 4 , , , , , , , , , 4 4 4 4 , , , , , , , , , , , , , , , , , , , , , , , , 4 4 , , 4 4 , , , , 4 4 , , , , : : : : : : * * * * * * * * * * * * * * * * * * * * & & & & * * * * * * * * * * * * , , 6 6 6 6 , , - - , , , , , , = = - - < < < < < < - - - - = = = = & & & & & & & & & & = = < < & & # # # # # # & & & & # # + + & & & & & & & & - - , , - - & & - - = = & & & & & & & & & & = = & & = = = = & & & & # # & & & & & & & & + + O O O O & & * * * * & & & & # # + + + + & & * * , , * * , , , , - - * * - - , , , , * * & & * * - - - - * * & & & & & & & & & & & & & & & & & & & & & & & & & & & & & & & & & & & & & & & & & & * * * * * * * * * * & & & & & & & & & & & & & & & & & & & & & & & & & * * & & & & & & & & & & & & & & & & & & & & & & & $ $ & & * * & & & & & & & & & & & & $ $ $ $ $ + & & & & # # & & & & & & & & & & & & & & & & # # # # # # # # + + + # # # # # # # # # # # + + + + + + + + + + + + + + + + + + + + + + + + ",
"3 3 d d d d d d p p w w 3 3 p p p p w w < < < < d p d d w w < < p p d d d d 3 3 - - , , 6 6 d d l l k l w w = = + + # # & & 6 6 l l b b j j 6 6 6 6 6 6 , , , , , , , , , , , , , , , , , , 4 4 5 5 , , 5 5 5 5 5 5 , , , , 4 4 , , 4 4 , , , , : : : : , , , , : : : : , , , : : : , , , , , , , , , , , , , , , , : : : : , : , , , , , , , , 4 4 4 4 6 6 6 6 6 6 6 6 6 6 6 6 6 6 4 4 , , : : : : : : : : , , , , , , , , , , , , , , , , 6 6 6 6 6 6 6 6 4 4 4 4 4 4 4 4 4 4 4 4 4 4 4 4 6 6 6 6 , , 4 4 4 4 4 4 , , , , , , , , , , , , 6 6 6 6 6 6 4 4 , , , , , , , , , , , , : : : , , , , , : : , , , , 4 4 4 , , , , , , , , , , , , , , , , , , , : : : , , , , , , , , , , , : : : , : : , , , , , , , , : , : : * * * * * * * * * * * * * * & & & & & & * * * * * * * * * * * * * * * * - - < < < < , , * * , , , , < < < < - - - - - - < < < < 3 3 - - & & & & & & & & = = - - * * & & & & O O O O + + # # & & & & & & & & & & & & & & - - 3 3 - - - - , , , , - - - - , , < < & & & & & & & & & & & & # # O O O O # # & & & & & & , , , , - - & & & & & & * * * * * * : : , , , , , , , , * * * * , , , , * * - - & & & & * * * * * * * * * * & & & & & & & & & & & & & & & & & & & & & & & & & & & & & & & & & & & & & & & & & & * * * * * * * * * * * * * * * * * * * * * * & & * & & & & & * * & & & & & & & & & & & & & & & & & & & & & & + + & & & & * * & & & & & & & & & & & & & & & & # # & & & & # # & & & & & & & & & & & & & & & & & & & & & & & & & & & & & & & & # # # # # # + + + + + + + + + + + + + + + + + + + + + + + + ",
"3 3 d d d d d d p p w w 3 3 p p p p w w < < < < d p d d w w < < p p d d d d 3 3 - - , , 6 6 d d l l l l w w = = + + # # & & 6 6 l l b b j j 6 6 6 6 6 6 , , , , , , , , , , , , , , , , , , 4 4 5 5 , , 4 4 4 5 5 5 , , , , 4 4 , 4 4 4 , , , , : : : : , , , : : : : : , , : : : : , , , , , , , , , , , , : , , , : : : : : : , , , , , , , , 4 4 4 4 6 6 6 6 6 6 6 6 6 6 6 6 6 6 4 4 , , : : : : : : , , , , , , , , , , , , , , , , , , 6 6 6 6 6 6 6 6 4 4 4 4 4 4 4 4 4 4 4 4 4 4 4 4 6 6 6 6 , , 4 4 4 4 4 4 , , , , , , , , , , , , 6 6 6 6 6 6 4 4 , , , , , , , , , , , , : : : , , , , , : : , , , , 4 4 4 , , , , , , , , , , , , , , , , , , , : , : : , , , , , , , , , , : : : : : : , , , , , , , , : : : : * * * * * * * * * * * * * * & & & & & & * * * * * * * * * * * * * * * * - - < < < < , , * * , , , , < < < < - - - - - - < < < < 3 3 - - & & & & & & & & = = - - * * & & & & O + O O + + # # & & & & & & & & & & & & & & - - 3 3 - - - - , , , , - - - - , , < < & & & & & & & & & & & & # # O O O O # # & & & & & & , , , , - - & & & & & & * * * * * * : : , , , , , , , , * * * * , , , , * * - - & & & & * * * * * * * * * * & & & & & & & & & & & & & & & & & & & & & & & & & & & & & & & & & & & & & & & & & & * * = = * * * * * * * * * * * * * * * * * * & & * & & & & & & & & & & & & & & & & & & & & & & & & & & & & & + + & & & & * * * & & & & & & & & & & & & & & & # # & & & & # # & & & & & & & & & & & & & & & & & & & & & & & & & & & & & & & & # # # # # # + + + + + + + + + + + + + + + + + + + + + + + + ",
"3 3 3 3 p p d d d d p p 3 3 p p d d w w 3 6 p p p p 6 3 3 3 d d b b S S B B w w & & * * w w p p 6 6 - - & & # # & & 3 3 d d j j d d d d d d p p < < - - * * , , * * * * & & * * * * - - * * 6 6 6 6 6 6 , , , , 6 6 , , & & - - , , 4 , 4 4 4 4 , , , , , , : : : : : : : : : , , , , , , , , , , , , , , , , , , , , , , , , , , , , , , , , , 4 4 4 4 4 4 6 6 6 6 6 6 4 4 4 4 4 4 4 4 4 4 , , , , : : : : , , , , , , , : , 4 4 4 4 4 6 6 6 6 6 6 6 6 6 6 , , , , , , 4 4 4 4 6 6 6 6 6 6 6 6 4 4 4 4 6 6 6 6 6 6 6 6 6 6 6 6 6 6 6 6 6 6 6 6 6 6 4 4 4 4 4 4 4 4 , , , , , , 4 4 , , , , 4 4 4 4 , , , , 4 4 4 4 4 , , , 4 4 4 4 4 4 , , , , , , , , , , , , , , , , , , , , , , , , , , - - : : , , : : : : * * * * * * * * * * * * * * * * * * * * * * & & * * * * * * * * * * & & & & * * * * * * * * * * * * - - - - , , , , , , , , , , , , , , , , - - * * * * * * * * * * & & & & & & * * - - * * & & & & & # & & * * & & & & & & + + + + # # & & & & * * < < w w 6 6 - - & & # # O O + + # # & & # # # # & & & & + + # # & & * * - - * * & & & & & & & & & & & & * * * * * * : : * * * * * * * * * * - - * * * * * * * * & & & & & & & & & & & & & & & & & & & & & & & & & & & & + + # # & & & & & & & & & & & & & & & & & & & & & & & & & & & & * * * * * * * * * * & & & & & & & & & & * * * & & & & & & & & & & & & & & & * * * * & & & & & & & & & & & & & & & & & & & & & & & & & & & & # # + + + + + + + + & & & & & & & & & & & & & & & & + + + + + + + + # # # # & & & & + + + + + + + + + + + + O O O O + + + + + + + + + + + + + + ",
"3 3 3 3 p p d d d d p p 3 3 p p d d w w 3 3 p p p p 6 6 3 3 d d b b S S B B w w & & = * w w p p 6 6 - - & & # # & & 3 3 d d j j d d d d d d p p < < - - * * , , * * * * & & * * * * - - * * 6 6 6 6 6 6 , , , , 6 6 , , & & - - , , 4 4 4 4 4 4 , , , , : : : : : : : : : : : , , , , , , , , , , , , , , , , , , , , , , , 4 , , , , , , , , , 4 4 4 4 4 4 6 6 6 6 6 6 4 4 4 4 4 4 4 4 4 4 , , , , : : : : , , , , , , : : , , 4 4 4 4 6 6 6 6 6 6 6 6 6 6 , , , , , , 4 4 4 4 6 6 6 6 6 6 6 6 4 4 4 4 6 6 6 6 6 6 6 6 6 6 6 6 6 6 6 6 6 6 6 6 6 6 4 4 4 4 4 4 4 4 , , , , , , 4 4 , , , , 4 4 4 4 , , , , , , 4 4 , , , , 4 4 4 4 4 4 , , , , , , , , , , , , , , , , , , , , , , , , , , - - : : , , : : : : : : * * * * * * * * * * * * * * * * * * * * & & * * * * * * * * * * & & & & * * * * * * * * * * * * - - - - , , , , , , , , , , , , , , , , - - * * * * * * * * * * & & & & & & * * - - * * & & & & & & & & * * & & & & & & + + + + # # & & & & * = < < w w 6 6 - - & & # # O O + + # # & & # # # # & & & & O O # # & & * * - - * * & & & & & & & & & & & & & * * * * * : : * * * * * * * * * * - - * * * * * * * * & & & & & & & & & & & & & & & & & & & & & & & & & & & & # # # # & & & & & & & & & & & & & & & & & & & & & & & & & & & & * * * * * * * * * * & & & & & & * * & & & & * & & & & * & & & & & & & & & & * * * * & & & & & & & & & & # # & & & & & & & & & & & & & & & & # # + + + + + + + + & & & & & & & & & & & & & & & & + + + + + + + + # # # # & & & & + + + + + + + + O + + + O O O O + + + + + + + + + + + + + + ",
"d d b b x x y y 3 3 y y d d p p d d d d w w p p p p w w p d l l b b b b l l 6 6 , , < < p p l l d d 3 3 - * & & - - 3 3 p p w w w w 6 6 6 6 < < - - & & & & + + + + & & & & * * , , < < 6 6 6 6 w w 6 6 < < , , < < 6 6 < < , , , , : : : : : : : : , : , , : : , , , , : : , , , , , , , , , , , , , , , , 4 , 4 , , , , , 4 4 4 4 4 4 4 4 6 6 6 6 6 6 6 6 6 6 6 6 6 6 4 4 4 4 4 4 , , , , , , , , , , , , 4 4 , , 4 4 , , , , , 4 4 4 4 4 6 6 6 6 6 6 6 6 6 6 6 6 6 6 6 6 6 6 6 6 6 6 6 6 6 6 4 4 4 4 4 4 6 6 6 6 , , , , , , , , , , 4 4 4 4 4 4 4 4 4 4 4 4 4 4 , , : : , , , , , , : : : : : , , : , , : : , , , , , , 4 4 4 4 4 4 , , , , , , 4 4 4 4 : , : : : : , , - - , , , , : : , - , , , , , , , , , , : : : : : : * * * * * * * * * * * * * * & & & & & & & & & & & & & & & & * * * * * * * * * * * * * * * * - - - - - - - - - - * * * * * * & & & & & & & & & & * * & & & & & & * * - , , , * * & & & & & & & & & & & & & & # + + + + + + + O O O O & & = = & & # # O O X X & & # # # # & & & & & & & & & & & & & & - - - - - - * * * * & & & & & & & & & & & & & & & & & & & * & & & & & & * * * * * * * * & & & & & & & & & & & & & & & & & & & & & & $ $ $ & & & $ $ & & + + + + $ & & & & & & & & & & & & & & & & & & & & & & & & & & & & & & & & & & & & & & & & & & & * * & & & & & & & & & & & & & & $ & $ & + + & & & & + + $ $ & & # # + + + + # # # # # + + + + + # # # # # # + + + + + + + + + + # # # # & & & & & & & & # # # # + + + + + + + + + + + + + + # # + + + + + + + + O O + + + + O O + + + + + + O O + + + + O + ",
"d d b b x x y y 3 3 y y d d p p d d d d w w p p d d w p p d l l b b b b l l 6 6 , , < < p p l l d d 3 3 - - & & - - 3 3 p p w w w w 6 6 6 6 < < - - & & & & + + + + & & & & * * , , < < 6 6 6 6 w w 6 6 < < , , < < 6 6 < < , , , , : : : : : : : : , : , , : : , , : : : : , , , , , 4 4 , , , , , , , , , , , 4 4 , , , , 4 4 4 4 4 4 4 4 6 6 6 6 6 6 6 6 6 6 6 6 6 6 4 4 4 4 4 4 , , , , , , , , , , , , 4 4 4 4 4 4 , , , , 4 4 4 4 , 4 6 6 6 6 6 6 6 6 6 6 6 6 6 6 6 6 6 6 6 6 6 6 6 6 6 6 4 , 4 4 4 4 6 6 6 6 , , , , , , , , , , 4 4 4 4 4 4 4 4 4 4 4 4 , 4 , , : : , , , , , , - - : : : , , , , , , , , , , , , , 4 4 4 4 4 4 , , , , , 4 4 4 4 4 , , : : , , , , - - , , : : : : , , , , , , , , , , , , : : : : * : * * * * * * * * * * * * * * & & & & & & & & & & & & & & & & * * * * * * * * * * * * * * * * - - - - - - - - - - * * * * * * & & & & & & & & & & * * & & & & & & * * , , , , * * & & & & & & & & & & & & & & # # + + + + + + O O O O & & = = & & # # O O X X & & # # # # & & & & & & & & & & & & & & - - - - - - * * * * & & & & & & & & & & & & & & & & & & & * & & & & & & * * * * * * * * & & & & & & & & & & & & & & & & & # $ & & & $ $ $ & & & $ $ & & + + + + + & & & & & & & & & & & & & & & & & & & & & & & & & & & & & & & & & & & & & & & & & & & * * & & & & & & & & & & & & & & & & & & + + & & & & $ $ & & & & # # + + + + # # # # # + + + + + + # # # # # + + + + + + + + + + # # + # & & & & & & & & # # # # + + + + + + + + + + + + + + # # + + + + + + + O O O + + + + O O + + + + + + O O + + + + O O ",
"p p d d d d d d d d d j l l d d b b b b b b b b l l j l l l l l d d w w < < - - < < 6 6 w w d d w w < < - - - - - - - - - - = = = = = = & & & & & & # # # # # # * * , , < < 6 6 6 6 p p j j d d j j j j w w , , , , 6 6 p p r r 6 6 , , : : * * : : , , 4 4 , , , - , , , , , , , , , , 4 4 4 , , , 4 4 4 4 , , , , , , , , 4 4 4 4 4 4 4 4 4 4 4 4 6 6 6 6 4 4 , , , 4 , , , 4 , , , , , , , , : : : : : : : : , , , , : : : : , , , : , , , , , , , , , , , , , , , , , , 4 , 4 4 4 4 6 6 4 4 4 4 , , , , 4 4 , , : : : : * * * * * * : : : : , , 4 4 6 6 , , , , : : , , , , , , , , - - - , : : : : , , , , , , , , 4 4 , , , , : : , , , , , , , , , , : : : : : : : : : : : : : : : : : : : : : : - : , , - - - - : : : : * * * * * * * * & & & & & & + + & & & & & & & & & & & & & & & & & & & & & & & & & & * * * * & & * * * * * * * * & & & & & & & & & & & & & & & & & & & & # # # # & & , , , , , , * * & & # # * * * * * * & & & & & & & & & & + + # # & & = = = * & & & & & & & & # # # # & & * * - - - - - - & & & & * * - - - - * * & & + + O O + + + + & & & & * * & & # # & & & & & & & & & & & & & & & & & & & & & & & & & & & & & & # & + + + + + + + + + + + + + + + + + + & & & & $ $ & & & & & & & & & & & & & & & & & & & & & & & & & & & & & & & & & & & & & & & & & & & & & & & & & & & & & & & & + + + + + + $ $ $ $ + + + + + + # # + + # # + + + + + + + + + + + + + + + + + + + + + + + + O O + + + + # # # # # # # # + + + + + + + + + + + + + + + + + + + + + + + + + + + + + + O O O + + + O O O O O + O O + + + O O O ",
"p p d d d d d d d d d j l l d d b b b b b b b b l l l l l l l l d d w w < < - - < < 6 6 w w d d w w < < - - - - - - - - - - = = = = = = & & & & & & # # # # # # * * , , < < 6 6 6 6 p p j j d d j j j j w w , , , , 6 6 p p r r 6 6 , , : : : * , , , , 4 4 , , - - , , , , , , 4 , , , 4 4 4 4 , , 4 4 , , , , , , , , , , 4 4 4 4 4 4 4 4 4 4 4 4 6 6 6 6 4 4 , , 4 4 , , , 4 , , , , , , , , : : : : : : , : , , , , : : : : , , , : , , , , , , , , , , , , , , , , , , 4 , 4 4 4 4 6 6 4 4 4 4 , , , , 4 4 , , : : : : * * * : * * : : : , , , 4 4 6 6 , , , , : : , , , , , , , , : : , , : : : : , , 4 4 , , , , 4 4 , , , , : : , , , , , , , , , , : : : : : : : : : : : : : : : : : : : : : : : : , , - - - - : : : : * * * * * * * * & & & & & & + + & & & & & & & & & & & & & & & & & & & & & & & & & & * * * * & & * * * * * * * * & & & & & & & & & & & & & & & & & & & & # # # # & & , , , , , , * * & & # # * * * * * * & & & & & & & & & & + + # # & & = = * * & & & & & & & & # # # # & & = * - - - - - - & & & & * * - - - - * * & & + + O O + + # # & & * * * * & & + # & & & & & & & & & & & & & & & & & & & & & & & & & & & & & & # # + + + + + + + + + + + + + + + + + + & & & & $ $ & & & & & & & & & & & & & & & & & & & & & & & & & & & & & & & & & & & & & & & & & & & & & & & & & & $ $ & & & & + + + + + + $ + $ $ + + + + + + # # # # # # + + + + + + + + + + + + + + + + + + + + + + + + O O + + + + # # # # # # # # + + + + + + + + + + + + + + + + + + + + + + + + + + + + + + O O + + + + O O O O + + O O + + + + O O ",
"$ $ O O & & * * : : : : : : p p b b S S S S S S M M b b B B l l l l d d < < - - - - - - - - & & & & & & & & * * * * & & & & & & & & & & & & & & & & = = & & * * 6 6 p p p p w w 6 6 p p d d j j l l j j p p 6 6 6 6 p p j j j j g g 9 9 4 4 , , : : , , , , , , : : - , : : , , , , , , , , , , , , , , , , , , , , , , , , , , , , , , , , , , , , , , , , , , , , , , , , : : , , , , : : * * * * * * * * * * : : : : * * * * * * * * * * * * * * * * * * * * * * * * * * * * : : , , , , 4 4 , , , , , , , 4 , , , : : : * * * * * * * * * * , , , , , , , , : , : : : : : : : : : : : : , , , , : : , , , , , , , , 4 4 * * * * * * * * : : : : : : : : : : : : : : : : : : : : : : : : * * * * * * * * : : : : : : : : : : * * * * * * * * & & & & & & & & # # & & & & & & & & & & & & & & & & & & & & & & & & & & & & & & & & & & & & & & & & & & & & & & & & & & & & & & # # + + O O + + & & * * , , , , - - * * & & - - - - * * * * & & * * * * * * = = & & = = - - - - * * * * - - & & & & & & & & = = - - , - - - & & & & - - , , , , * * # # O O O O O O + + # # & & & & & $ + + & & + + # # & & & & & & & & & & & & & & & & & & # # # # & & & # & & $ $ $ $ & & & & $ $ & & & $ & & & & $ $ $ $ & & & & & & & & & & & & & & & & & & & & & & & & & & & & & & & & & & & & & & & & & & & & & & & & $ $ & $ + + + + + + + + + + + + + + + + + + + + # # # # # # # # # # # # + + + + + + + + + + + + + + + + + + O + + + + + + + + + + + + + + + + + + + + + + + + + O O O O O O O O + + + + + + + + + + + + + + + + + + + + + + + + + + + + + + ",
"$ $ O O & & * * : : : : : : p p b b S S S S S S M M b b B B l l l l d d < < - - - - - - - - & & & & & & & & * * * * & & & & & & & & & & & & & & & & = = & & * * 6 6 p p p p w r 6 6 p p d d j j l l j j p p 6 6 6 6 p p j j j j g g 9 9 4 4 , , : : , , , , , , : : : : : : , , , , , , , , , , , , , , , , , , , , , , , , , , , , , , , , , , , , , , , , , , , , , , , , : : , , , , : : * * * * * * * * : * : : : : * * * * * * * * * * * * * * * * * * * * * * * * * * * * : : , , , , 4 4 , , , , , , , , , , , , : : * * * * * * * * * * , , , , , , , , : , : : : : , : : : : : : : : , , , : : , , , , , , , , , , * * * * * * * * : : : : : : : : : : : : : : : : : : : : : : : : * * * * * * * * : : : : : : : : : : * * * * * * * * & & & & & & & & # & & & & & & & & & & & & & & & & & & & & & & & & & & & & & & & & & & & & & & & & & & & & & & & & & & & & & & & # # + + O O + + & & * * , , , , - - * * & & * * - - * * * * & & * * * * * * = = & & = = - - - - * * * * - - & & & & & & & & = = - - , - - - & & & & - - , , , , * * # + O O O O O O + + # # & & & & & $ + + & & # + # # & & & & & & & & & & & & & & & & & & # # # # # & & & & & $ $ $ $ & & & & $ $ & & & $ $ & & $ $ $ $ $ & & & & & & & & & & & & & & & & & & & & & & & & & & & & & & & & & & & & & & & & & & & & & & & & $ $ & & + + + + + + + + + + + + + + + + + + + + # # # # # # # # # # # # + + + + + + + + + + + + + + + + + + O O + + + + + + + + + + + + + + + + + + + + + + + + O O O O O O O O + + + + + + + + + + + + + + + + + + + + + + + + + + + + + + ",
"& & & & & & O O         X X + + - - 3 3 , , < < < < < < w w l l b b B B l l w w - - & & & & # # + + O O # # & & * * - - - - , , < < < < < < < < 3 3 6 6 < < w w d d c c c c j j j j j j c c p p p p p p p p p p d p d d j j p p p p 6 6 , , , , : : * * * * * * : : : : : : : : : : : : - - - - - - - - - - - - - - - - - - - - - - , , , , - - - - , , , , - - : : : : : * * * : : : : : : & & & * * * * * * * * * * * * * * * * * * * * * * * * * * * * * * * * * * * * * * * * * : , , , , , , , , , , , , , 4 4 : , : : * * * * * * * * * * : : : : , , , , : , : : : : : : : : : : : : : : : : : : : : : : : : * * * * & * * * * * * * * * * * * * * * , : - - , , , : : : , : : : : : : : * * * * * * * * * * * * * * * * * * * * * * * * * * * * * * * * & & & & & & & & & & & & & & & & & & & & & & * * * & * * & & & & & & & & & & & & & & & & & & & & & & & & & & & & & & + + + + + + & & * * , , , , , , , , , , - - , , * * & & & & * * , , , , < < , , - - - - - - - - - - < < * * , , < < - - = * - - - - - - - - , , , , , , , , * * & & + + + + & & & & & & & & & & + + # # & & & & # # & & & & & & & & & & & & & & & & & & & & & & & & & & & & & & & & & & & & * * & & & & & & & & & & & & & & & & & * & & & & & & & & & & & & & & & & & & * * & & & & * * * * * * & & & & & & & & & & & & $ $ $ $ + + + + + + & & $ $ $ $ $ $ $ & & $ + + & & & & # # & & & & & & # # + # # # # # + + + + + + + + + + + + + + + + + + + + + + + + + + + + + + + + + + + + + + + + + + + + + + + + + + + + + + + + + + + + + + + + + + + + + + + + + + ",
"& & & & & & O O         X X + + - - < 3 , , < < < < < < w w l l b b B B l l w w - - & & & & # # + + O O # # & & * * - - - - , , < < < < < < < < 3 3 w 6 < < w w d d c l c c j j j j j j l l p p p p p p p p p p d d d d j j p p p p 6 6 , , , , : : : : * * * * : : : : : : : : : : : : - - - - - - - - - - - - - - - - - - - - - - , , , , - - - - - , , , - - : : : : : * * * : : : : : : & & * * * * * * * * * * * * * * * * * * * * * * * * * * * * * * * * * * * * * * * * * * : , , , , 4 , , , , , , , , 4 4 : : : : * * * * * * * * * * : : : : , , , , , , : : : : - - : : : : : : : : : : : : : : : : : : * * * * & & * * * * * * * * * * * * * * , : - - , , : : : : , , : : : : : : * * * * * * * * * * & & * * * * * * * * * * * * * * * * * * * * & & & & & & & & & & & & & & & & & & & & & & * * & & * * & & & & & & & & & & * * & & & & & & & & & & & & & & & & & & + + + + + + & & * * , , , , , , , , , , * - , , * * & & & & * * , , , , < < , , - - - - - - - - - - < < * * , , < < - - * * - - - - - - - - , , , , , , , , * * & & + + + + & & & & & & & & & & + + # # & & & & & # & & & & & & & & & & & & & & & & & & & & & & & & & & & & & & & & & & & & * * & * & & & & & & & & & & & & & & & * & & & & & & & & & & & & & & & & & & & & & & & & * * * * * * & & & & & & & & & & & & $ $ $ $ + + + + + + & & $ $ $ $ $ $ $ $ $ $ + + & & & & # # & & & & & & # # + # # # # # + + + + + + + + + + + + + + + + + + + + + + + + + + + + + + + + + + + + + + + + + + + + + + + + + + + + + + + + + + + + + + + + + + + + + + + + + + ",
"- - 3 3 3 3 3 3 & & O O O O = = * * & & O O O O O O X X O O & & < < c c b b d d - - & & & & & & & & O O O O O O & & - - 3 3 d d d d d d w w w w p p p p w 6 w w p p j j c c c c b b b b M M p p 6 6 < < 6 6 6 6 6 6 < < , , , , , , , , , , , , , , : : * * * * * * * * * * * * * * * * : : * * * * * * * * * * * * * * * * - - - - - * , , , , - - , , , , * * * * * * * * * * : : : : : : : : * * * * * * * * * * * * * * * * * * * * * * * * * * * * * * * * * * * * * * * * * * : : , , , , , , : : , , , , , , : : : : * * & & & & * * * * : : : : : : , , , , : : : : - - , , , , : , , , : : : : : : : : : : * * * * * * * * * * * * * * * * * * * * , , - , , , , : : : , , , : : : , , , , , , * * * * * * * * * * * * * * * * * * * * * * * * * * * * * * * * * * & & * * * * & & * * & & & & & * & & * * * * & & & & & & & & & & & & & & & & & & & & + + & & & & & & & & & & # # & & & & & & * * * * - - , , , , , , 6 6 < < - - , , 6 6 p p p p < < - - & & & & & & & & & & - - - - w w p p 6 6 < < < < 6 6 w w w w < < - - & & & & & & & & & & & & + + # # # # + + $ $ + $ & & & & & & & & & & & & & & & & & & & & & & & & & & & & & & & & & & * * * * * * * * * * * * * * * * & & * * & & & & & & & & & & & & * * * * * * * * * * * * * * * * * * * * * * * * * * * * * * * * & & & & & & & & & & & & $ $ & $ & & & & & & * * * * & & & & & & & & & & & & & & & & & & & & & & # # # # # # # # # # + + + + + + + + + + + + + + + + + + + + + + + + + + + + + + + + + + + + + + + + + + + + + + + + + + + + + + O O + O O + + + + O + + + + ",
"- - 3 3 3 3 3 3 & & O O O O = = * - & & O O O O O O X X O O & & < < c c b b d d - - & & & & & & & & O O O O O O & & - - 3 3 d d d d d d w w w w p p p p 6 6 w w p p j j c c c c c c b b M M p p 6 6 < < 6 6 6 6 6 6 < < , , , , , , , , , , , , , , : : * * * * * * * * * * * * * * * * : : * * * * * * * * * * * * * * * * - - - - - * , , , , , - , , , , * * * * * * * * * * : : : : : : : : * * * * * * * * * * * * * * * * * * * * * * * * * * * * * * * * * * * * * * * * * * : : , , , , , , : : : : , , , , : : : : * * & & & & * * * * : : : : : : , , , , : : : : - - , , , , , , , , : : : : : : : : : : * * * * * * * * * * * * * * * * * * * * , , , , , , , : : : , , , : : : , , , , , , * * * * * * * * * * * * * * * * * * * * * * * * * * * * * * * * * * & & * * * * & & * * & & & & & & & & * * * * & & & & & & & & & & & & & & & & & & & & + + & & & & & & & & & & # # & & & & & & * * * * - - , , , , < , 6 6 < < - - , , 6 6 p p p p < < - - & & & & & & & & & & - - - - w w p p 6 6 < < < < 6 6 w w w w < < - - & & & & & & & & & & & & + + + # # # + + $ $ $ $ & & & & & & & & & & & & & & & & & & & & & & & & & & & & & & & & & & * * * * * * * * * * * * * * * * & & & & & & & & & & & & & & & & * * * * * * * * * * * * * * * * * * * * * * * * * * * * * * * * & & & & & & & & & & & & & & & & & & & & & & * * * * & & & & & & & & & & & & & & & & & & & & & & # # # # # # # # # # + + + + + + + + + + + + + + + + + + + + + + + + + + + + + + + + + + + + + + + + + + + + + + + + + + + + + + O O O O + + + O O O + + + + "
};
